utils/luts/cinematic.cube
TITLE "Cinematic Teal-Orange"
LUT_3D_SIZE 33
0.000000 0.000000 0.024800
0.000000 0.000000 0.058088
0.000000 0.000000 0.091377
0.000000 0.000000 0.124665
0.000000 0.000000 0.157953
0.000000 0.000000 0.191241
0.000000 0.000000 0.224530
0.000000 0.000000 0.257818
0.000000 0.000000 0.291106
0.000000 0.000000 0.324395
0.000000 0.000000 0.357683
0.000000 0.000000 0.390971
0.000000 0.000000 0.424260
0.000000 0.000000 0.457548
0.000000 0.000000 0.490836
0.000000 0.000000 0.524124
0.000000 0.000000 0.557413
0.000000 0.000000 0.590701
0.000000 0.000000 0.623989
0.000000 0.000000 0.657278
0.000000 0.000000 0.690566
0.000000 0.000000 0.723854
0.000000 0.000000 0.757143
0.000000 0.000000 0.790431
0.000000 0.000000 0.823719
0.000000 0.000000 0.857007
0.000000 0.000000 0.890296
0.000000 0.000000 0.923584
0.000000 0.000000 0.956872
0.000000 0.000000 0.990161
0.000000 0.000000 1.000000
0.000000 0.000000 1.000000
0.000000 0.000000 1.000000
0.000000 0.000000 0.022423
0.000000 0.000000 0.055711
0.000000 0.000000 0.088999
0.000000 0.000000 0.122288
0.000000 0.000000 0.155576
0.000000 0.000000 0.188864
0.000000 0.000000 0.222152
0.000000 0.000000 0.255441
0.000000 0.000000 0.288729
0.000000 0.000000 0.322017
0.000000 0.000000 0.355306
0.000000 0.000000 0.388594
0.000000 0.000000 0.421882
0.000000 0.000000 0.455171
0.000000 0.000000 0.488459
0.000000 0.000000 0.521747
0.000000 0.000000 0.555035
0.000000 0.000000 0.588324
0.000000 0.000000 0.621612
0.000000 0.000000 0.654900
0.000000 0.000000 0.688189
0.000000 0.000000 0.721477
0.000000 0.000000 0.754765
0.000000 0.000000 0.788054
0.000000 0.000000 0.821342
0.000000 0.000000 0.854630
0.000000 0.000000 0.887918
0.000000 0.000000 0.921207
0.000000 0.000000 0.954495
0.000000 0.000000 0.987783
0.000000 0.000000 1.000000
0.000000 0.000000 1.000000
0.000000 0.000000 1.000000
0.000000 0.000000 0.020045
0.000000 0.000000 0.053334
0.000000 0.000000 0.086622
0.000000 0.000000 0.119910
0.000000 0.000000 0.153198
0.000000 0.000000 0.186487
0.000000 0.000000 0.219775
0.000000 0.000000 0.253063
0.000000 0.000000 0.286352
0.000000 0.000000 0.319640
0.000000 0.000000 0.352928
0.000000 0.000000 0.386217
0.000000 0.000000 0.419505
0.000000 0.000000 0.452793
0.000000 0.000000 0.486081
0.000000 0.000000 0.519370
0.000000 0.000000 0.552658
0.000000 0.000000 0.585946
0.000000 0.000000 0.619235
0.000000 0.000000 0.652523
0.000000 0.000000 0.685811
0.000000 0.000000 0.719100
0.000000 0.000000 0.752388
0.000000 0.000000 0.785676
0.000000 0.000000 0.818965
0.000000 0.000000 0.852253
0.000000 0.000000 0.885541
0.000000 0.000000 0.918829
0.000000 0.000000 0.952118
0.000000 0.000000 0.985406
0.000000 0.000000 1.000000
0.000000 0.000000 1.000000
0.000000 0.000000 1.000000
0.000000 0.013193 0.017668
0.000000 0.013578 0.050956
0.000000 0.013963 0.084245
0.000000 0.014348 0.117533
0.000000 0.014732 0.150821
0.000000 0.015117 0.184109
0.000000 0.015502 0.217398
0.000000 0.015887 0.250686
0.000000 0.016271 0.283974
0.000000 0.016656 0.317263
0.000000 0.017041 0.350551
0.000000 0.017426 0.383839
0.000000 0.017810 0.417128
0.000000 0.018195 0.450416
0.000000 0.018580 0.483704
0.000000 0.018965 0.516992
0.000000 0.019349 0.550281
0.000000 0.019734 0.583569
0.000000 0.020119 0.616857
0.000000 0.020504 0.650146
0.000000 0.020888 0.683434
0.000000 0.021273 0.716722
0.000000 0.021658 0.750011
0.000000 0.022043 0.783299
0.000000 0.022427 0.816587
0.000000 0.022812 0.849875
0.000000 0.023197 0.883164
0.000000 0.023582 0.916452
0.000000 0.023966 0.949740
0.000000 0.024351 0.983029
0.000000 0.024736 1.000000
0.000000 0.025121 1.000000
0.000000 0.025505 1.000000
0.000000 0.048924 0.015291
0.000000 0.049309 0.048579
0.000000 0.049694 0.081867
0.000000 0.050079 0.115156
0.000000 0.050463 0.148444
0.000000 0.050848 0.181732
0.000000 0.051233 0.215020
0.000000 0.051618 0.248309
0.000000 0.052002 0.281597
0.000000 0.052387 0.314885
0.000000 0.052772 0.348174
0.000000 0.053157 0.381462
0.000000 0.053541 0.414750
0.000000 0.053926 0.448039
0.000000 0.054311 0.481327
0.000000 0.054696 0.514615
0.000000 0.055080 0.547903
0.000000 0.055465 0.581192
0.000000 0.055850 0.614480
0.000000 0.056235 0.647768
0.000000 0.056619 0.681057
0.000000 0.057004 0.714345
0.000000 0.057389 0.747633
0.000000 0.057774 0.780922
0.000000 0.058159 0.814210
0.000000 0.058543 0.847498
0.000000 0.058928 0.880786
0.000000 0.059313 0.914075
0.000000 0.059698 0.947363
0.000000 0.060082 0.980651
0.000000 0.060467 1.000000
0.000000 0.060852 1.000000
0.000000 0.061237 1.000000
0.000000 0.084656 0.012913
0.000000 0.085040 0.046202
0.000000 0.085425 0.079490
0.000000 0.085810 0.112778
0.000000 0.086195 0.146066
0.000000 0.086579 0.179355
0.000000 0.086964 0.212643
0.000000 0.087349 0.245931
0.000000 0.087734 0.279220
0.000000 0.088118 0.312508
0.000000 0.088503 0.345796
0.000000 0.088888 0.379085
0.000000 0.089273 0.412373
0.000000 0.089657 0.445661
0.000000 0.090042 0.478949
0.000000 0.090427 0.512238
0.000000 0.090812 0.545526
0.000000 0.091196 0.578814
0.000000 0.091581 0.612103
0.000000 0.091966 0.645391
0.000000 0.092351 0.678679
0.000000 0.092735 0.711968
0.000000 0.093120 0.745256
0.000000 0.093505 0.778544
0.000000 0.093890 0.811832
0.000000 0.094274 0.845121
0.000000 0.094659 0.878409
0.000000 0.095044 0.911697
0.000000 0.095429 0.944986
0.000000 0.095813 0.978274
0.000000 0.096198 1.000000
0.000000 0.096583 1.000000
0.000000 0.096968 1.000000
0.000000 0.120387 0.010536
0.000000 0.120771 0.043824
0.000000 0.121156 0.077112
0.000000 0.121541 0.110401
0.000000 0.121926 0.143689
0.000000 0.122310 0.176977
0.000000 0.122695 0.210266
0.000000 0.123080 0.243554
0.000000 0.123465 0.276842
0.000000 0.123850 0.310131
0.000000 0.124234 0.343419
0.000000 0.124619 0.376707
0.000000 0.125004 0.409995
0.000000 0.125388 0.443284
0.000000 0.125773 0.476572
0.000000 0.126158 0.509860
0.000000 0.126543 0.543149
0.000000 0.126927 0.576437
0.000000 0.127312 0.609725
0.000000 0.127697 0.643014
0.000000 0.128082 0.676302
0.000000 0.128466 0.709590
0.000000 0.128851 0.742878
0.000000 0.129236 0.776167
0.000000 0.129621 0.809455
0.000000 0.130005 0.842743
0.000000 0.130390 0.876032
0.000000 0.130775 0.909320
0.000000 0.131160 0.942608
0.000000 0.131544 0.975897
0.000000 0.131929 1.000000
0.000000 0.132314 1.000000
0.000000 0.132699 1.000000
0.000000 0.156118 0.008159
0.000000 0.156503 0.041447
0.000000 0.156887 0.074735
0.000000 0.157272 0.108023
0.000000 0.157657 0.141312
0.000000 0.158042 0.174600
0.000000 0.158426 0.207888
0.000000 0.158811 0.241177
0.000000 0.159196 0.274465
0.000000 0.159581 0.307753
0.000000 0.159965 0.341042
0.000000 0.160350 0.374330
0.000000 0.160735 0.407618
0.000000 0.161120 0.440906
0.000000 0.161504 0.474195
0.000000 0.161889 0.507483
0.000000 0.162274 0.540771
0.000000 0.162659 0.574060
0.000000 0.163043 0.607348
0.000000 0.163428 0.640636
0.000000 0.163813 0.673925
0.000000 0.164198 0.707213
0.000000 0.164582 0.740501
0.000000 0.164967 0.773789
0.000000 0.165352 0.807078
0.000000 0.165737 0.840366
0.000000 0.166121 0.873654
0.000000 0.166506 0.906943
0.000000 0.166891 0.940231
0.000000 0.167276 0.973519
0.000000 0.167660 1.000000
0.000000 0.168045 1.000000
0.000000 0.168430 1.000000
0.000000 0.191849 0.005781
0.000000 0.192234 0.039069
0.000000 0.192618 0.072358
0.000000 0.193003 0.105646
0.000000 0.193388 0.138934
0.000000 0.193773 0.172223
0.000000 0.194157 0.205511
0.000000 0.194542 0.238799
0.000000 0.194927 0.272088
0.000000 0.195312 0.305376
0.000000 0.195696 0.338664
0.000000 0.196081 0.371952
0.000000 0.196466 0.405241
0.000000 0.196851 0.438529
0.000000 0.197235 0.471817
0.000000 0.197620 0.505106
0.000000 0.198005 0.538394
0.000000 0.198390 0.571682
0.000000 0.198774 0.604971
0.000000 0.199159 0.638259
0.000000 0.199544 0.671547
0.000000 0.199929 0.704835
0.000000 0.200313 0.738124
0.000000 0.200698 0.771412
0.000000 0.201083 0.804700
0.000000 0.201468 0.837989
0.000000 0.201852 0.871277
0.000000 0.202237 0.904565
0.000000 0.202622 0.937854
0.000000 0.203007 0.971142
0.000000 0.203392 1.000000
0.000000 0.203776 1.000000
0.000000 0.204161 1.000000
0.000000 0.227580 0.003404
0.000000 0.227965 0.036692
0.000000 0.228350 0.069980
0.000000 0.228734 0.103269
0.000000 0.229119 0.136557
0.000000 0.229504 0.169845
0.000000 0.229889 0.203134
0.000000 0.230273 0.236422
0.000000 0.230658 0.269710
0.000000 0.231043 0.302999
0.000000 0.231428 0.336287
0.000000 0.231812 0.369575
0.000000 0.232197 0.402863
0.000000 0.232582 0.436152
0.000000 0.232967 0.469440
0.000000 0.233351 0.502728
0.000000 0.233736 0.536017
0.000000 0.234121 0.569305
0.000000 0.234506 0.602593
0.000000 0.234890 0.635882
0.000000 0.235275 0.669170
0.000000 0.235660 0.702458
0.000000 0.236045 0.735746
0.000000 0.236429 0.769035
0.000000 0.236814 0.802323
0.000000 0.237199 0.835611
0.000000 0.237584 0.868900
0.000000 0.237968 0.902188
0.000000 0.238353 0.935476
0.000000 0.238738 0.968765
0.000000 0.239123 1.000000
0.000000 0.239507 1.000000
0.000000 0.239892 1.000000
0.000000 0.263311 0.001026
0.000000 0.263696 0.034315
0.000000 0.264081 0.067603
0.000000 0.264466 0.100891
0.000000 0.264850 0.134180
0.000000 0.265235 0.167468
0.000000 0.265620 0.200756
0.000000 0.266004 0.234045
0.000000 0.266389 0.267333
0.000000 0.266774 0.300621
0.000000 0.267159 0.333909
0.000000 0.267543 0.367198
0.000000 0.267928 0.400486
0.000000 0.268313 0.433774
0.000000 0.268698 0.467063
0.000000 0.269083 0.500351
0.000000 0.269467 0.533639
0.000000 0.269852 0.566928
0.000000 0.270237 0.600216
0.000000 0.270621 0.633504
0.000000 0.271006 0.666793
0.000000 0.271391 0.700081
0.000000 0.271776 0.733369
0.000000 0.272161 0.766657
0.000000 0.272545 0.799946
0.000000 0.272930 0.833234
0.000000 0.273315 0.866522
0.000000 0.273699 0.899811
0.000000 0.274084 0.933099
0.000000 0.274469 0.966387
0.000000 0.274854 0.999675
0.000000 0.275238 1.000000
0.000000 0.275623 1.000000
0.000000 0.299042 0.000000
0.000000 0.299427 0.031937
0.000000 0.299812 0.065226
0.000000 0.300197 0.098514
0.000000 0.300581 0.131802
0.000000 0.300966 0.165091
0.000000 0.301351 0.198379
0.000000 0.301736 0.231667
0.000000 0.302120 0.264956
0.000000 0.302505 0.298244
0.000000 0.302890 0.331532
0.000000 0.303275 0.364820
0.000000 0.303659 0.398109
0.000000 0.304044 0.431397
0.000000 0.304429 0.464685
0.000000 0.304814 0.497974
0.000000 0.305198 0.531262
0.000000 0.305583 0.564550
0.000000 0.305968 0.597839
0.000000 0.306353 0.631127
0.000000 0.306737 0.664415
0.000000 0.307122 0.697703
0.000000 0.307507 0.730992
0.000000 0.307892 0.764280
0.000000 0.308276 0.797568
0.000000 0.308661 0.830857
0.000000 0.309046 0.864145
0.000000 0.309431 0.897433
0.000000 0.309815 0.930722
0.000000 0.310200 0.964010
0.000000 0.310585 0.997298
0.000000 0.310970 1.000000
0.000000 0.311354 1.000000
0.000000 0.334774 0.000000
0.000000 0.335158 0.029560
0.000000 0.335543 0.062848
0.000000 0.335928 0.096137
0.000000 0.336313 0.129425
0.000000 0.336697 0.162713
0.000000 0.337082 0.196002
0.000000 0.337467 0.229290
0.000000 0.337851 0.262578
0.000000 0.338236 0.295866
0.000000 0.338621 0.329155
0.000000 0.339006 0.362443
0.000000 0.339390 0.395731
0.000000 0.339775 0.429020
0.000000 0.340160 0.462308
0.000000 0.340545 0.495596
0.000000 0.340929 0.528885
0.000000 0.341314 0.562173
0.000000 0.341699 0.595461
0.000000 0.342084 0.628750
0.000000 0.342468 0.662038
0.000000 0.342853 0.695326
0.000000 0.343238 0.728614
0.000000 0.343623 0.761903
0.000000 0.344008 0.795191
0.000000 0.344392 0.828479
0.000000 0.344777 0.861768
0.000000 0.345162 0.895056
0.000000 0.345546 0.928344
0.000000 0.345931 0.961633
0.000000 0.346316 0.994921
0.000000 0.346701 1.000000
0.000000 0.347086 1.000000
0.000000 0.370505 0.000000
0.000000 0.370889 0.027183
0.000000 0.371274 0.060471
0.000000 0.371659 0.093759
0.000000 0.372044 0.127048
0.000000 0.372428 0.160336
0.000000 0.372813 0.193624
0.000000 0.373198 0.226913
0.000000 0.373583 0.260201
0.000000 0.373967 0.293489
0.000000 0.374352 0.326777
0.000000 0.374737 0.360066
0.000000 0.375122 0.393354
0.000000 0.375506 0.426642
0.000000 0.375891 0.459931
0.000000 0.376276 0.493219
0.000000 0.376661 0.526507
0.000000 0.377045 0.559796
0.000000 0.377430 0.593084
0.000000 0.377815 0.626372
0.000000 0.378200 0.659660
0.000000 0.378584 0.692949
0.000000 0.378969 0.726237
0.000000 0.379354 0.759525
0.000000 0.379739 0.792814
0.000000 0.380123 0.826102
0.000000 0.380508 0.859390
0.000000 0.380893 0.892679
0.000000 0.381278 0.925967
0.000000 0.381662 0.959255
0.000000 0.382047 0.992543
0.000000 0.382432 1.000000
0.000000 0.382817 1.000000
0.000000 0.406236 0.000000
0.000000 0.406620 0.024805
0.000000 0.407005 0.058094
0.000000 0.407390 0.091382
0.000000 0.407775 0.124670
0.000000 0.408160 0.157959
0.000000 0.408544 0.191247
0.000000 0.408929 0.224535
0.000000 0.409314 0.257823
0.000000 0.409699 0.291112
0.000000 0.410083 0.324400
0.000000 0.410468 0.357688
0.000000 0.410853 0.390977
0.000000 0.411237 0.424265
0.000000 0.411622 0.457553
0.000000 0.412007 0.490842
0.000000 0.412392 0.524130
0.000000 0.412776 0.557418
0.000000 0.413161 0.590707
0.000000 0.413546 0.623995
0.000000 0.413931 0.657283
0.000000 0.414316 0.690571
0.000000 0.414700 0.723860
0.000000 0.415085 0.757148
0.000000 0.415470 0.790436
0.000000 0.415855 0.823725
0.000000 0.416239 0.857013
0.000000 0.416624 0.890301
0.000000 0.417009 0.923590
0.000000 0.417394 0.956878
0.000000 0.417778 0.990166
0.000000 0.418163 1.000000
0.000000 0.418548 1.000000
0.000000 0.441967 0.000000
0.000000 0.442352 0.022428
0.000000 0.442736 0.055716
0.000000 0.443121 0.089005
0.000000 0.443506 0.122293
0.000000 0.443891 0.155581
0.000000 0.444275 0.188870
0.000000 0.444660 0.222158
0.000000 0.445045 0.255446
0.000000 0.445430 0.288734
0.000000 0.445814 0.322023
0.000000 0.446199 0.355311
0.000000 0.446584 0.388599
0.000000 0.446969 0.421888
0.000000 0.447353 0.455176
0.000000 0.447738 0.488464
0.000000 0.448123 0.521753
0.000000 0.448508 0.555041
0.000000 0.448892 0.588329
0.000000 0.449277 0.621617
0.000000 0.449662 0.654906
0.000000 0.450047 0.688194
0.000000 0.450431 0.721482
0.000000 0.450816 0.754771
0.000000 0.451201 0.788059
0.000000 0.451586 0.821347
0.000000 0.451970 0.854636
0.000000 0.452355 0.887924
0.000000 0.452740 0.921212
0.000000 0.453125 0.954500
0.000000 0.453509 0.987789
0.000000 0.453894 1.000000
0.000000 0.454279 1.000000
0.000000 0.477698 0.000000
0.000000 0.478083 0.020051
0.000000 0.478467 0.053339
0.000000 0.478852 0.086627
0.000000 0.479237 0.119916
0.000000 0.479622 0.153204
0.000000 0.480007 0.186492
0.000000 0.480391 0.219780
0.000000 0.480776 0.253069
0.000000 0.481161 0.286357
0.000000 0.481546 0.319645
0.000000 0.481930 0.352934
0.000000 0.482315 0.386222
0.000000 0.482700 0.419510
0.000000 0.483084 0.452799
0.000000 0.483469 0.486087
0.000000 0.483854 0.519375
0.000000 0.484239 0.552664
0.000000 0.484623 0.585952
0.000000 0.485008 0.619240
0.000000 0.485393 0.652528
0.000000 0.485778 0.685817
0.000000 0.486162 0.719105
0.000000 0.486547 0.752393
0.000000 0.486932 0.785682
0.000000 0.487317 0.818970
0.000000 0.487702 0.852258
0.000000 0.488086 0.885547
0.000000 0.488471 0.918835
0.000000 0.488856 0.952123
0.000000 0.489241 0.985411
0.000000 0.489625 1.000000
0.000000 0.490010 1.000000
0.000000 0.513429 0.000000
0.000000 0.513814 0.017673
0.000000 0.514199 0.050962
0.000000 0.514583 0.084250
0.000000 0.514968 0.117538
0.000000 0.515353 0.150827
0.000000 0.515738 0.184115
0.000000 0.516122 0.217403
0.000000 0.516507 0.250691
0.000000 0.516892 0.283980
0.000000 0.517277 0.317268
0.000000 0.517661 0.350556
0.000000 0.518046 0.383845
0.000000 0.518431 0.417133
0.000000 0.518816 0.450421
0.000000 0.519200 0.483710
0.000000 0.519585 0.516998
0.000000 0.519970 0.550286
0.000000 0.520355 0.583574
0.000000 0.520739 0.616863
0.000000 0.521124 0.650151
0.000000 0.521509 0.683439
0.000000 0.521894 0.716728
0.000000 0.522278 0.750016
0.000000 0.522663 0.783304
0.000000 0.523048 0.816593
0.000000 0.523433 0.849881
0.000000 0.523817 0.883169
0.000000 0.524202 0.916457
0.000000 0.524587 0.949746
0.000000 0.524972 0.983034
0.000000 0.525356 1.000000
0.000000 0.525741 1.000000
0.000000 0.549160 0.000000
0.000000 0.549545 0.015296
0.000000 0.549930 0.048584
0.000000 0.550315 0.081873
0.000000 0.550699 0.115161
0.000000 0.551084 0.148449
0.000000 0.551469 0.181737
0.000000 0.551853 0.215026
0.000000 0.552238 0.248314
0.000000 0.552623 0.281602
0.000000 0.553008 0.314891
0.000000 0.553393 0.348179
0.000000 0.553777 0.381467
0.000000 0.554162 0.414756
0.000000 0.554547 0.448044
0.000000 0.554932 0.481332
0.000000 0.555316 0.514620
0.000000 0.555701 0.547909
0.000000 0.556086 0.581197
0.000000 0.556471 0.614485
0.000000 0.556855 0.647774
0.000000 0.557240 0.681062
0.000000 0.557625 0.714350
0.000000 0.558010 0.747639
0.000000 0.558394 0.780927
0.000000 0.558779 0.814215
0.000000 0.559164 0.847503
0.000000 0.559549 0.880792
0.000000 0.559933 0.914080
0.000000 0.560318 0.947368
0.000000 0.560703 0.980657
0.000000 0.561087 1.000000
0.000000 0.561472 1.000000
0.000000 0.584891 0.000000
0.000000 0.585276 0.012919
0.000000 0.585661 0.046207
0.000000 0.586046 0.079495
0.000000 0.586430 0.112784
0.000000 0.586815 0.146072
0.000000 0.587200 0.179360
0.000000 0.587585 0.212648
0.000000 0.587969 0.245937
0.000000 0.588354 0.279225
0.000000 0.588739 0.312513
0.000000 0.589124 0.345802
0.000000 0.589508 0.379090
0.000000 0.589893 0.412378
0.000000 0.590278 0.445667
0.000000 0.590663 0.478955
0.000000 0.591047 0.512243
0.000000 0.591432 0.545531
0.000000 0.591817 0.578820
0.000000 0.592202 0.612108
0.000000 0.592586 0.645396
0.000000 0.592971 0.678685
0.000000 0.593356 0.711973
0.000000 0.593741 0.745261
0.000000 0.594125 0.778550
0.000000 0.594510 0.811838
0.000000 0.594895 0.845126
0.000000 0.595280 0.878414
0.000000 0.595664 0.911703
0.000000 0.596049 0.944991
0.000000 0.596434 0.978279
0.000000 0.596819 1.000000
0.000000 0.597203 1.000000
0.000000 0.620622 0.000000
0.000000 0.621007 0.010541
0.000000 0.621392 0.043830
0.000000 0.621777 0.077118
0.000000 0.622161 0.110406
0.000000 0.622546 0.143695
0.000000 0.622931 0.176983
0.000000 0.623316 0.210271
0.000000 0.623700 0.243559
0.000000 0.624085 0.276848
0.000000 0.624470 0.310136
0.000000 0.624855 0.343424
0.000000 0.625239 0.376713
0.000000 0.625624 0.410001
0.000000 0.626009 0.443289
0.000000 0.626394 0.476578
0.000000 0.626779 0.509866
0.000000 0.627163 0.543154
0.000000 0.627548 0.576442
0.000000 0.627933 0.609731
0.000000 0.628317 0.643019
0.000000 0.628702 0.676307
0.000000 0.629087 0.709596
0.000000 0.629472 0.742884
0.000000 0.629857 0.776172
0.000000 0.630241 0.809461
0.000000 0.630626 0.842749
0.000000 0.631011 0.876037
0.000000 0.631395 0.909325
0.000000 0.631780 0.942614
0.000000 0.632165 0.975902
0.000000 0.632550 1.000000
0.000000 0.632935 1.000000
0.000000 0.656354 0.000000
0.000000 0.656738 0.008164
0.000000 0.657123 0.041452
0.000000 0.657508 0.074741
0.000000 0.657893 0.108029
0.000000 0.658277 0.141317
0.000000 0.658662 0.174605
0.000000 0.659047 0.207894
0.000000 0.659432 0.241182
0.000000 0.659816 0.274470
0.000000 0.660201 0.307759
0.000000 0.660586 0.341047
0.000000 0.660971 0.374335
0.000000 0.661355 0.407624
0.000000 0.661740 0.440912
0.000000 0.662125 0.474200
0.000000 0.662510 0.507488
0.000000 0.662894 0.540777
0.000000 0.663279 0.574065
0.000000 0.663664 0.607353
0.000000 0.664049 0.640642
0.000000 0.664433 0.673930
0.000000 0.664818 0.707218
0.000000 0.665203 0.740507
0.000000 0.665588 0.773795
0.000000 0.665972 0.807083
0.000000 0.666357 0.840371
0.000000 0.666742 0.873660
0.000000 0.667127 0.906948
0.000000 0.667511 0.940236
0.000000 0.667896 0.973525
0.000000 0.668281 1.000000
0.000000 0.668666 1.000000
0.000000 0.692085 0.000000
0.000000 0.692470 0.005787
0.000000 0.692854 0.039075
0.000000 0.693239 0.072363
0.000000 0.693624 0.105651
0.000000 0.694009 0.138940
0.000000 0.694393 0.172228
0.000000 0.694778 0.205516
0.000000 0.695163 0.238805
0.000000 0.695547 0.272093
0.000000 0.695932 0.305381
0.000000 0.696317 0.338670
0.000000 0.696702 0.371958
0.000000 0.697087 0.405246
0.000000 0.697471 0.438535
0.000000 0.697856 0.471823
0.000000 0.698241 0.505111
0.000000 0.698626 0.538399
0.000000 0.699010 0.571688
0.000000 0.699395 0.604976
0.000000 0.699780 0.638264
0.000000 0.700165 0.671553
0.000000 0.700549 0.704841
0.000000 0.700934 0.738129
0.000000 0.701319 0.771418
0.000000 0.701703 0.804706
0.000000 0.702088 0.837994
0.000000 0.702473 0.871282
0.000000 0.702572 0.904642
0.000000 0.702649 0.938008
0.000000 0.702725 0.971373
0.000000 0.702802 1.000000
0.000000 0.702879 1.000000
0.000000 0.727816 0.000000
0.000000 0.728201 0.003409
0.000000 0.728585 0.036698
0.000000 0.728970 0.069986
0.000000 0.729355 0.103274
0.000000 0.729740 0.136562
0.000000 0.730124 0.169851
0.000000 0.730509 0.203139
0.000000 0.730894 0.236427
0.000000 0.731279 0.269716
0.000000 0.731663 0.303004
0.000000 0.732048 0.336292
0.000000 0.732433 0.369581
0.000000 0.732818 0.402869
0.000000 0.733202 0.436157
0.000000 0.733587 0.469445
0.000000 0.733972 0.502734
0.000000 0.734357 0.536022
0.000000 0.734741 0.569310
0.000000 0.735126 0.602599
0.000000 0.735511 0.635887
0.000000 0.735896 0.669175
0.000000 0.736256 0.702470
0.000000 0.736333 0.735835
0.000000 0.736410 0.769200
0.000000 0.736487 0.802565
0.000000 0.736564 0.835931
0.000000 0.736641 0.869296
0.000000 0.736718 0.902661
0.000000 0.736795 0.936026
0.000000 0.736872 0.969392
0.000000 0.736949 1.000000
0.000000 0.737026 1.000000
0.000000 0.763547 0.000000
0.000000 0.763932 0.001032
0.000000 0.764317 0.034320
0.000000 0.764701 0.067608
0.000000 0.765086 0.100897
0.000000 0.765471 0.134185
0.000000 0.765856 0.167473
0.000000 0.766240 0.200762
0.000000 0.766625 0.234050
0.000000 0.767010 0.267338
0.000000 0.767394 0.300627
0.000000 0.767779 0.333915
0.000000 0.768164 0.367203
0.000000 0.768549 0.400492
0.000000 0.768933 0.433780
0.000000 0.769318 0.467068
0.000000 0.769703 0.500356
0.000000 0.770018 0.533662
0.000000 0.770095 0.567028
0.000000 0.770171 0.600393
0.000000 0.770248 0.633758
0.000000 0.770325 0.667123
0.000000 0.770402 0.700489
0.000000 0.770479 0.733854
0.000000 0.770556 0.767219
0.000000 0.770633 0.800584
0.000000 0.770710 0.833950
0.000000 0.770787 0.867315
0.000000 0.770864 0.900680
0.000000 0.770941 0.934045
0.000000 0.771018 0.967410
0.000000 0.771095 1.000000
0.000000 0.771172 1.000000
0.000000 0.799278 0.000000
0.000000 0.799663 0.000000
0.000000 0.800048 0.031943
0.000000 0.800432 0.065231
0.000000 0.800817 0.098519
0.000000 0.801202 0.131808
0.000000 0.801587 0.165096
0.000000 0.801971 0.198384
0.000000 0.802356 0.231673
0.000000 0.802741 0.264961
0.000000 0.803126 0.298249
0.000000 0.803510 0.331538
0.000000 0.803779 0.364855
0.000000 0.803856 0.398220
0.000000 0.803933 0.431585
0.000000 0.804010 0.464951
0.000000 0.804087 0.498316
0.000000 0.804164 0.531681
0.000000 0.804241 0.565046
0.000000 0.804318 0.598412
0.000000 0.804395 0.631777
0.000000 0.804472 0.665142
0.000000 0.804549 0.698507
0.000000 0.804625 0.731873
0.000000 0.804702 0.765238
0.000000 0.804779 0.798603
0.000000 0.804856 0.831968
0.000000 0.804933 0.865334
0.000000 0.805010 0.898699
0.000000 0.805087 0.932064
0.000000 0.805164 0.965429
0.000000 0.805241 0.998795
0.000000 0.805318 1.000000
0.000000 0.835009 0.000000
0.000000 0.835394 0.000000
0.000000 0.835779 0.029565
0.000000 0.836164 0.062854
0.000000 0.836548 0.096142
0.000000 0.836933 0.129430
0.000000 0.837318 0.162719
0.000000 0.837541 0.196047
0.000000 0.837617 0.229413
0.000000 0.837694 0.262778
0.000000 0.837771 0.296143
0.000000 0.837848 0.329508
0.000000 0.837925 0.362874
0.000000 0.838002 0.396239
0.000000 0.838079 0.429604
0.000000 0.838156 0.462970
0.000000 0.838233 0.496335
0.000000 0.838310 0.529700
0.000000 0.838387 0.563065
0.000000 0.838464 0.596430
0.000000 0.838541 0.629796
0.000000 0.838618 0.663161
0.000000 0.838695 0.696526
0.000000 0.838772 0.729891
0.000000 0.838849 0.763257
0.000000 0.838926 0.796622
0.000000 0.839003 0.829987
0.000000 0.839079 0.863352
0.000000 0.839156 0.896718
