utils/luts/cinematic.cube
TITLE "Cinematic Teal-Orange"
LUT_3D_SIZE 5
0.000000 0.000000 0.024800
0.000000 0.000000 0.291106
0.000000 0.000000 0.557413
0.000000 0.000000 0.823719
0.000000 0.000000 1.000000
0.000000 0.191849 0.005781
0.000000 0.194927 0.272088
0.000000 0.198005 0.538394
0.000000 0.201083 0.804700
0.000000 0.204161 1.000000
0.000000 0.477698 0.000000
0.000000 0.480776 0.253069
0.000000 0.483854 0.519375
0.000000 0.486932 0.785682
0.000000 0.490010 1.000000
0.000000 0.763547 0.000000
0.000000 0.766625 0.234050
0.000000 0.769703 0.500356
0.000000 0.770556 0.767219
0.000000 0.771172 1.000000
0.000000 1.000000 0.000000
0.000000 1.000000 0.217526
0.000000 1.000000 0.484448
0.000000 1.000000 0.751370
0.000000 1.000000 1.000000
0.202444 0.000000 0.015112
0.204291 0.000000 0.281419
0.206137 0.000000 0.547725
0.207984 0.000000 0.814032
0.209831 0.000000 1.000000
0.211953 0.199922 0.000000
0.213800 0.203000 0.262400
0.215647 0.206078 0.528706
0.217494 0.209156 0.795013
0.219340 0.212234 1.000000
0.221463 0.485771 0.000000
0.223309 0.488849 0.243381
0.225156 0.491927 0.509688
0.227003 0.495005 0.775994
0.228850 0.498083 1.000000
0.232592 0.770324 0.000000
0.237517 0.770940 0.225302
0.242442 0.771555 0.492224
0.247366 0.772171 0.759146
0.252291 0.772786 1.000000
0.257950 1.000000 0.000000
0.262875 1.000000 0.209453
0.267800 1.000000 0.476375
0.272725 1.000000 0.743297
0.277650 1.000000 1.000000
0.477288 0.000000 0.005425
0.479134 0.000000 0.271731
0.480981 0.000000 0.538038
0.482828 0.000000 0.804344
0.484675 0.000000 1.000000
0.486797 0.207995 0.000000
0.488644 0.211073 0.252712
0.490491 0.214151 0.519019
0.492337 0.217229 0.785325
0.494184 0.220307 1.000000
0.496306 0.493844 0.000000
0.498153 0.496922 0.233694
0.500000 0.500000 0.500000
0.504925 0.500616 0.766922
0.509850 0.501231 1.000000
0.515509 0.771939 0.000000
0.520434 0.772554 0.217229
0.525358 0.773170 0.484151
0.530283 0.773785 0.751073
0.535208 0.774401 1.000000
0.540867 1.000000 0.000000
0.545792 1.000000 0.201380
0.550717 1.000000 0.468302
0.555642 1.000000 0.735224
0.560566 1.000000 1.000000
0.752131 0.000000 0.000000
0.753978 0.000000 0.262044
0.755825 0.000000 0.528350
0.757672 0.000000 0.794656
0.759519 0.000000 1.000000
0.761641 0.216068 0.000000
0.763488 0.219146 0.243025
0.765334 0.222224 0.509331
0.767181 0.225302 0.775638
0.769028 0.228380 1.000000
0.773067 0.500383 0.000000
0.777992 0.500999 0.225005
0.782917 0.501615 0.491927
0.787842 0.502230 0.758849
0.792766 0.502846 1.000000
0.798426 0.773553 0.000000
0.803350 0.774169 0.209156
0.808275 0.774784 0.476078
0.813200 0.775400 0.743000
0.818125 0.776016 1.000000
0.823784 1.000000 0.000000
0.828709 1.000000 0.193307
0.833634 1.000000 0.460229
0.838558 1.000000 0.727151
0.843483 1.000000 0.994073
1.000000 0.000000 0.000000
1.000000 0.000000 0.252356
1.000000 0.000000 0.518662
1.000000 0.000000 0.784969
1.000000 0.000000 1.000000
1.000000 0.224141 0.000000
1.000000 0.227219 0.233337
1.000000 0.230059 0.499703
1.000000 0.230675 0.766625
1.000000 0.231291 1.000000
1.000000 0.501998 0.000000
1.000000 0.502614 0.216932
1.000000 0.503229 0.483854
1.000000 0.503845 0.750776
1.000000 0.504460 1.000000
1.000000 0.775168 0.000000
1.000000 0.775783 0.201083
1.000000 0.776399 0.468005
1.000000 0.777015 0.734927
1.000000 0.777630 1.000000
1.000000 1.000000 0.000000
1.000000 1.000000 0.185234
1.000000 1.000000 0.452156
1.000000 1.000000 0.719078
1.000000 1.000000 0.986000
