utils/luts/cinematic.cube
TITLE "Cinematic Teal-Orange"
LUT_3D_SIZE 9
0.000000 0.000000 0.024800
0.000000 0.000000 0.157953
0.000000 0.000000 0.291106
0.000000 0.000000 0.424260
0.000000 0.000000 0.557413
0.000000 0.000000 0.690566
0.000000 0.000000 0.823719
0.000000 0.000000 0.956872
0.000000 0.000000 1.000000
0.000000 0.048924 0.015291
0.000000 0.050463 0.148444
0.000000 0.052002 0.281597
0.000000 0.053541 0.414750
0.000000 0.055080 0.547903
0.000000 0.056619 0.681057
0.000000 0.058159 0.814210
0.000000 0.059698 0.947363
0.000000 0.061237 1.000000
0.000000 0.191849 0.005781
0.000000 0.193388 0.138934
0.000000 0.194927 0.272088
0.000000 0.196466 0.405241
0.000000 0.198005 0.538394
0.000000 0.199544 0.671547
0.000000 0.201083 0.804700
0.000000 0.202622 0.937854
0.000000 0.204161 1.000000
0.000000 0.334774 0.000000
0.000000 0.336313 0.129425
0.000000 0.337851 0.262578
0.000000 0.339390 0.395731
0.000000 0.340929 0.528885
0.000000 0.342468 0.662038
0.000000 0.344008 0.795191
0.000000 0.345546 0.928344
0.000000 0.347086 1.000000
0.000000 0.477698 0.000000
0.000000 0.479237 0.119916
0.000000 0.480776 0.253069
0.000000 0.482315 0.386222
0.000000 0.483854 0.519375
0.000000 0.485393 0.652528
0.000000 0.486932 0.785682
0.000000 0.488471 0.918835
0.000000 0.490010 1.000000
0.000000 0.620622 0.000000
0.000000 0.622161 0.110406
0.000000 0.623700 0.243559
0.000000 0.625239 0.376713
0.000000 0.626779 0.509866
0.000000 0.628317 0.643019
0.000000 0.629857 0.776172
0.000000 0.631395 0.909325
0.000000 0.632935 1.000000
0.000000 0.763547 0.000000
0.000000 0.765086 0.100897
0.000000 0.766625 0.234050
0.000000 0.768164 0.367203
0.000000 0.769703 0.500356
0.000000 0.770248 0.633758
0.000000 0.770556 0.767219
0.000000 0.770864 0.900680
0.000000 0.771172 1.000000
0.000000 0.905294 0.000000
0.000000 0.905602 0.091990
0.000000 0.905910 0.225450
0.000000 0.906218 0.358911
0.000000 0.906526 0.492372
0.000000 0.906833 0.625834
0.000000 0.907141 0.759294
0.000000 0.907449 0.892756
0.000000 0.907757 1.000000
0.000000 1.000000 0.000000
0.000000 1.000000 0.084065
0.000000 1.000000 0.217526
0.000000 1.000000 0.350987
0.000000 1.000000 0.484448
0.000000 1.000000 0.617909
0.000000 1.000000 0.751370
0.000000 1.000000 0.884831
0.000000 1.000000 1.000000
0.065022 0.000000 0.019956
0.065945 0.000000 0.153109
0.066869 0.000000 0.286263
0.067792 0.000000 0.419416
0.068715 0.000000 0.552569
0.069639 0.000000 0.685722
0.070562 0.000000 0.818875
0.071486 0.000000 0.952029
0.072409 0.000000 1.000000
0.069777 0.052961 0.010447
0.070700 0.054500 0.143600
0.071623 0.056039 0.276753
0.072547 0.057578 0.409906
0.073470 0.059117 0.543060
0.074394 0.060656 0.676213
0.075317 0.062195 0.809366
0.076240 0.063734 0.942519
0.077164 0.065273 1.000000
0.074531 0.195885 0.000937
0.075455 0.197425 0.134091
0.076378 0.198964 0.267244
0.077301 0.200502 0.400397
0.078225 0.202041 0.533550
0.079148 0.203580 0.666703
0.080072 0.205120 0.799857
0.080995 0.206658 0.933010
0.081919 0.208197 1.000000
0.079286 0.338810 0.000000
0.080209 0.340349 0.124581
0.081133 0.341888 0.257734
0.082056 0.343427 0.390888
0.082980 0.344966 0.524041
0.083903 0.346505 0.657194
0.084826 0.348044 0.790347
0.085750 0.349583 0.923500
0.086673 0.351122 1.000000
0.084041 0.481735 0.000000
0.084964 0.483274 0.115072
0.085888 0.484813 0.248225
0.086811 0.486351 0.381378
0.087734 0.487891 0.514531
0.088658 0.489430 0.647685
0.089581 0.490969 0.780838
0.090504 0.492508 0.913991
0.091428 0.494046 1.000000
0.088795 0.624659 0.000000
0.089719 0.626198 0.105562
0.090642 0.627737 0.238716
0.091566 0.629276 0.371869
0.092489 0.630815 0.505022
0.093412 0.632354 0.638175
0.094336 0.633893 0.771328
0.095691 0.635086 0.904568
0.098154 0.635394 1.000000
0.093550 0.767583 0.000000
0.094473 0.769123 0.096053
0.096058 0.770132 0.229338
0.098521 0.770440 0.362800
0.100983 0.770748 0.496261
0.103446 0.771056 0.629721
0.105908 0.771363 0.763183
0.108370 0.771671 0.896644
0.110833 0.771979 1.000000
0.103813 0.906102 0.000000
0.106275 0.906409 0.087953
0.108738 0.906717 0.221414
0.111200 0.907025 0.354875
0.113662 0.907333 0.488336
0.116125 0.907641 0.621797
0.118587 0.907948 0.755258
0.121050 0.908256 0.888719
0.123512 0.908564 1.000000
0.116492 1.000000 0.000000
0.118954 1.000000 0.080028
0.121417 1.000000 0.213489
0.123879 1.000000 0.346950
0.126342 1.000000 0.480411
0.128804 1.000000 0.613872
0.131266 1.000000 0.747333
0.133729 1.000000 0.880795
0.136191 1.000000 1.000000
0.202444 0.000000 0.015112
0.203367 0.000000 0.148266
0.204291 0.000000 0.281419
0.205214 0.000000 0.414572
0.206137 0.000000 0.547725
0.207061 0.000000 0.680878
0.207984 0.000000 0.814032
0.208908 0.000000 0.947185
0.209831 0.000000 1.000000
0.207199 0.056997 0.005603
0.208122 0.058536 0.138756
0.209045 0.060075 0.271909
0.209969 0.061614 0.405063
0.210892 0.063153 0.538216
0.211815 0.064692 0.671369
0.212739 0.066231 0.804522
0.213662 0.067771 0.937675
0.214586 0.069309 1.000000
0.211953 0.199922 0.000000
0.212877 0.201461 0.129247
0.213800 0.203000 0.262400
0.214723 0.204539 0.395553
0.215647 0.206078 0.528706
0.216570 0.207617 0.661860
0.217494 0.209156 0.795013
0.218417 0.210695 0.928166
0.219340 0.212234 1.000000
0.216708 0.342846 0.000000
0.217631 0.344386 0.119737
0.218555 0.345924 0.252891
0.219478 0.347463 0.386044
0.220401 0.349002 0.519197
0.221325 0.350542 0.652350
0.222248 0.352081 0.785503
0.223172 0.353619 0.918657
0.224095 0.355158 1.000000
0.221463 0.485771 0.000000
0.222386 0.487310 0.110228
0.223309 0.488849 0.243381
0.224233 0.490388 0.376534
0.225156 0.491927 0.509688
0.226080 0.493466 0.642841
0.227003 0.495005 0.775994
0.227926 0.496544 0.909147
0.228850 0.498083 1.000000
0.226217 0.628695 0.000000
0.227141 0.630235 0.100719
0.228064 0.631773 0.233872
0.228987 0.633312 0.367025
0.229911 0.634852 0.500178
0.232225 0.635278 0.633610
0.234687 0.635586 0.767070
0.237150 0.635894 0.900532
0.239612 0.636201 1.000000
0.232592 0.770324 0.000000
0.235054 0.770632 0.091841
0.237517 0.770940 0.225302
0.239979 0.771247 0.358763
0.242442 0.771555 0.492224
0.244904 0.771863 0.625685
0.247366 0.772171 0.759146
0.249829 0.772479 0.892607
0.252291 0.772786 1.000000
0.245271 0.906909 0.000000
0.247734 0.907217 0.083916
0.250196 0.907525 0.217378
0.252658 0.907832 0.350839
0.255121 0.908140 0.484299
0.257583 0.908448 0.617761
0.260046 0.908756 0.751221
0.262508 0.909064 0.884683
0.264970 0.909371 1.000000
0.257950 1.000000 0.000000
0.260413 1.000000 0.075992
0.262875 1.000000 0.209453
0.265338 1.000000 0.342914
0.267800 1.000000 0.476375
0.270262 1.000000 0.609836
0.272725 1.000000 0.743297
0.275187 1.000000 0.876758
0.277650 1.000000 1.000000
0.339866 0.000000 0.010269
0.340789 0.000000 0.143422
0.341712 0.000000 0.276575
0.342636 0.000000 0.409728
0.343559 0.000000 0.542881
0.344483 0.000000 0.676035
0.345406 0.000000 0.809188
0.346329 0.000000 0.942341
0.347253 0.000000 1.000000
0.344620 0.061034 0.000759
0.345544 0.062573 0.133912
0.346467 0.064112 0.267066
0.347391 0.065651 0.400219
0.348314 0.067190 0.533372
0.349237 0.068729 0.666525
0.350161 0.070268 0.799678
0.351084 0.071807 0.932832
0.352008 0.073346 1.000000
0.349375 0.203958 0.000000
0.350298 0.205497 0.124403
0.351222 0.207036 0.257556
0.352145 0.208575 0.390709
0.353069 0.210114 0.523863
0.353992 0.211653 0.657016
0.354915 0.213192 0.790169
0.355839 0.214731 0.923322
0.356762 0.216270 1.000000
0.354130 0.346883 0.000000
0.355053 0.348422 0.114894
0.355977 0.349961 0.248047
0.356900 0.351500 0.381200
0.357823 0.353039 0.514353
0.358747 0.354578 0.647506
0.359670 0.356117 0.780660
0.360594 0.357656 0.913813
0.361517 0.359195 1.000000
0.358884 0.489808 0.000000
0.359808 0.491347 0.105384
0.360731 0.492886 0.238537
0.361655 0.494424 0.371691
0.362578 0.495964 0.504844
0.363502 0.497503 0.637997
0.364425 0.499042 0.771150
0.365929 0.500116 0.904420
0.368391 0.500424 1.000000
0.363639 0.632732 0.000000
0.364563 0.634271 0.095875
0.366296 0.635162 0.229190
0.368758 0.635470 0.362651
0.371221 0.635778 0.496112
0.373683 0.636085 0.629573
0.376146 0.636393 0.763034
0.378608 0.636701 0.896495
0.381070 0.637009 1.000000
0.374050 0.771131 0.000000
0.376513 0.771439 0.087804
0.378975 0.771747 0.221265
0.381438 0.772055 0.354727
0.383900 0.772363 0.488187
0.386362 0.772670 0.621648
0.388825 0.772978 0.755110
0.391287 0.773286 0.888571
0.393750 0.773594 1.000000
0.386730 0.907716 0.000000
0.389192 0.908024 0.079880
0.391654 0.908332 0.213341
0.394117 0.908640 0.346802
0.396579 0.908947 0.480263
0.399042 0.909255 0.613724
0.401504 0.909563 0.747185
0.403966 0.909871 0.880646
0.406429 0.910179 1.000000
0.399409 1.000000 0.000000
0.401871 1.000000 0.071955
0.404334 1.000000 0.205416
0.406796 1.000000 0.338878
0.409258 1.000000 0.472338
0.411721 1.000000 0.605799
0.414183 1.000000 0.739260
0.416646 1.000000 0.872722
0.419108 1.000000 1.000000
0.477288 0.000000 0.005425
0.478211 0.000000 0.138578
0.479134 0.000000 0.271731
0.480058 0.000000 0.404884
0.480981 0.000000 0.538038
0.481905 0.000000 0.671191
0.482828 0.000000 0.804344
0.483751 0.000000 0.937497
0.484675 0.000000 1.000000
0.482042 0.065070 0.000000
0.482966 0.066609 0.129069
0.483889 0.068148 0.262222
0.484813 0.069687 0.395375
0.485736 0.071226 0.528528
0.486659 0.072765 0.661681
0.487583 0.074304 0.794835
0.488506 0.075843 0.927988
0.489430 0.077382 1.000000
0.486797 0.207995 0.000000
0.487720 0.209534 0.119559
0.488644 0.211073 0.252712
0.489567 0.212612 0.385866
0.490491 0.214151 0.519019
0.491414 0.215690 0.652172
0.492337 0.217229 0.785325
0.493261 0.218768 0.918478
0.494184 0.220307 1.000000
0.491552 0.350920 0.000000
0.492475 0.352458 0.110050
0.493398 0.353997 0.243203
0.494322 0.355536 0.376356
0.495245 0.357075 0.509509
0.496169 0.358615 0.642663
0.497092 0.360154 0.775816
0.498015 0.361692 0.908969
0.498939 0.363231 1.000000
0.496306 0.493844 0.000000
0.497230 0.495383 0.100540
0.498153 0.496922 0.233694
0.499077 0.498461 0.366847
0.500000 0.500000 0.500000
0.502462 0.500308 0.633461
0.504925 0.500616 0.766922
0.507387 0.500923 0.900383
0.509850 0.501231 1.000000
0.502830 0.635354 0.000000
0.505292 0.635661 0.091693
0.507754 0.635969 0.225154
0.510217 0.636277 0.358615
0.512679 0.636585 0.492075
0.515142 0.636893 0.625536
0.517604 0.637201 0.758997
0.520066 0.637508 0.892459
0.522529 0.637816 1.000000
0.515509 0.771939 0.000000
0.517971 0.772246 0.083768
0.520434 0.772554 0.217229
0.522896 0.772862 0.350690
0.525358 0.773170 0.484151
0.527821 0.773478 0.617612
0.530283 0.773785 0.751073
0.532746 0.774093 0.884534
0.535208 0.774401 1.000000
0.528188 0.908524 0.000000
0.530650 0.908831 0.075844
0.533113 0.909139 0.209305
0.535575 0.909447 0.342766
0.538038 0.909755 0.476226
0.540500 0.910062 0.609688
0.542962 0.910370 0.743148
0.545425 0.910678 0.876610
0.547887 0.910986 1.000000
0.540867 1.000000 0.000000
0.543330 1.000000 0.067919
0.545792 1.000000 0.201380
0.548254 1.000000 0.334841
0.550717 1.000000 0.468302
0.553179 1.000000 0.601763
0.555642 1.000000 0.735224
0.558104 1.000000 0.868685
0.560566 1.000000 1.000000
0.614710 0.000000 0.000581
0.615633 0.000000 0.133734
0.616556 0.000000 0.266887
0.617480 0.000000 0.400041
0.618403 0.000000 0.533194
0.619327 0.000000 0.666347
0.620250 0.000000 0.799500
0.621173 0.000000 0.932653
0.622097 0.000000 1.000000
0.619464 0.069107 0.000000
0.620388 0.070646 0.124225
0.621311 0.072185 0.257378
0.622234 0.073724 0.390531
0.623158 0.075263 0.523684
0.624081 0.076802 0.656838
0.625005 0.078341 0.789991
0.625928 0.079880 0.923144
0.626851 0.081419 1.000000
0.624219 0.212031 0.000000
0.625142 0.213570 0.114715
0.626066 0.215109 0.247869
0.626989 0.216648 0.381022
0.627912 0.218187 0.514175
0.628836 0.219726 0.647328
0.629759 0.221265 0.780481
0.630683 0.222804 0.913635
0.631606 0.224343 1.000000
0.628974 0.354956 0.000000
0.629897 0.356495 0.105206
0.630820 0.358034 0.238359
0.631744 0.359573 0.371512
0.632667 0.361112 0.504666
0.633591 0.362651 0.637819
0.634514 0.364190 0.770972
0.636166 0.365146 0.904271
0.638629 0.365454 1.000000
0.633728 0.497881 0.000000
0.634652 0.499419 0.095697
0.636534 0.500192 0.229042
0.638996 0.500499 0.362503
0.641458 0.500807 0.495964
0.643921 0.501115 0.629425
0.646383 0.501423 0.762886
0.648846 0.501731 0.896347
0.651308 0.502039 1.000000
0.644288 0.636161 0.000000
0.646750 0.636469 0.087656
0.649213 0.636777 0.221117
0.651675 0.637084 0.354578
0.654138 0.637392 0.488039
0.656600 0.637700 0.621500
0.659062 0.638008 0.754961
0.661525 0.638316 0.888422
0.663987 0.638623 1.000000
0.656967 0.772746 0.000000
0.659430 0.773054 0.079731
0.661892 0.773362 0.213193
0.664354 0.773669 0.346654
0.666817 0.773977 0.480114
0.669279 0.774285 0.613576
0.671742 0.774593 0.747037
0.674204 0.774900 0.880498
0.676666 0.775208 1.000000
0.669646 0.909331 0.000000
0.672109 0.909639 0.071807
0.674571 0.909946 0.205268
0.677034 0.910254 0.338729
0.679496 0.910562 0.472190
0.681958 0.910870 0.605651
0.684421 0.911178 0.739112
0.686883 0.911485 0.872573
0.689346 0.911793 1.000000
0.682326 1.000000 0.000000
0.684788 1.000000 0.063882
0.687250 1.000000 0.197343
0.689713 1.000000 0.330805
0.692175 1.000000 0.464265
0.694638 1.000000 0.597727
0.697100 1.000000 0.731188
0.699562 1.000000 0.864649
0.702025 1.000000 0.998109
0.752131 0.000000 0.000000
0.753055 0.000000 0.128890
0.753978 0.000000 0.262044
0.754902 0.000000 0.395197
0.755825 0.000000 0.528350
0.756748 0.000000 0.661503
0.757672 0.000000 0.794656
0.758595 0.000000 0.927810
0.759519 0.000000 1.000000
0.756886 0.073143 0.000000
0.757810 0.074682 0.119381
0.758733 0.076221 0.252534
0.759656 0.077760 0.385687
0.760580 0.079299 0.518841
0.761503 0.080838 0.651994
0.762427 0.082377 0.785147
0.763350 0.083916 0.918300
0.764273 0.085455 1.000000
0.761641 0.216068 0.000000
0.762564 0.217607 0.109872
0.763488 0.219146 0.243025
0.764411 0.220685 0.376178
0.765334 0.222224 0.509331
0.766258 0.223763 0.642484
0.767181 0.225302 0.775638
0.768105 0.226841 0.908791
0.769028 0.228380 1.000000
0.766396 0.358992 0.000000
0.767319 0.360532 0.100362
0.768242 0.362070 0.233515
0.769166 0.363610 0.366669
0.770238 0.365030 0.499852
0.772700 0.365337 0.633312
0.775162 0.365645 0.766773
0.777625 0.365953 0.900235
0.780087 0.366261 1.000000
0.773067 0.500383 0.000000
0.775530 0.500691 0.091544
0.777992 0.500999 0.225005
0.780454 0.501307 0.358466
0.782917 0.501615 0.491927
0.785379 0.501922 0.625388
0.787842 0.502230 0.758849
0.790304 0.502538 0.892310
0.792766 0.502846 1.000000
0.785746 0.636968 0.000000
0.788209 0.637276 0.083620
0.790671 0.637584 0.217081
0.793134 0.637892 0.350542
0.795596 0.638200 0.484003
0.798058 0.638507 0.617463
0.800521 0.638815 0.750924
0.802983 0.639123 0.884386
0.805446 0.639431 1.000000
0.798426 0.773553 0.000000
0.800888 0.773861 0.075695
0.803350 0.774169 0.209156
0.805813 0.774477 0.342617
0.808275 0.774784 0.476078
0.810738 0.775092 0.609539
0.813200 0.775400 0.743000
0.815662 0.775708 0.876461
0.818125 0.776016 1.000000
0.811105 0.910138 0.000000
0.813567 0.910446 0.067771
0.816030 0.910754 0.201232
0.818492 0.911061 0.334693
0.820954 0.911369 0.468154
0.823417 0.911677 0.601614
0.825879 0.911985 0.735075
0.828342 0.912293 0.868537
0.830804 0.912601 1.000000
0.823784 1.000000 0.000000
0.826246 1.000000 0.059846
0.828709 1.000000 0.193307
0.831171 1.000000 0.326768
0.833634 1.000000 0.460229
0.836096 1.000000 0.593690
0.838558 1.000000 0.727151
0.841021 1.000000 0.860612
0.843483 1.000000 0.994073
0.889553 0.000000 0.000000
0.890477 0.000000 0.124047
0.891400 0.000000 0.257200
0.892324 0.000000 0.390353
0.893247 0.000000 0.523506
0.894170 0.000000 0.656659
0.895094 0.000000 0.789813
0.896017 0.000000 0.922966
0.896940 0.000000 1.000000
0.894308 0.077180 0.000000
0.895231 0.078719 0.114537
0.896155 0.080258 0.247690
0.897078 0.081797 0.380844
0.898002 0.083336 0.513997
0.898925 0.084875 0.647150
0.899848 0.086414 0.780303
0.900772 0.087953 0.913456
0.901695 0.089492 1.000000
0.899063 0.220105 0.000000
0.899986 0.221643 0.105028
0.900910 0.223183 0.238181
0.901833 0.224722 0.371334
0.902756 0.226260 0.504487
0.903680 0.227799 0.637641
0.904603 0.229338 0.770794
0.906404 0.230175 0.904123
0.908866 0.230483 1.000000
0.903817 0.363029 0.000000
0.904741 0.364568 0.095518
0.906771 0.365221 0.228893
0.909234 0.365529 0.362354
0.911696 0.365837 0.495815
0.914158 0.366145 0.629276
0.916621 0.366453 0.762737
0.919083 0.366760 0.896198
0.921546 0.367068 1.000000
0.914526 0.501191 0.000000
0.916988 0.501498 0.087508
0.919450 0.501806 0.220969
0.921913 0.502114 0.354429
0.924375 0.502422 0.487891
0.926838 0.502730 0.621352
0.929300 0.503038 0.754813
0.931762 0.503345 0.888274
0.934225 0.503653 1.000000
0.927205 0.637776 0.000000
0.929667 0.638083 0.079583
0.932130 0.638391 0.213044
0.934592 0.638699 0.346505
0.937054 0.639007 0.479966
0.939517 0.639315 0.613427
0.941979 0.639622 0.746888
0.944442 0.639930 0.880349
0.946904 0.640238 1.000000
0.939884 0.774361 0.000000
0.942346 0.774668 0.071658
0.944809 0.774976 0.205120
0.947271 0.775284 0.338580
0.949734 0.775592 0.472042
0.952196 0.775900 0.605503
0.954658 0.776207 0.738964
0.957121 0.776515 0.872425
0.959583 0.776823 1.000000
0.952563 0.910945 0.000000
0.955026 0.911253 0.063734
0.957488 0.911561 0.197195
0.959950 0.911869 0.330656
0.962413 0.912177 0.464117
0.964875 0.912484 0.597578
0.967338 0.912792 0.731039
0.969800 0.913100 0.864500
0.972262 0.913408 0.997961
0.965242 1.000000 0.000000
0.967705 1.000000 0.055809
0.970167 1.000000 0.189271
0.972630 1.000000 0.322732
0.975092 1.000000 0.456193
0.977554 1.000000 0.589654
0.980017 1.000000 0.723115
0.982479 1.000000 0.856576
0.984942 1.000000 0.990036
1.000000 0.000000 0.000000
1.000000 0.000000 0.119203
1.000000 0.000000 0.252356
1.000000 0.000000 0.385509
1.000000 0.000000 0.518662
1.000000 0.000000 0.651816
1.000000 0.000000 0.784969
1.000000 0.000000 0.918122
1.000000 0.000000 1.000000
1.000000 0.081216 0.000000
1.000000 0.082755 0.109693
1.000000 0.084294 0.242847
1.000000 0.085834 0.376000
1.000000 0.087373 0.509153
1.000000 0.088912 0.642306
1.000000 0.090450 0.775459
1.000000 0.091990 0.908613
1.000000 0.093528 1.000000
1.000000 0.224141 0.000000
1.000000 0.225680 0.100184
1.000000 0.227219 0.233337
1.000000 0.228758 0.366490
1.000000 0.230059 0.499703
1.000000 0.230367 0.633164
1.000000 0.230675 0.766625
1.000000 0.230983 0.900086
1.000000 0.231291 1.000000
1.000000 0.365413 0.000000
1.000000 0.365721 0.091395
1.000000 0.366029 0.224856
1.000000 0.366336 0.358317
1.000000 0.366644 0.491778
1.000000 0.366952 0.625239
1.000000 0.367260 0.758700
1.000000 0.367568 0.892162
1.000000 0.367876 1.000000
1.000000 0.501998 0.000000
1.000000 0.502306 0.083471
1.000000 0.502614 0.216932
1.000000 0.502921 0.350393
1.000000 0.503229 0.483854
1.000000 0.503537 0.617315
1.000000 0.503845 0.750776
1.000000 0.504153 0.884237
1.000000 0.504460 1.000000
1.000000 0.638583 0.000000
1.000000 0.638891 0.075546
1.000000 0.639199 0.209007
1.000000 0.639506 0.342468
1.000000 0.639814 0.475930
1.000000 0.640122 0.609390
1.000000 0.640430 0.742851
1.000000 0.640738 0.876313
1.000000 0.641045 1.000000
1.000000 0.775168 0.000000
1.000000 0.775476 0.067622
1.000000 0.775783 0.201083
1.000000 0.776091 0.334544
1.000000 0.776399 0.468005
1.000000 0.776707 0.601466
1.000000 0.777015 0.734927
1.000000 0.777322 0.868388
1.000000 0.777630 1.000000
1.000000 0.911753 0.000000
1.000000 0.912060 0.059698
1.000000 0.912368 0.193159
1.000000 0.912676 0.326619
1.000000 0.912984 0.460081
1.000000 0.913292 0.593541
1.000000 0.913600 0.727002
1.000000 0.913907 0.860464
1.000000 0.914215 0.993924
1.000000 1.000000 0.000000
1.000000 1.000000 0.051773
1.000000 1.000000 0.185234
1.000000 1.000000 0.318695
1.000000 1.000000 0.452156
1.000000 1.000000 0.585617
1.000000 1.000000 0.719078
1.000000 1.000000 0.852539
1.000000 1.000000 0.986000
