utils/luts/cool.cube
TITLE "Cool Blue"
LUT_3D_SIZE 33
0.000000 0.000000 0.000000
0.000000 0.000000 0.020281
0.000000 0.000000 0.055062
0.000000 0.000000 0.089844
0.000000 0.000000 0.124625
0.000000 0.000000 0.159406
0.000000 0.000000 0.194187
0.000000 0.000000 0.228969
0.000000 0.000000 0.263750
0.000000 0.000000 0.298531
0.000000 0.000000 0.333313
0.000000 0.000000 0.368094
0.000000 0.000000 0.402875
0.000000 0.000000 0.437656
0.000000 0.000000 0.472438
0.000000 0.000000 0.507219
0.000000 0.000000 0.542000
0.000000 0.000000 0.576781
0.000000 0.000000 0.611563
0.000000 0.000000 0.646344
0.000000 0.000000 0.681125
0.000000 0.000000 0.715906
0.000000 0.000000 0.750687
0.000000 0.000000 0.785469
0.000000 0.000000 0.820250
0.000000 0.000000 0.855031
0.000000 0.000000 0.889813
0.000000 0.000000 0.924594
0.000000 0.000000 0.959375
0.000000 0.000000 0.994156
0.000000 0.000000 1.000000
0.000000 0.000000 1.000000
0.000000 0.000000 1.000000
0.000000 0.007156 0.000000
0.000000 0.007156 0.020281
0.000000 0.007156 0.055062
0.000000 0.007156 0.089844
0.000000 0.007156 0.124625
0.000000 0.007156 0.159406
0.000000 0.007156 0.194187
0.000000 0.007156 0.228969
0.000000 0.007156 0.263750
0.000000 0.007156 0.298531
0.000000 0.007156 0.333313
0.000000 0.007156 0.368094
0.000000 0.007156 0.402875
0.000000 0.007156 0.437656
0.000000 0.007156 0.472438
0.000000 0.007156 0.507219
0.000000 0.007156 0.542000
0.000000 0.007156 0.576781
0.000000 0.007156 0.611563
0.000000 0.007156 0.646344
0.000000 0.007156 0.681125
0.000000 0.007156 0.715906
0.000000 0.007156 0.750687
0.000000 0.007156 0.785469
0.000000 0.007156 0.820250
0.000000 0.007156 0.855031
0.000000 0.007156 0.889813
0.000000 0.007156 0.924594
0.000000 0.007156 0.959375
0.000000 0.007156 0.994156
0.000000 0.007156 1.000000
0.000000 0.007156 1.000000
0.000000 0.007156 1.000000
0.000000 0.039313 0.000000
0.000000 0.039313 0.020281
0.000000 0.039313 0.055062
0.000000 0.039313 0.089844
0.000000 0.039313 0.124625
0.000000 0.039313 0.159406
0.000000 0.039313 0.194187
0.000000 0.039313 0.228969
0.000000 0.039313 0.263750
0.000000 0.039313 0.298531
0.000000 0.039313 0.333313
0.000000 0.039313 0.368094
0.000000 0.039313 0.402875
0.000000 0.039313 0.437656
0.000000 0.039313 0.472438
0.000000 0.039313 0.507219
0.000000 0.039313 0.542000
0.000000 0.039313 0.576781
0.000000 0.039313 0.611563
0.000000 0.039313 0.646344
0.000000 0.039313 0.681125
0.000000 0.039313 0.715906
0.000000 0.039313 0.750687
0.000000 0.039313 0.785469
0.000000 0.039313 0.820250
0.000000 0.039313 0.855031
0.000000 0.039313 0.889813
0.000000 0.039313 0.924594
0.000000 0.039313 0.959375
0.000000 0.039313 0.994156
0.000000 0.039313 1.000000
0.000000 0.039313 1.000000
0.000000 0.039313 1.000000
0.000000 0.071469 0.000000
0.000000 0.071469 0.020281
0.000000 0.071469 0.055062
0.000000 0.071469 0.089844
0.000000 0.071469 0.124625
0.000000 0.071469 0.159406
0.000000 0.071469 0.194187
0.000000 0.071469 0.228969
0.000000 0.071469 0.263750
0.000000 0.071469 0.298531
0.000000 0.071469 0.333313
0.000000 0.071469 0.368094
0.000000 0.071469 0.402875
0.000000 0.071469 0.437656
0.000000 0.071469 0.472438
0.000000 0.071469 0.507219
0.000000 0.071469 0.542000
0.000000 0.071469 0.576781
0.000000 0.071469 0.611563
0.000000 0.071469 0.646344
0.000000 0.071469 0.681125
0.000000 0.071469 0.715906
0.000000 0.071469 0.750687
0.000000 0.071469 0.785469
0.000000 0.071469 0.820250
0.000000 0.071469 0.855031
0.000000 0.071469 0.889813
0.000000 0.071469 0.924594
0.000000 0.071469 0.959375
0.000000 0.071469 0.994156
0.000000 0.071469 1.000000
0.000000 0.071469 1.000000
0.000000 0.071469 1.000000
0.000000 0.103625 0.000000
0.000000 0.103625 0.020281
0.000000 0.103625 0.055062
0.000000 0.103625 0.089844
0.000000 0.103625 0.124625
0.000000 0.103625 0.159406
0.000000 0.103625 0.194187
0.000000 0.103625 0.228969
0.000000 0.103625 0.263750
0.000000 0.103625 0.298531
0.000000 0.103625 0.333313
0.000000 0.103625 0.368094
0.000000 0.103625 0.402875
0.000000 0.103625 0.437656
0.000000 0.103625 0.472438
0.000000 0.103625 0.507219
0.000000 0.103625 0.542000
0.000000 0.103625 0.576781
0.000000 0.103625 0.611563
0.000000 0.103625 0.646344
0.000000 0.103625 0.681125
0.000000 0.103625 0.715906
0.000000 0.103625 0.750687
0.000000 0.103625 0.785469
0.000000 0.103625 0.820250
0.000000 0.103625 0.855031
0.000000 0.103625 0.889813
0.000000 0.103625 0.924594
0.000000 0.103625 0.959375
0.000000 0.103625 0.994156
0.000000 0.103625 1.000000
0.000000 0.103625 1.000000
0.000000 0.103625 1.000000
0.000000 0.135781 0.000000
0.000000 0.135781 0.020281
0.000000 0.135781 0.055062
0.000000 0.135781 0.089844
0.000000 0.135781 0.124625
0.000000 0.135781 0.159406
0.000000 0.135781 0.194187
0.000000 0.135781 0.228969
0.000000 0.135781 0.263750
0.000000 0.135781 0.298531
0.000000 0.135781 0.333313
0.000000 0.135781 0.368094
0.000000 0.135781 0.402875
0.000000 0.135781 0.437656
0.000000 0.135781 0.472438
0.000000 0.135781 0.507219
0.000000 0.135781 0.542000
0.000000 0.135781 0.576781
0.000000 0.135781 0.611563
0.000000 0.135781 0.646344
0.000000 0.135781 0.681125
0.000000 0.135781 0.715906
0.000000 0.135781 0.750687
0.000000 0.135781 0.785469
0.000000 0.135781 0.820250
0.000000 0.135781 0.855031
0.000000 0.135781 0.889813
0.000000 0.135781 0.924594
0.000000 0.135781 0.959375
0.000000 0.135781 0.994156
0.000000 0.135781 1.000000
0.000000 0.135781 1.000000
0.000000 0.135781 1.000000
0.000000 0.167937 0.000000
0.000000 0.167937 0.020281
0.000000 0.167937 0.055062
0.000000 0.167937 0.089844
0.000000 0.167937 0.124625
0.000000 0.167937 0.159406
0.000000 0.167937 0.194187
0.000000 0.167937 0.228969
0.000000 0.167937 0.263750
0.000000 0.167937 0.298531
0.000000 0.167937 0.333313
0.000000 0.167937 0.368094
0.000000 0.167937 0.402875
0.000000 0.167937 0.437656
0.000000 0.167937 0.472438
0.000000 0.167937 0.507219
0.000000 0.167937 0.542000
0.000000 0.167937 0.576781
0.000000 0.167937 0.611563
0.000000 0.167937 0.646344
0.000000 0.167937 0.681125
0.000000 0.167937 0.715906
0.000000 0.167937 0.750687
0.000000 0.167937 0.785469
0.000000 0.167937 0.820250
0.000000 0.167937 0.855031
0.000000 0.167937 0.889813
0.000000 0.167937 0.924594
0.000000 0.167937 0.959375
0.000000 0.167937 0.994156
0.000000 0.167937 1.000000
0.000000 0.167937 1.000000
0.000000 0.167937 1.000000
0.000000 0.200094 0.000000
0.000000 0.200094 0.020281
0.000000 0.200094 0.055062
0.000000 0.200094 0.089844
0.000000 0.200094 0.124625
0.000000 0.200094 0.159406
0.000000 0.200094 0.194187
0.000000 0.200094 0.228969
0.000000 0.200094 0.263750
0.000000 0.200094 0.298531
0.000000 0.200094 0.333313
0.000000 0.200094 0.368094
0.000000 0.200094 0.402875
0.000000 0.200094 0.437656
0.000000 0.200094 0.472438
0.000000 0.200094 0.507219
0.000000 0.200094 0.542000
0.000000 0.200094 0.576781
0.000000 0.200094 0.611563
0.000000 0.200094 0.646344
0.000000 0.200094 0.681125
0.000000 0.200094 0.715906
0.000000 0.200094 0.750687
0.000000 0.200094 0.785469
0.000000 0.200094 0.820250
0.000000 0.200094 0.855031
0.000000 0.200094 0.889813
0.000000 0.200094 0.924594
0.000000 0.200094 0.959375
0.000000 0.200094 0.994156
0.000000 0.200094 1.000000
0.000000 0.200094 1.000000
0.000000 0.200094 1.000000
0.000000 0.232250 0.000000
0.000000 0.232250 0.020281
0.000000 0.232250 0.055062
0.000000 0.232250 0.089844
0.000000 0.232250 0.124625
0.000000 0.232250 0.159406
0.000000 0.232250 0.194187
0.000000 0.232250 0.228969
0.000000 0.232250 0.263750
0.000000 0.232250 0.298531
0.000000 0.232250 0.333313
0.000000 0.232250 0.368094
0.000000 0.232250 0.402875
0.000000 0.232250 0.437656
0.000000 0.232250 0.472438
0.000000 0.232250 0.507219
0.000000 0.232250 0.542000
0.000000 0.232250 0.576781
0.000000 0.232250 0.611563
0.000000 0.232250 0.646344
0.000000 0.232250 0.681125
0.000000 0.232250 0.715906
0.000000 0.232250 0.750687
0.000000 0.232250 0.785469
0.000000 0.232250 0.820250
0.000000 0.232250 0.855031
0.000000 0.232250 0.889813
0.000000 0.232250 0.924594
0.000000 0.232250 0.959375
0.000000 0.232250 0.994156
0.000000 0.232250 1.000000
0.000000 0.232250 1.000000
0.000000 0.232250 1.000000
0.000000 0.264406 0.000000
0.000000 0.264406 0.020281
0.000000 0.264406 0.055062
0.000000 0.264406 0.089844
0.000000 0.264406 0.124625
0.000000 0.264406 0.159406
0.000000 0.264406 0.194187
0.000000 0.264406 0.228969
0.000000 0.264406 0.263750
0.000000 0.264406 0.298531
0.000000 0.264406 0.333313
0.000000 0.264406 0.368094
0.000000 0.264406 0.402875
0.000000 0.264406 0.437656
0.000000 0.264406 0.472438
0.000000 0.264406 0.507219
0.000000 0.264406 0.542000
0.000000 0.264406 0.576781
0.000000 0.264406 0.611563
0.000000 0.264406 0.646344
0.000000 0.264406 0.681125
0.000000 0.264406 0.715906
0.000000 0.264406 0.750687
0.000000 0.264406 0.785469
0.000000 0.264406 0.820250
0.000000 0.264406 0.855031
0.000000 0.264406 0.889813
0.000000 0.264406 0.924594
0.000000 0.264406 0.959375
0.000000 0.264406 0.994156
0.000000 0.264406 1.000000
0.000000 0.264406 1.000000
0.000000 0.264406 1.000000
0.000000 0.296563 0.000000
0.000000 0.296563 0.020281
0.000000 0.296563 0.055062
0.000000 0.296563 0.089844
0.000000 0.296563 0.124625
0.000000 0.296563 0.159406
0.000000 0.296563 0.194187
0.000000 0.296563 0.228969
0.000000 0.296563 0.263750
0.000000 0.296563 0.298531
0.000000 0.296563 0.333313
0.000000 0.296563 0.368094
0.000000 0.296563 0.402875
0.000000 0.296563 0.437656
0.000000 0.296563 0.472438
0.000000 0.296563 0.507219
0.000000 0.296563 0.542000
0.000000 0.296563 0.576781
0.000000 0.296563 0.611563
0.000000 0.296563 0.646344
0.000000 0.296563 0.681125
0.000000 0.296563 0.715906
0.000000 0.296563 0.750687
0.000000 0.296563 0.785469
0.000000 0.296563 0.820250
0.000000 0.296563 0.855031
0.000000 0.296563 0.889813
0.000000 0.296563 0.924594
0.000000 0.296563 0.959375
0.000000 0.296563 0.994156
0.000000 0.296563 1.000000
0.000000 0.296563 1.000000
0.000000 0.296563 1.000000
0.000000 0.328719 0.000000
0.000000 0.328719 0.020281
0.000000 0.328719 0.055062
0.000000 0.328719 0.089844
0.000000 0.328719 0.124625
0.000000 0.328719 0.159406
0.000000 0.328719 0.194187
0.000000 0.328719 0.228969
0.000000 0.328719 0.263750
0.000000 0.328719 0.298531
0.000000 0.328719 0.333313
0.000000 0.328719 0.368094
0.000000 0.328719 0.402875
0.000000 0.328719 0.437656
0.000000 0.328719 0.472438
0.000000 0.328719 0.507219
0.000000 0.328719 0.542000
0.000000 0.328719 0.576781
0.000000 0.328719 0.611563
0.000000 0.328719 0.646344
0.000000 0.328719 0.681125
0.000000 0.328719 0.715906
0.000000 0.328719 0.750687
0.000000 0.328719 0.785469
0.000000 0.328719 0.820250
0.000000 0.328719 0.855031
0.000000 0.328719 0.889813
0.000000 0.328719 0.924594
0.000000 0.328719 0.959375
0.000000 0.328719 0.994156
0.000000 0.328719 1.000000
0.000000 0.328719 1.000000
0.000000 0.328719 1.000000
0.000000 0.360875 0.000000
0.000000 0.360875 0.020281
0.000000 0.360875 0.055062
0.000000 0.360875 0.089844
0.000000 0.360875 0.124625
0.000000 0.360875 0.159406
0.000000 0.360875 0.194187
0.000000 0.360875 0.228969
0.000000 0.360875 0.263750
0.000000 0.360875 0.298531
0.000000 0.360875 0.333313
0.000000 0.360875 0.368094
0.000000 0.360875 0.402875
0.000000 0.360875 0.437656
0.000000 0.360875 0.472438
0.000000 0.360875 0.507219
0.000000 0.360875 0.542000
0.000000 0.360875 0.576781
0.000000 0.360875 0.611563
0.000000 0.360875 0.646344
0.000000 0.360875 0.681125
0.000000 0.360875 0.715906
0.000000 0.360875 0.750687
0.000000 0.360875 0.785469
0.000000 0.360875 0.820250
0.000000 0.360875 0.855031
0.000000 0.360875 0.889813
0.000000 0.360875 0.924594
0.000000 0.360875 0.959375
0.000000 0.360875 0.994156
0.000000 0.360875 1.000000
0.000000 0.360875 1.000000
0.000000 0.360875 1.000000
0.000000 0.393031 0.000000
0.000000 0.393031 0.020281
0.000000 0.393031 0.055062
0.000000 0.393031 0.089844
0.000000 0.393031 0.124625
0.000000 0.393031 0.159406
0.000000 0.393031 0.194187
0.000000 0.393031 0.228969
0.000000 0.393031 0.263750
0.000000 0.393031 0.298531
0.000000 0.393031 0.333313
0.000000 0.393031 0.368094
0.000000 0.393031 0.402875
0.000000 0.393031 0.437656
0.000000 0.393031 0.472438
0.000000 0.393031 0.507219
0.000000 0.393031 0.542000
0.000000 0.393031 0.576781
0.000000 0.393031 0.611563
0.000000 0.393031 0.646344
0.000000 0.393031 0.681125
0.000000 0.393031 0.715906
0.000000 0.393031 0.750687
0.000000 0.393031 0.785469
0.000000 0.393031 0.820250
0.000000 0.393031 0.855031
0.000000 0.393031 0.889813
0.000000 0.393031 0.924594
0.000000 0.393031 0.959375
0.000000 0.393031 0.994156
0.000000 0.393031 1.000000
0.000000 0.393031 1.000000
0.000000 0.393031 1.000000
0.000000 0.425187 0.000000
0.000000 0.425187 0.020281
0.000000 0.425187 0.055062
0.000000 0.425187 0.089844
0.000000 0.425187 0.124625
0.000000 0.425187 0.159406
0.000000 0.425187 0.194187
0.000000 0.425187 0.228969
0.000000 0.425187 0.263750
0.000000 0.425187 0.298531
0.000000 0.425187 0.333313
0.000000 0.425187 0.368094
0.000000 0.425187 0.402875
0.000000 0.425187 0.437656
0.000000 0.425187 0.472438
0.000000 0.425187 0.507219
0.000000 0.425187 0.542000
0.000000 0.425187 0.576781
0.000000 0.425187 0.611563
0.000000 0.425187 0.646344
0.000000 0.425187 0.681125
0.000000 0.425187 0.715906
0.000000 0.425187 0.750687
0.000000 0.425187 0.785469
0.000000 0.425187 0.820250
0.000000 0.425187 0.855031
0.000000 0.425187 0.889813
0.000000 0.425187 0.924594
0.000000 0.425187 0.959375
0.000000 0.425187 0.994156
0.000000 0.425187 1.000000
0.000000 0.425187 1.000000
0.000000 0.425187 1.000000
0.000000 0.457344 0.000000
0.000000 0.457344 0.020281
0.000000 0.457344 0.055062
0.000000 0.457344 0.089844
0.000000 0.457344 0.124625
0.000000 0.457344 0.159406
0.000000 0.457344 0.194187
0.000000 0.457344 0.228969
0.000000 0.457344 0.263750
0.000000 0.457344 0.298531
0.000000 0.457344 0.333313
0.000000 0.457344 0.368094
0.000000 0.457344 0.402875
0.000000 0.457344 0.437656
0.000000 0.457344 0.472438
0.000000 0.457344 0.507219
0.000000 0.457344 0.542000
0.000000 0.457344 0.576781
0.000000 0.457344 0.611563
0.000000 0.457344 0.646344
0.000000 0.457344 0.681125
0.000000 0.457344 0.715906
0.000000 0.457344 0.750687
0.000000 0.457344 0.785469
0.000000 0.457344 0.820250
0.000000 0.457344 0.855031
0.000000 0.457344 0.889813
0.000000 0.457344 0.924594
0.000000 0.457344 0.959375
0.000000 0.457344 0.994156
0.000000 0.457344 1.000000
0.000000 0.457344 1.000000
0.000000 0.457344 1.000000
0.000000 0.489500 0.000000
0.000000 0.489500 0.020281
0.000000 0.489500 0.055062
0.000000 0.489500 0.089844
0.000000 0.489500 0.124625
0.000000 0.489500 0.159406
0.000000 0.489500 0.194187
0.000000 0.489500 0.228969
0.000000 0.489500 0.263750
0.000000 0.489500 0.298531
0.000000 0.489500 0.333313
0.000000 0.489500 0.368094
0.000000 0.489500 0.402875
0.000000 0.489500 0.437656
0.000000 0.489500 0.472438
0.000000 0.489500 0.507219
0.000000 0.489500 0.542000
0.000000 0.489500 0.576781
0.000000 0.489500 0.611563
0.000000 0.489500 0.646344
0.000000 0.489500 0.681125
0.000000 0.489500 0.715906
0.000000 0.489500 0.750687
0.000000 0.489500 0.785469
0.000000 0.489500 0.820250
0.000000 0.489500 0.855031
0.000000 0.489500 0.889813
0.000000 0.489500 0.924594
0.000000 0.489500 0.959375
0.000000 0.489500 0.994156
0.000000 0.489500 1.000000
0.000000 0.489500 1.000000
0.000000 0.489500 1.000000
0.000000 0.521656 0.000000
0.000000 0.521656 0.020281
0.000000 0.521656 0.055062
0.000000 0.521656 0.089844
0.000000 0.521656 0.124625
0.000000 0.521656 0.159406
0.000000 0.521656 0.194187
0.000000 0.521656 0.228969
0.000000 0.521656 0.263750
0.000000 0.521656 0.298531
0.000000 0.521656 0.333313
0.000000 0.521656 0.368094
0.000000 0.521656 0.402875
0.000000 0.521656 0.437656
0.000000 0.521656 0.472438
0.000000 0.521656 0.507219
0.000000 0.521656 0.542000
0.000000 0.521656 0.576781
0.000000 0.521656 0.611563
0.000000 0.521656 0.646344
0.000000 0.521656 0.681125
0.000000 0.521656 0.715906
0.000000 0.521656 0.750687
0.000000 0.521656 0.785469
0.000000 0.521656 0.820250
0.000000 0.521656 0.855031
0.000000 0.521656 0.889813
0.000000 0.521656 0.924594
0.000000 0.521656 0.959375
0.000000 0.521656 0.994156
0.000000 0.521656 1.000000
0.000000 0.521656 1.000000
0.000000 0.521656 1.000000
0.000000 0.553813 0.000000
0.000000 0.553813 0.020281
0.000000 0.553813 0.055062
0.000000 0.553813 0.089844
0.000000 0.553813 0.124625
0.000000 0.553813 0.159406
0.000000 0.553813 0.194187
0.000000 0.553813 0.228969
0.000000 0.553813 0.263750
0.000000 0.553813 0.298531
0.000000 0.553813 0.333313
0.000000 0.553813 0.368094
0.000000 0.553813 0.402875
0.000000 0.553813 0.437656
0.000000 0.553813 0.472438
0.000000 0.553813 0.507219
0.000000 0.553813 0.542000
0.000000 0.553813 0.576781
0.000000 0.553813 0.611563
0.000000 0.553813 0.646344
0.000000 0.553813 0.681125
0.000000 0.553813 0.715906
0.000000 0.553813 0.750687
0.000000 0.553813 0.785469
0.000000 0.553813 0.820250
0.000000 0.553813 0.855031
0.000000 0.553813 0.889813
0.000000 0.553813 0.924594
0.000000 0.553813 0.959375
0.000000 0.553813 0.994156
0.000000 0.553813 1.000000
0.000000 0.553813 1.000000
0.000000 0.553813 1.000000
0.000000 0.585969 0.000000
0.000000 0.585969 0.020281
0.000000 0.585969 0.055062
0.000000 0.585969 0.089844
0.000000 0.585969 0.124625
0.000000 0.585969 0.159406
0.000000 0.585969 0.194187
0.000000 0.585969 0.228969
0.000000 0.585969 0.263750
0.000000 0.585969 0.298531
0.000000 0.585969 0.333313
0.000000 0.585969 0.368094
0.000000 0.585969 0.402875
0.000000 0.585969 0.437656
0.000000 0.585969 0.472438
0.000000 0.585969 0.507219
0.000000 0.585969 0.542000
0.000000 0.585969 0.576781
0.000000 0.585969 0.611563
0.000000 0.585969 0.646344
0.000000 0.585969 0.681125
0.000000 0.585969 0.715906
0.000000 0.585969 0.750687
0.000000 0.585969 0.785469
0.000000 0.585969 0.820250
0.000000 0.585969 0.855031
0.000000 0.585969 0.889813
0.000000 0.585969 0.924594
0.000000 0.585969 0.959375
0.000000 0.585969 0.994156
0.000000 0.585969 1.000000
0.000000 0.585969 1.000000
0.000000 0.585969 1.000000
0.000000 0.618125 0.000000
0.000000 0.618125 0.020281
0.000000 0.618125 0.055062
0.000000 0.618125 0.089844
0.000000 0.618125 0.124625
0.000000 0.618125 0.159406
0.000000 0.618125 0.194187
0.000000 0.618125 0.228969
0.000000 0.618125 0.263750
0.000000 0.618125 0.298531
0.000000 0.618125 0.333313
0.000000 0.618125 0.368094
0.000000 0.618125 0.402875
0.000000 0.618125 0.437656
0.000000 0.618125 0.472438
0.000000 0.618125 0.507219
0.000000 0.618125 0.542000
0.000000 0.618125 0.576781
0.000000 0.618125 0.611563
0.000000 0.618125 0.646344
0.000000 0.618125 0.681125
0.000000 0.618125 0.715906
0.000000 0.618125 0.750687
0.000000 0.618125 0.785469
0.000000 0.618125 0.820250
0.000000 0.618125 0.855031
0.000000 0.618125 0.889813
0.000000 0.618125 0.924594
0.000000 0.618125 0.959375
0.000000 0.618125 0.994156
0.000000 0.618125 1.000000
0.000000 0.618125 1.000000
0.000000 0.618125 1.000000
0.000000 0.650281 0.000000
0.000000 0.650281 0.020281
0.000000 0.650281 0.055062
0.000000 0.650281 0.089844
0.000000 0.650281 0.124625
0.000000 0.650281 0.159406
0.000000 0.650281 0.194187
0.000000 0.650281 0.228969
0.000000 0.650281 0.263750
0.000000 0.650281 0.298531
0.000000 0.650281 0.333313
0.000000 0.650281 0.368094
0.000000 0.650281 0.402875
0.000000 0.650281 0.437656
0.000000 0.650281 0.472438
0.000000 0.650281 0.507219
0.000000 0.650281 0.542000
0.000000 0.650281 0.576781
0.000000 0.650281 0.611563
0.000000 0.650281 0.646344
0.000000 0.650281 0.681125
0.000000 0.650281 0.715906
0.000000 0.650281 0.750687
0.000000 0.650281 0.785469
0.000000 0.650281 0.820250
0.000000 0.650281 0.855031
0.000000 0.650281 0.889813
0.000000 0.650281 0.924594
0.000000 0.650281 0.959375
0.000000 0.650281 0.994156
0.000000 0.650281 1.000000
0.000000 0.650281 1.000000
0.000000 0.650281 1.000000
0.000000 0.682438 0.000000
0.000000 0.682438 0.020281
0.000000 0.682438 0.055062
0.000000 0.682438 0.089844
0.000000 0.682438 0.124625
0.000000 0.682438 0.159406
0.000000 0.682438 0.194187
0.000000 0.682438 0.228969
0.000000 0.682438 0.263750
0.000000 0.682438 0.298531
0.000000 0.682438 0.333313
0.000000 0.682438 0.368094
0.000000 0.682438 0.402875
0.000000 0.682438 0.437656
0.000000 0.682438 0.472438
0.000000 0.682438 0.507219
0.000000 0.682438 0.542000
0.000000 0.682438 0.576781
0.000000 0.682438 0.611563
0.000000 0.682438 0.646344
0.000000 0.682438 0.681125
0.000000 0.682438 0.715906
0.000000 0.682438 0.750687
0.000000 0.682438 0.785469
0.000000 0.682438 0.820250
0.000000 0.682438 0.855031
0.000000 0.682438 0.889813
0.000000 0.682438 0.924594
0.000000 0.682438 0.959375
0.000000 0.682438 0.994156
0.000000 0.682438 1.000000
0.000000 0.682438 1.000000
0.000000 0.682438 1.000000
0.000000 0.714594 0.000000
0.000000 0.714594 0.020281
0.000000 0.714594 0.055062
0.000000 0.714594 0.089844
0.000000 0.714594 0.124625
0.000000 0.714594 0.159406
0.000000 0.714594 0.194187
0.000000 0.714594 0.228969
0.000000 0.714594 0.263750
0.000000 0.714594 0.298531
0.000000 0.714594 0.333313
0.000000 0.714594 0.368094
0.000000 0.714594 0.402875
0.000000 0.714594 0.437656
0.000000 0.714594 0.472438
0.000000 0.714594 0.507219
0.000000 0.714594 0.542000
0.000000 0.714594 0.576781
0.000000 0.714594 0.611563
0.000000 0.714594 0.646344
0.000000 0.714594 0.681125
0.000000 0.714594 0.715906
0.000000 0.714594 0.750687
0.000000 0.714594 0.785469
0.000000 0.714594 0.820250
0.000000 0.714594 0.855031
0.000000 0.714594 0.889813
0.000000 0.714594 0.924594
0.000000 0.714594 0.959375
0.000000 0.714594 0.994156
0.000000 0.714594 1.000000
0.000000 0.714594 1.000000
0.000000 0.714594 1.000000
0.000000 0.746750 0.000000
0.000000 0.746750 0.020281
0.000000 0.746750 0.055062
0.000000 0.746750 0.089844
0.000000 0.746750 0.124625
0.000000 0.746750 0.159406
0.000000 0.746750 0.194187
0.000000 0.746750 0.228969
0.000000 0.746750 0.263750
0.000000 0.746750 0.298531
0.000000 0.746750 0.333313
0.000000 0.746750 0.368094
0.000000 0.746750 0.402875
0.000000 0.746750 0.437656
0.000000 0.746750 0.472438
0.000000 0.746750 0.507219
0.000000 0.746750 0.542000
0.000000 0.746750 0.576781
0.000000 0.746750 0.611563
0.000000 0.746750 0.646344
0.000000 0.746750 0.681125
0.000000 0.746750 0.715906
0.000000 0.746750 0.750687
0.000000 0.746750 0.785469
0.000000 0.746750 0.820250
0.000000 0.746750 0.855031
0.000000 0.746750 0.889813
0.000000 0.746750 0.924594
0.000000 0.746750 0.959375
0.000000 0.746750 0.994156
0.000000 0.746750 1.000000
0.000000 0.746750 1.000000
0.000000 0.746750 1.000000
0.000000 0.778906 0.000000
0.000000 0.778906 0.020281
0.000000 0.778906 0.055062
0.000000 0.778906 0.089844
0.000000 0.778906 0.124625
0.000000 0.778906 0.159406
0.000000 0.778906 0.194187
0.000000 0.778906 0.228969
0.000000 0.778906 0.263750
0.000000 0.778906 0.298531
0.000000 0.778906 0.333313
0.000000 0.778906 0.368094
0.000000 0.778906 0.402875
0.000000 0.778906 0.437656
0.000000 0.778906 0.472438
0.000000 0.778906 0.507219
0.000000 0.778906 0.542000
0.000000 0.778906 0.576781
0.000000 0.778906 0.611563
0.000000 0.778906 0.646344
0.000000 0.778906 0.681125
0.000000 0.778906 0.715906
0.000000 0.778906 0.750687
0.000000 0.778906 0.785469
0.000000 0.778906 0.820250
0.000000 0.778906 0.855031
0.000000 0.778906 0.889813
0.000000 0.778906 0.924594
0.000000 0.778906 0.959375
0.000000 0.778906 0.994156
0.000000 0.778906 1.000000
0.000000 0.778906 1.000000
0.000000 0.778906 1.000000
0.000000 0.811063 0.000000
0.000000 0.811063 0.020281
0.000000 0.811063 0.055062
0.000000 0.811063 0.089844
0.000000 0.811063 0.124625
0.000000 0.811063 0.159406
0.000000 0.811063 0.194187
0.000000 0.811063 0.228969
0.000000 0.811063 0.263750
0.000000 0.811063 0.298531
0.000000 0.811063 0.333313
0.000000 0.811063 0.368094
0.000000 0.811063 0.402875
0.000000 0.811063 0.437656
0.000000 0.811063 0.472438
0.000000 0.811063 0.507219
0.000000 0.811063 0.542000
0.000000 0.811063 0.576781
0.000000 0.811063 0.611563
0.000000 0.811063 0.646344
0.000000 0.811063 0.681125
0.000000 0.811063 0.715906
0.000000 0.811063 0.750687
0.000000 0.811063 0.785469
0.000000 0.811063 0.820250
0.000000 0.811063 0.855031
0.000000 0.811063 0.889813
0.000000 0.811063 0.924594
0.000000 0.811063 0.959375
