utils/luts/cool.cube
TITLE "Cool Blue"
LUT_3D_SIZE 5
0.000000 0.000000 0.000000
0.000000 0.000000 0.263750
0.000000 0.000000 0.542000
0.000000 0.000000 0.820250
0.000000 0.000000 1.000000
0.000000 0.232250 0.000000
0.000000 0.232250 0.263750
0.000000 0.232250 0.542000
0.000000 0.232250 0.820250
0.000000 0.232250 1.000000
0.000000 0.489500 0.000000
0.000000 0.489500 0.263750
0.000000 0.489500 0.542000
0.000000 0.489500 0.820250
0.000000 0.489500 1.000000
0.000000 0.746750 0.000000
0.000000 0.746750 0.263750
0.000000 0.746750 0.542000
0.000000 0.746750 0.820250
0.000000 0.746750 1.000000
0.000000 1.000000 0.000000
0.000000 1.000000 0.263750
0.000000 1.000000 0.542000
0.000000 1.000000 0.820250
0.000000 1.000000 1.000000
0.211250 0.000000 0.000000
0.211250 0.000000 0.263750
0.211250 0.000000 0.542000
0.211250 0.000000 0.820250
0.211250 0.000000 1.000000
0.211250 0.232250 0.000000
0.211250 0.232250 0.263750
0.211250 0.232250 0.542000
0.211250 0.232250 0.820250
0.211250 0.232250 1.000000
0.211250 0.489500 0.000000
0.211250 0.489500 0.263750
0.211250 0.489500 0.542000
0.211250 0.489500 0.820250
0.211250 0.489500 1.000000
0.211250 0.746750 0.000000
0.211250 0.746750 0.263750
0.211250 0.746750 0.542000
0.211250 0.746750 0.820250
0.211250 0.746750 1.000000
0.211250 1.000000 0.000000
0.211250 1.000000 0.263750
0.211250 1.000000 0.542000
0.211250 1.000000 0.820250
0.211250 1.000000 1.000000
0.458000 0.000000 0.000000
0.458000 0.000000 0.263750
0.458000 0.000000 0.542000
0.458000 0.000000 0.820250
0.458000 0.000000 1.000000
0.458000 0.232250 0.000000
0.458000 0.232250 0.263750
0.458000 0.232250 0.542000
0.458000 0.232250 0.820250
0.458000 0.232250 1.000000
0.458000 0.489500 0.000000
0.458000 0.489500 0.263750
0.458000 0.489500 0.542000
0.458000 0.489500 0.820250
0.458000 0.489500 1.000000
0.458000 0.746750 0.000000
0.458000 0.746750 0.263750
0.458000 0.746750 0.542000
0.458000 0.746750 0.820250
0.458000 0.746750 1.000000
0.458000 1.000000 0.000000
0.458000 1.000000 0.263750
0.458000 1.000000 0.542000
0.458000 1.000000 0.820250
0.458000 1.000000 1.000000
0.704750 0.000000 0.000000
0.704750 0.000000 0.263750
0.704750 0.000000 0.542000
0.704750 0.000000 0.820250
0.704750 0.000000 1.000000
0.704750 0.232250 0.000000
0.704750 0.232250 0.263750
0.704750 0.232250 0.542000
0.704750 0.232250 0.820250
0.704750 0.232250 1.000000
0.704750 0.489500 0.000000
0.704750 0.489500 0.263750
0.704750 0.489500 0.542000
0.704750 0.489500 0.820250
0.704750 0.489500 1.000000
0.704750 0.746750 0.000000
0.704750 0.746750 0.263750
0.704750 0.746750 0.542000
0.704750 0.746750 0.820250
0.704750 0.746750 1.000000
0.704750 1.000000 0.000000
0.704750 1.000000 0.263750
0.704750 1.000000 0.542000
0.704750 1.000000 0.820250
0.704750 1.000000 1.000000
0.951500 0.000000 0.000000
0.951500 0.000000 0.263750
0.951500 0.000000 0.542000
0.951500 0.000000 0.820250
0.951500 0.000000 1.000000
0.951500 0.232250 0.000000
0.951500 0.232250 0.263750
0.951500 0.232250 0.542000
0.951500 0.232250 0.820250
0.951500 0.232250 1.000000
0.951500 0.489500 0.000000
0.951500 0.489500 0.263750
0.951500 0.489500 0.542000
0.951500 0.489500 0.820250
0.951500 0.489500 1.000000
0.951500 0.746750 0.000000
0.951500 0.746750 0.263750
0.951500 0.746750 0.542000
0.951500 0.746750 0.820250
0.951500 0.746750 1.000000
0.951500 1.000000 0.000000
0.951500 1.000000 0.263750
0.951500 1.000000 0.542000
0.951500 1.000000 0.820250
0.951500 1.000000 1.000000
