utils/luts/cool.cube
TITLE "Cool Blue"
LUT_3D_SIZE 9
0.000000 0.000000 0.000000
0.000000 0.000000 0.124625
0.000000 0.000000 0.263750
0.000000 0.000000 0.402875
0.000000 0.000000 0.542000
0.000000 0.000000 0.681125
0.000000 0.000000 0.820250
0.000000 0.000000 0.959375
0.000000 0.000000 1.000000
0.000000 0.103625 0.000000
0.000000 0.103625 0.124625
0.000000 0.103625 0.263750
0.000000 0.103625 0.402875
0.000000 0.103625 0.542000
0.000000 0.103625 0.681125
0.000000 0.103625 0.820250
0.000000 0.103625 0.959375
0.000000 0.103625 1.000000
0.000000 0.232250 0.000000
0.000000 0.232250 0.124625
0.000000 0.232250 0.263750
0.000000 0.232250 0.402875
0.000000 0.232250 0.542000
0.000000 0.232250 0.681125
0.000000 0.232250 0.820250
0.000000 0.232250 0.959375
0.000000 0.232250 1.000000
0.000000 0.360875 0.000000
0.000000 0.360875 0.124625
0.000000 0.360875 0.263750
0.000000 0.360875 0.402875
0.000000 0.360875 0.542000
0.000000 0.360875 0.681125
0.000000 0.360875 0.820250
0.000000 0.360875 0.959375
0.000000 0.360875 1.000000
0.000000 0.489500 0.000000
0.000000 0.489500 0.124625
0.000000 0.489500 0.263750
0.000000 0.489500 0.402875
0.000000 0.489500 0.542000
0.000000 0.489500 0.681125
0.000000 0.489500 0.820250
0.000000 0.489500 0.959375
0.000000 0.489500 1.000000
0.000000 0.618125 0.000000
0.000000 0.618125 0.124625
0.000000 0.618125 0.263750
0.000000 0.618125 0.402875
0.000000 0.618125 0.542000
0.000000 0.618125 0.681125
0.000000 0.618125 0.820250
0.000000 0.618125 0.959375
0.000000 0.618125 1.000000
0.000000 0.746750 0.000000
0.000000 0.746750 0.124625
0.000000 0.746750 0.263750
0.000000 0.746750 0.402875
0.000000 0.746750 0.542000
0.000000 0.746750 0.681125
0.000000 0.746750 0.820250
0.000000 0.746750 0.959375
0.000000 0.746750 1.000000
0.000000 0.875375 0.000000
0.000000 0.875375 0.124625
0.000000 0.875375 0.263750
0.000000 0.875375 0.402875
0.000000 0.875375 0.542000
0.000000 0.875375 0.681125
0.000000 0.875375 0.820250
0.000000 0.875375 0.959375
0.000000 0.875375 1.000000
0.000000 1.000000 0.000000
0.000000 1.000000 0.124625
0.000000 1.000000 0.263750
0.000000 1.000000 0.402875
0.000000 1.000000 0.542000
0.000000 1.000000 0.681125
0.000000 1.000000 0.820250
0.000000 1.000000 0.959375
0.000000 1.000000 1.000000
0.087875 0.000000 0.000000
0.087875 0.000000 0.124625
0.087875 0.000000 0.263750
0.087875 0.000000 0.402875
0.087875 0.000000 0.542000
0.087875 0.000000 0.681125
0.087875 0.000000 0.820250
0.087875 0.000000 0.959375
0.087875 0.000000 1.000000
0.087875 0.103625 0.000000
0.087875 0.103625 0.124625
0.087875 0.103625 0.263750
0.087875 0.103625 0.402875
0.087875 0.103625 0.542000
0.087875 0.103625 0.681125
0.087875 0.103625 0.820250
0.087875 0.103625 0.959375
0.087875 0.103625 1.000000
0.087875 0.232250 0.000000
0.087875 0.232250 0.124625
0.087875 0.232250 0.263750
0.087875 0.232250 0.402875
0.087875 0.232250 0.542000
0.087875 0.232250 0.681125
0.087875 0.232250 0.820250
0.087875 0.232250 0.959375
0.087875 0.232250 1.000000
0.087875 0.360875 0.000000
0.087875 0.360875 0.124625
0.087875 0.360875 0.263750
0.087875 0.360875 0.402875
0.087875 0.360875 0.542000
0.087875 0.360875 0.681125
0.087875 0.360875 0.820250
0.087875 0.360875 0.959375
0.087875 0.360875 1.000000
0.087875 0.489500 0.000000
0.087875 0.489500 0.124625
0.087875 0.489500 0.263750
0.087875 0.489500 0.402875
0.087875 0.489500 0.542000
0.087875 0.489500 0.681125
0.087875 0.489500 0.820250
0.087875 0.489500 0.959375
0.087875 0.489500 1.000000
0.087875 0.618125 0.000000
0.087875 0.618125 0.124625
0.087875 0.618125 0.263750
0.087875 0.618125 0.402875
0.087875 0.618125 0.542000
0.087875 0.618125 0.681125
0.087875 0.618125 0.820250
0.087875 0.618125 0.959375
0.087875 0.618125 1.000000
0.087875 0.746750 0.000000
0.087875 0.746750 0.124625
0.087875 0.746750 0.263750
0.087875 0.746750 0.402875
0.087875 0.746750 0.542000
0.087875 0.746750 0.681125
0.087875 0.746750 0.820250
0.087875 0.746750 0.959375
0.087875 0.746750 1.000000
0.087875 0.875375 0.000000
0.087875 0.875375 0.124625
0.087875 0.875375 0.263750
0.087875 0.875375 0.402875
0.087875 0.875375 0.542000
0.087875 0.875375 0.681125
0.087875 0.875375 0.820250
0.087875 0.875375 0.959375
0.087875 0.875375 1.000000
0.087875 1.000000 0.000000
0.087875 1.000000 0.124625
0.087875 1.000000 0.263750
0.087875 1.000000 0.402875
0.087875 1.000000 0.542000
0.087875 1.000000 0.681125
0.087875 1.000000 0.820250
0.087875 1.000000 0.959375
0.087875 1.000000 1.000000
0.211250 0.000000 0.000000
0.211250 0.000000 0.124625
0.211250 0.000000 0.263750
0.211250 0.000000 0.402875
0.211250 0.000000 0.542000
0.211250 0.000000 0.681125
0.211250 0.000000 0.820250
0.211250 0.000000 0.959375
0.211250 0.000000 1.000000
0.211250 0.103625 0.000000
0.211250 0.103625 0.124625
0.211250 0.103625 0.263750
0.211250 0.103625 0.402875
0.211250 0.103625 0.542000
0.211250 0.103625 0.681125
0.211250 0.103625 0.820250
0.211250 0.103625 0.959375
0.211250 0.103625 1.000000
0.211250 0.232250 0.000000
0.211250 0.232250 0.124625
0.211250 0.232250 0.263750
0.211250 0.232250 0.402875
0.211250 0.232250 0.542000
0.211250 0.232250 0.681125
0.211250 0.232250 0.820250
0.211250 0.232250 0.959375
0.211250 0.232250 1.000000
0.211250 0.360875 0.000000
0.211250 0.360875 0.124625
0.211250 0.360875 0.263750
0.211250 0.360875 0.402875
0.211250 0.360875 0.542000
0.211250 0.360875 0.681125
0.211250 0.360875 0.820250
0.211250 0.360875 0.959375
0.211250 0.360875 1.000000
0.211250 0.489500 0.000000
0.211250 0.489500 0.124625
0.211250 0.489500 0.263750
0.211250 0.489500 0.402875
0.211250 0.489500 0.542000
0.211250 0.489500 0.681125
0.211250 0.489500 0.820250
0.211250 0.489500 0.959375
0.211250 0.489500 1.000000
0.211250 0.618125 0.000000
0.211250 0.618125 0.124625
0.211250 0.618125 0.263750
0.211250 0.618125 0.402875
0.211250 0.618125 0.542000
0.211250 0.618125 0.681125
0.211250 0.618125 0.820250
0.211250 0.618125 0.959375
0.211250 0.618125 1.000000
0.211250 0.746750 0.000000
0.211250 0.746750 0.124625
0.211250 0.746750 0.263750
0.211250 0.746750 0.402875
0.211250 0.746750 0.542000
0.211250 0.746750 0.681125
0.211250 0.746750 0.820250
0.211250 0.746750 0.959375
0.211250 0.746750 1.000000
0.211250 0.875375 0.000000
0.211250 0.875375 0.124625
0.211250 0.875375 0.263750
0.211250 0.875375 0.402875
0.211250 0.875375 0.542000
0.211250 0.875375 0.681125
0.211250 0.875375 0.820250
0.211250 0.875375 0.959375
0.211250 0.875375 1.000000
0.211250 1.000000 0.000000
0.211250 1.000000 0.124625
0.211250 1.000000 0.263750
0.211250 1.000000 0.402875
0.211250 1.000000 0.542000
0.211250 1.000000 0.681125
0.211250 1.000000 0.820250
0.211250 1.000000 0.959375
0.211250 1.000000 1.000000
0.334625 0.000000 0.000000
0.334625 0.000000 0.124625
0.334625 0.000000 0.263750
0.334625 0.000000 0.402875
0.334625 0.000000 0.542000
0.334625 0.000000 0.681125
0.334625 0.000000 0.820250
0.334625 0.000000 0.959375
0.334625 0.000000 1.000000
0.334625 0.103625 0.000000
0.334625 0.103625 0.124625
0.334625 0.103625 0.263750
0.334625 0.103625 0.402875
0.334625 0.103625 0.542000
0.334625 0.103625 0.681125
0.334625 0.103625 0.820250
0.334625 0.103625 0.959375
0.334625 0.103625 1.000000
0.334625 0.232250 0.000000
0.334625 0.232250 0.124625
0.334625 0.232250 0.263750
0.334625 0.232250 0.402875
0.334625 0.232250 0.542000
0.334625 0.232250 0.681125
0.334625 0.232250 0.820250
0.334625 0.232250 0.959375
0.334625 0.232250 1.000000
0.334625 0.360875 0.000000
0.334625 0.360875 0.124625
0.334625 0.360875 0.263750
0.334625 0.360875 0.402875
0.334625 0.360875 0.542000
0.334625 0.360875 0.681125
0.334625 0.360875 0.820250
0.334625 0.360875 0.959375
0.334625 0.360875 1.000000
0.334625 0.489500 0.000000
0.334625 0.489500 0.124625
0.334625 0.489500 0.263750
0.334625 0.489500 0.402875
0.334625 0.489500 0.542000
0.334625 0.489500 0.681125
0.334625 0.489500 0.820250
0.334625 0.489500 0.959375
0.334625 0.489500 1.000000
0.334625 0.618125 0.000000
0.334625 0.618125 0.124625
0.334625 0.618125 0.263750
0.334625 0.618125 0.402875
0.334625 0.618125 0.542000
0.334625 0.618125 0.681125
0.334625 0.618125 0.820250
0.334625 0.618125 0.959375
0.334625 0.618125 1.000000
0.334625 0.746750 0.000000
0.334625 0.746750 0.124625
0.334625 0.746750 0.263750
0.334625 0.746750 0.402875
0.334625 0.746750 0.542000
0.334625 0.746750 0.681125
0.334625 0.746750 0.820250
0.334625 0.746750 0.959375
0.334625 0.746750 1.000000
0.334625 0.875375 0.000000
0.334625 0.875375 0.124625
0.334625 0.875375 0.263750
0.334625 0.875375 0.402875
0.334625 0.875375 0.542000
0.334625 0.875375 0.681125
0.334625 0.875375 0.820250
0.334625 0.875375 0.959375
0.334625 0.875375 1.000000
0.334625 1.000000 0.000000
0.334625 1.000000 0.124625
0.334625 1.000000 0.263750
0.334625 1.000000 0.402875
0.334625 1.000000 0.542000
0.334625 1.000000 0.681125
0.334625 1.000000 0.820250
0.334625 1.000000 0.959375
0.334625 1.000000 1.000000
0.458000 0.000000 0.000000
0.458000 0.000000 0.124625
0.458000 0.000000 0.263750
0.458000 0.000000 0.402875
0.458000 0.000000 0.542000
0.458000 0.000000 0.681125
0.458000 0.000000 0.820250
0.458000 0.000000 0.959375
0.458000 0.000000 1.000000
0.458000 0.103625 0.000000
0.458000 0.103625 0.124625
0.458000 0.103625 0.263750
0.458000 0.103625 0.402875
0.458000 0.103625 0.542000
0.458000 0.103625 0.681125
0.458000 0.103625 0.820250
0.458000 0.103625 0.959375
0.458000 0.103625 1.000000
0.458000 0.232250 0.000000
0.458000 0.232250 0.124625
0.458000 0.232250 0.263750
0.458000 0.232250 0.402875
0.458000 0.232250 0.542000
0.458000 0.232250 0.681125
0.458000 0.232250 0.820250
0.458000 0.232250 0.959375
0.458000 0.232250 1.000000
0.458000 0.360875 0.000000
0.458000 0.360875 0.124625
0.458000 0.360875 0.263750
0.458000 0.360875 0.402875
0.458000 0.360875 0.542000
0.458000 0.360875 0.681125
0.458000 0.360875 0.820250
0.458000 0.360875 0.959375
0.458000 0.360875 1.000000
0.458000 0.489500 0.000000
0.458000 0.489500 0.124625
0.458000 0.489500 0.263750
0.458000 0.489500 0.402875
0.458000 0.489500 0.542000
0.458000 0.489500 0.681125
0.458000 0.489500 0.820250
0.458000 0.489500 0.959375
0.458000 0.489500 1.000000
0.458000 0.618125 0.000000
0.458000 0.618125 0.124625
0.458000 0.618125 0.263750
0.458000 0.618125 0.402875
0.458000 0.618125 0.542000
0.458000 0.618125 0.681125
0.458000 0.618125 0.820250
0.458000 0.618125 0.959375
0.458000 0.618125 1.000000
0.458000 0.746750 0.000000
0.458000 0.746750 0.124625
0.458000 0.746750 0.263750
0.458000 0.746750 0.402875
0.458000 0.746750 0.542000
0.458000 0.746750 0.681125
0.458000 0.746750 0.820250
0.458000 0.746750 0.959375
0.458000 0.746750 1.000000
0.458000 0.875375 0.000000
0.458000 0.875375 0.124625
0.458000 0.875375 0.263750
0.458000 0.875375 0.402875
0.458000 0.875375 0.542000
0.458000 0.875375 0.681125
0.458000 0.875375 0.820250
0.458000 0.875375 0.959375
0.458000 0.875375 1.000000
0.458000 1.000000 0.000000
0.458000 1.000000 0.124625
0.458000 1.000000 0.263750
0.458000 1.000000 0.402875
0.458000 1.000000 0.542000
0.458000 1.000000 0.681125
0.458000 1.000000 0.820250
0.458000 1.000000 0.959375
0.458000 1.000000 1.000000
0.581375 0.000000 0.000000
0.581375 0.000000 0.124625
0.581375 0.000000 0.263750
0.581375 0.000000 0.402875
0.581375 0.000000 0.542000
0.581375 0.000000 0.681125
0.581375 0.000000 0.820250
0.581375 0.000000 0.959375
0.581375 0.000000 1.000000
0.581375 0.103625 0.000000
0.581375 0.103625 0.124625
0.581375 0.103625 0.263750
0.581375 0.103625 0.402875
0.581375 0.103625 0.542000
0.581375 0.103625 0.681125
0.581375 0.103625 0.820250
0.581375 0.103625 0.959375
0.581375 0.103625 1.000000
0.581375 0.232250 0.000000
0.581375 0.232250 0.124625
0.581375 0.232250 0.263750
0.581375 0.232250 0.402875
0.581375 0.232250 0.542000
0.581375 0.232250 0.681125
0.581375 0.232250 0.820250
0.581375 0.232250 0.959375
0.581375 0.232250 1.000000
0.581375 0.360875 0.000000
0.581375 0.360875 0.124625
0.581375 0.360875 0.263750
0.581375 0.360875 0.402875
0.581375 0.360875 0.542000
0.581375 0.360875 0.681125
0.581375 0.360875 0.820250
0.581375 0.360875 0.959375
0.581375 0.360875 1.000000
0.581375 0.489500 0.000000
0.581375 0.489500 0.124625
0.581375 0.489500 0.263750
0.581375 0.489500 0.402875
0.581375 0.489500 0.542000
0.581375 0.489500 0.681125
0.581375 0.489500 0.820250
0.581375 0.489500 0.959375
0.581375 0.489500 1.000000
0.581375 0.618125 0.000000
0.581375 0.618125 0.124625
0.581375 0.618125 0.263750
0.581375 0.618125 0.402875
0.581375 0.618125 0.542000
0.581375 0.618125 0.681125
0.581375 0.618125 0.820250
0.581375 0.618125 0.959375
0.581375 0.618125 1.000000
0.581375 0.746750 0.000000
0.581375 0.746750 0.124625
0.581375 0.746750 0.263750
0.581375 0.746750 0.402875
0.581375 0.746750 0.542000
0.581375 0.746750 0.681125
0.581375 0.746750 0.820250
0.581375 0.746750 0.959375
0.581375 0.746750 1.000000
0.581375 0.875375 0.000000
0.581375 0.875375 0.124625
0.581375 0.875375 0.263750
0.581375 0.875375 0.402875
0.581375 0.875375 0.542000
0.581375 0.875375 0.681125
0.581375 0.875375 0.820250
0.581375 0.875375 0.959375
0.581375 0.875375 1.000000
0.581375 1.000000 0.000000
0.581375 1.000000 0.124625
0.581375 1.000000 0.263750
0.581375 1.000000 0.402875
0.581375 1.000000 0.542000
0.581375 1.000000 0.681125
0.581375 1.000000 0.820250
0.581375 1.000000 0.959375
0.581375 1.000000 1.000000
0.704750 0.000000 0.000000
0.704750 0.000000 0.124625
0.704750 0.000000 0.263750
0.704750 0.000000 0.402875
0.704750 0.000000 0.542000
0.704750 0.000000 0.681125
0.704750 0.000000 0.820250
0.704750 0.000000 0.959375
0.704750 0.000000 1.000000
0.704750 0.103625 0.000000
0.704750 0.103625 0.124625
0.704750 0.103625 0.263750
0.704750 0.103625 0.402875
0.704750 0.103625 0.542000
0.704750 0.103625 0.681125
0.704750 0.103625 0.820250
0.704750 0.103625 0.959375
0.704750 0.103625 1.000000
0.704750 0.232250 0.000000
0.704750 0.232250 0.124625
0.704750 0.232250 0.263750
0.704750 0.232250 0.402875
0.704750 0.232250 0.542000
0.704750 0.232250 0.681125
0.704750 0.232250 0.820250
0.704750 0.232250 0.959375
0.704750 0.232250 1.000000
0.704750 0.360875 0.000000
0.704750 0.360875 0.124625
0.704750 0.360875 0.263750
0.704750 0.360875 0.402875
0.704750 0.360875 0.542000
0.704750 0.360875 0.681125
0.704750 0.360875 0.820250
0.704750 0.360875 0.959375
0.704750 0.360875 1.000000
0.704750 0.489500 0.000000
0.704750 0.489500 0.124625
0.704750 0.489500 0.263750
0.704750 0.489500 0.402875
0.704750 0.489500 0.542000
0.704750 0.489500 0.681125
0.704750 0.489500 0.820250
0.704750 0.489500 0.959375
0.704750 0.489500 1.000000
0.704750 0.618125 0.000000
0.704750 0.618125 0.124625
0.704750 0.618125 0.263750
0.704750 0.618125 0.402875
0.704750 0.618125 0.542000
0.704750 0.618125 0.681125
0.704750 0.618125 0.820250
0.704750 0.618125 0.959375
0.704750 0.618125 1.000000
0.704750 0.746750 0.000000
0.704750 0.746750 0.124625
0.704750 0.746750 0.263750
0.704750 0.746750 0.402875
0.704750 0.746750 0.542000
0.704750 0.746750 0.681125
0.704750 0.746750 0.820250
0.704750 0.746750 0.959375
0.704750 0.746750 1.000000
0.704750 0.875375 0.000000
0.704750 0.875375 0.124625
0.704750 0.875375 0.263750
0.704750 0.875375 0.402875
0.704750 0.875375 0.542000
0.704750 0.875375 0.681125
0.704750 0.875375 0.820250
0.704750 0.875375 0.959375
0.704750 0.875375 1.000000
0.704750 1.000000 0.000000
0.704750 1.000000 0.124625
0.704750 1.000000 0.263750
0.704750 1.000000 0.402875
0.704750 1.000000 0.542000
0.704750 1.000000 0.681125
0.704750 1.000000 0.820250
0.704750 1.000000 0.959375
0.704750 1.000000 1.000000
0.828125 0.000000 0.000000
0.828125 0.000000 0.124625
0.828125 0.000000 0.263750
0.828125 0.000000 0.402875
0.828125 0.000000 0.542000
0.828125 0.000000 0.681125
0.828125 0.000000 0.820250
0.828125 0.000000 0.959375
0.828125 0.000000 1.000000
0.828125 0.103625 0.000000
0.828125 0.103625 0.124625
0.828125 0.103625 0.263750
0.828125 0.103625 0.402875
0.828125 0.103625 0.542000
0.828125 0.103625 0.681125
0.828125 0.103625 0.820250
0.828125 0.103625 0.959375
0.828125 0.103625 1.000000
0.828125 0.232250 0.000000
0.828125 0.232250 0.124625
0.828125 0.232250 0.263750
0.828125 0.232250 0.402875
0.828125 0.232250 0.542000
0.828125 0.232250 0.681125
0.828125 0.232250 0.820250
0.828125 0.232250 0.959375
0.828125 0.232250 1.000000
0.828125 0.360875 0.000000
0.828125 0.360875 0.124625
0.828125 0.360875 0.263750
0.828125 0.360875 0.402875
0.828125 0.360875 0.542000
0.828125 0.360875 0.681125
0.828125 0.360875 0.820250
0.828125 0.360875 0.959375
0.828125 0.360875 1.000000
0.828125 0.489500 0.000000
0.828125 0.489500 0.124625
0.828125 0.489500 0.263750
0.828125 0.489500 0.402875
0.828125 0.489500 0.542000
0.828125 0.489500 0.681125
0.828125 0.489500 0.820250
0.828125 0.489500 0.959375
0.828125 0.489500 1.000000
0.828125 0.618125 0.000000
0.828125 0.618125 0.124625
0.828125 0.618125 0.263750
0.828125 0.618125 0.402875
0.828125 0.618125 0.542000
0.828125 0.618125 0.681125
0.828125 0.618125 0.820250
0.828125 0.618125 0.959375
0.828125 0.618125 1.000000
0.828125 0.746750 0.000000
0.828125 0.746750 0.124625
0.828125 0.746750 0.263750
0.828125 0.746750 0.402875
0.828125 0.746750 0.542000
0.828125 0.746750 0.681125
0.828125 0.746750 0.820250
0.828125 0.746750 0.959375
0.828125 0.746750 1.000000
0.828125 0.875375 0.000000
0.828125 0.875375 0.124625
0.828125 0.875375 0.263750
0.828125 0.875375 0.402875
0.828125 0.875375 0.542000
0.828125 0.875375 0.681125
0.828125 0.875375 0.820250
0.828125 0.875375 0.959375
0.828125 0.875375 1.000000
0.828125 1.000000 0.000000
0.828125 1.000000 0.124625
0.828125 1.000000 0.263750
0.828125 1.000000 0.402875
0.828125 1.000000 0.542000
0.828125 1.000000 0.681125
0.828125 1.000000 0.820250
0.828125 1.000000 0.959375
0.828125 1.000000 1.000000
0.951500 0.000000 0.000000
0.951500 0.000000 0.124625
0.951500 0.000000 0.263750
0.951500 0.000000 0.402875
0.951500 0.000000 0.542000
0.951500 0.000000 0.681125
0.951500 0.000000 0.820250
0.951500 0.000000 0.959375
0.951500 0.000000 1.000000
0.951500 0.103625 0.000000
0.951500 0.103625 0.124625
0.951500 0.103625 0.263750
0.951500 0.103625 0.402875
0.951500 0.103625 0.542000
0.951500 0.103625 0.681125
0.951500 0.103625 0.820250
0.951500 0.103625 0.959375
0.951500 0.103625 1.000000
0.951500 0.232250 0.000000
0.951500 0.232250 0.124625
0.951500 0.232250 0.263750
0.951500 0.232250 0.402875
0.951500 0.232250 0.542000
0.951500 0.232250 0.681125
0.951500 0.232250 0.820250
0.951500 0.232250 0.959375
0.951500 0.232250 1.000000
0.951500 0.360875 0.000000
0.951500 0.360875 0.124625
0.951500 0.360875 0.263750
0.951500 0.360875 0.402875
0.951500 0.360875 0.542000
0.951500 0.360875 0.681125
0.951500 0.360875 0.820250
0.951500 0.360875 0.959375
0.951500 0.360875 1.000000
0.951500 0.489500 0.000000
0.951500 0.489500 0.124625
0.951500 0.489500 0.263750
0.951500 0.489500 0.402875
0.951500 0.489500 0.542000
0.951500 0.489500 0.681125
0.951500 0.489500 0.820250
0.951500 0.489500 0.959375
0.951500 0.489500 1.000000
0.951500 0.618125 0.000000
0.951500 0.618125 0.124625
0.951500 0.618125 0.263750
0.951500 0.618125 0.402875
0.951500 0.618125 0.542000
0.951500 0.618125 0.681125
0.951500 0.618125 0.820250
0.951500 0.618125 0.959375
0.951500 0.618125 1.000000
0.951500 0.746750 0.000000
0.951500 0.746750 0.124625
0.951500 0.746750 0.263750
0.951500 0.746750 0.402875
0.951500 0.746750 0.542000
0.951500 0.746750 0.681125
0.951500 0.746750 0.820250
0.951500 0.746750 0.959375
0.951500 0.746750 1.000000
0.951500 0.875375 0.000000
0.951500 0.875375 0.124625
0.951500 0.875375 0.263750
0.951500 0.875375 0.402875
0.951500 0.875375 0.542000
0.951500 0.875375 0.681125
0.951500 0.875375 0.820250
0.951500 0.875375 0.959375
0.951500 0.875375 1.000000
0.951500 1.000000 0.000000
0.951500 1.000000 0.124625
0.951500 1.000000 0.263750
0.951500 1.000000 0.402875
0.951500 1.000000 0.542000
0.951500 1.000000 0.681125
0.951500 1.000000 0.820250
0.951500 1.000000 0.959375
0.951500 1.000000 1.000000
