utils/luts/soft.cube
TITLE "Soft Pastel"
LUT_3D_SIZE 33
0.095000 0.095000 0.095000
0.095457 0.095457 0.118168
0.095914 0.095914 0.141336
0.096371 0.096371 0.164503
0.096828 0.096828 0.187671
0.097284 0.097284 0.210839
0.097741 0.097741 0.234007
0.098198 0.098198 0.257175
0.098655 0.098655 0.280343
0.099112 0.099112 0.303510
0.099569 0.099569 0.326678
0.100026 0.100026 0.349846
0.100483 0.100483 0.373014
0.100940 0.100940 0.396182
0.101396 0.101396 0.419350
0.101853 0.101853 0.442517
0.102310 0.102310 0.465685
0.102767 0.102767 0.488853
0.103224 0.103224 0.512021
0.103681 0.103681 0.535189
0.104138 0.104138 0.558357
0.104595 0.104595 0.581524
0.105052 0.105052 0.604692
0.105508 0.105508 0.627860
0.105965 0.105965 0.651028
0.106422 0.106422 0.674196
0.106879 0.106879 0.697364
0.107336 0.107336 0.720531
0.107793 0.107793 0.743699
0.108250 0.108250 0.766867
0.108707 0.108707 0.790035
0.109164 0.109164 0.813203
0.109621 0.109621 0.836371
0.097353 0.120064 0.097353
0.097809 0.120520 0.120520
0.098266 0.120977 0.143688
0.098723 0.121434 0.166856
0.099180 0.121891 0.190024
0.099637 0.122348 0.213192
0.100094 0.122805 0.236360
0.100551 0.123262 0.259527
0.101008 0.123719 0.282695
0.101465 0.124176 0.305863
0.101921 0.124632 0.329031
0.102378 0.125089 0.352199
0.102835 0.125546 0.375367
0.103292 0.126003 0.398534
0.103749 0.126460 0.421702
0.104206 0.126917 0.444870
0.104663 0.127374 0.468038
0.105120 0.127831 0.491206
0.105577 0.128288 0.514373
0.106034 0.128744 0.537541
0.106490 0.129201 0.560709
0.106947 0.129658 0.583877
0.107404 0.130115 0.607045
0.107861 0.130572 0.630213
0.108318 0.131029 0.653380
0.108775 0.131486 0.676548
0.109232 0.131943 0.699716
0.109689 0.132400 0.722884
0.110146 0.132856 0.746052
0.110602 0.133313 0.769220
0.111059 0.133770 0.792387
0.111516 0.134227 0.815555
0.111973 0.134684 0.838723
0.099705 0.145127 0.099705
0.100162 0.145584 0.122873
0.100619 0.146041 0.146041
0.101076 0.146498 0.169209
0.101533 0.146955 0.192376
0.101990 0.147411 0.215544
0.102447 0.147868 0.238712
0.102903 0.148325 0.261880
0.103360 0.148782 0.285048
0.103817 0.149239 0.308216
0.104274 0.149696 0.331383
0.104731 0.150153 0.354551
0.105188 0.150610 0.377719
0.105645 0.151067 0.400887
0.106102 0.151524 0.424055
0.106559 0.151980 0.447223
0.107015 0.152437 0.470390
0.107472 0.152894 0.493558
0.107929 0.153351 0.516726
0.108386 0.153808 0.539894
0.108843 0.154265 0.563062
0.109300 0.154722 0.586230
0.109757 0.155179 0.609397
0.110214 0.155636 0.632565
0.110671 0.156092 0.655733
0.111127 0.156549 0.678901
0.111584 0.157006 0.702069
0.112041 0.157463 0.725237
0.112498 0.157920 0.748404
0.112955 0.158377 0.771572
0.113412 0.158834 0.794740
0.113869 0.159291 0.817908
0.114326 0.159748 0.841076
0.102058 0.170191 0.102058
0.102515 0.170647 0.125226
0.102972 0.171104 0.148393
0.103428 0.171561 0.171561
0.103885 0.172018 0.194729
0.104342 0.172475 0.217897
0.104799 0.172932 0.241065
0.105256 0.173389 0.264233
0.105713 0.173846 0.287400
0.106170 0.174303 0.310568
0.106627 0.174759 0.333736
0.107084 0.175216 0.356904
0.107540 0.175673 0.380072
0.107997 0.176130 0.403240
0.108454 0.176587 0.426407
0.108911 0.177044 0.449575
0.109368 0.177501 0.472743
0.109825 0.177958 0.495911
0.110282 0.178415 0.519079
0.110739 0.178871 0.542246
0.111196 0.179328 0.565414
0.111652 0.179785 0.588582
0.112109 0.180242 0.611750
0.112566 0.180699 0.634918
0.113023 0.181156 0.658086
0.113480 0.181613 0.681253
0.113937 0.182070 0.704421
0.114394 0.182527 0.727589
0.114851 0.182984 0.750757
0.115308 0.183440 0.773925
0.115764 0.183897 0.797093
0.116221 0.184354 0.820260
0.116678 0.184811 0.843428
0.104410 0.195254 0.104410
0.104867 0.195711 0.127578
0.105324 0.196168 0.150746
0.105781 0.196625 0.173914
0.106238 0.197082 0.197082
0.106695 0.197539 0.220249
0.107152 0.197995 0.243417
0.107609 0.198452 0.266585
0.108065 0.198909 0.289753
0.108522 0.199366 0.312921
0.108979 0.199823 0.336089
0.109436 0.200280 0.359256
0.109893 0.200737 0.382424
0.110350 0.201194 0.405592
0.110807 0.201651 0.428760
0.111264 0.202107 0.451928
0.111721 0.202564 0.475096
0.112177 0.203021 0.498263
0.112634 0.203478 0.521431
0.113091 0.203935 0.544599
0.113548 0.204392 0.567767
0.114005 0.204849 0.590935
0.114462 0.205306 0.614103
0.114919 0.205763 0.637270
0.115376 0.206219 0.660438
0.115833 0.206676 0.683606
0.116289 0.207133 0.706774
0.116746 0.207590 0.729942
0.117203 0.208047 0.753110
0.117660 0.208504 0.776277
0.118117 0.208961 0.799445
0.118574 0.209418 0.822613
0.119031 0.209875 0.845781
0.106763 0.220318 0.106763
0.107220 0.220775 0.129931
0.107677 0.221231 0.153099
0.108134 0.221688 0.176266
0.108590 0.222145 0.199434
0.109047 0.222602 0.222602
0.109504 0.223059 0.245770
0.109961 0.223516 0.268938
0.110418 0.223973 0.292106
0.110875 0.224430 0.315273
0.111332 0.224887 0.338441
0.111789 0.225343 0.361609
0.112246 0.225800 0.384777
0.112703 0.226257 0.407945
0.113159 0.226714 0.431113
0.113616 0.227171 0.454280
0.114073 0.227628 0.477448
0.114530 0.228085 0.500616
0.114987 0.228542 0.523784
0.115444 0.228999 0.546952
0.115901 0.229455 0.570119
0.116358 0.229912 0.593287
0.116815 0.230369 0.616455
0.117271 0.230826 0.639623
0.117728 0.231283 0.662791
0.118185 0.231740 0.685959
0.118642 0.232197 0.709126
0.119099 0.232654 0.732294
0.119556 0.233111 0.755462
0.120013 0.233567 0.778630
0.120470 0.234024 0.801798
0.120927 0.234481 0.824966
0.121383 0.234938 0.848133
0.109116 0.245381 0.109116
0.109572 0.245838 0.132283
0.110029 0.246295 0.155451
0.110486 0.246752 0.178619
0.110943 0.247209 0.201787
0.111400 0.247666 0.224955
0.111857 0.248122 0.248122
0.112314 0.248579 0.271290
0.112771 0.249036 0.294458
0.113228 0.249493 0.317626
0.113684 0.249950 0.340794
0.114141 0.250407 0.363962
0.114598 0.250864 0.387129
0.115055 0.251321 0.410297
0.115512 0.251778 0.433465
0.115969 0.252234 0.456633
0.116426 0.252691 0.479801
0.116883 0.253148 0.502969
0.117340 0.253605 0.526136
0.117796 0.254062 0.549304
0.118253 0.254519 0.572472
0.118710 0.254976 0.595640
0.119167 0.255433 0.618808
0.119624 0.255890 0.641976
0.120081 0.256347 0.665143
0.120538 0.256803 0.688311
0.120995 0.257260 0.711479
0.121452 0.257717 0.734647
0.121908 0.258174 0.757815
0.122365 0.258631 0.780983
0.122822 0.259088 0.804150
0.123279 0.259545 0.827318
0.123736 0.260002 0.850486
0.111468 0.270445 0.111468
0.111925 0.270902 0.134636
0.112382 0.271358 0.157804
0.112839 0.271815 0.180972
0.113296 0.272272 0.204139
0.113753 0.272729 0.227307
0.114209 0.273186 0.250475
0.114666 0.273643 0.273643
0.115123 0.274100 0.296811
0.115580 0.274557 0.319979
0.116037 0.275014 0.343146
0.116494 0.275470 0.366314
0.116951 0.275927 0.389482
0.117408 0.276384 0.412650
0.117865 0.276841 0.435818
0.118321 0.277298 0.458986
0.118778 0.277755 0.482153
0.119235 0.278212 0.505321
0.119692 0.278669 0.528489
0.120149 0.279126 0.551657
0.120606 0.279582 0.574825
0.121063 0.280039 0.597992
0.121520 0.280496 0.621160
0.121977 0.280953 0.644328
0.122433 0.281410 0.667496
0.122890 0.281867 0.690664
0.123347 0.282324 0.713832
0.123804 0.282781 0.736999
0.124261 0.283238 0.760167
0.124718 0.283694 0.783335
0.125175 0.284151 0.806503
0.125632 0.284608 0.829671
0.126089 0.285065 0.852839
0.113821 0.295508 0.113821
0.114278 0.295965 0.136989
0.114734 0.296422 0.160156
0.115191 0.296879 0.183324
0.115648 0.297336 0.206492
0.116105 0.297793 0.229660
0.116562 0.298250 0.252828
0.117019 0.298706 0.275995
0.117476 0.299163 0.299163
0.117933 0.299620 0.322331
0.118390 0.300077 0.345499
0.118846 0.300534 0.368667
0.119303 0.300991 0.391835
0.119760 0.301448 0.415002
0.120217 0.301905 0.438170
0.120674 0.302362 0.461338
0.121131 0.302818 0.484506
0.121588 0.303275 0.507674
0.122045 0.303732 0.530842
0.122502 0.304189 0.554009
0.122958 0.304646 0.577177
0.123415 0.305103 0.600345
0.123872 0.305560 0.623513
0.124329 0.306017 0.646681
0.124786 0.306474 0.669849
0.125243 0.306930 0.693016
0.125700 0.307387 0.716184
0.126157 0.307844 0.739352
0.126614 0.308301 0.762520
0.127071 0.308758 0.785688
0.127527 0.309215 0.808856
0.127984 0.309672 0.832023
0.128441 0.310129 0.855191
0.116173 0.320572 0.116173
0.116630 0.321029 0.139341
0.117087 0.321485 0.162509
0.117544 0.321942 0.185677
0.118001 0.322399 0.208845
0.118458 0.322856 0.232012
0.118915 0.323313 0.255180
0.119372 0.323770 0.278348
0.119828 0.324227 0.301516
0.120285 0.324684 0.324684
0.120742 0.325141 0.347852
0.121199 0.325598 0.371019
0.121656 0.326054 0.394187
0.122113 0.326511 0.417355
0.122570 0.326968 0.440523
0.123027 0.327425 0.463691
0.123484 0.327882 0.486859
0.123940 0.328339 0.510026
0.124397 0.328796 0.533194
0.124854 0.329253 0.556362
0.125311 0.329710 0.579530
0.125768 0.330166 0.602698
0.126225 0.330623 0.625865
0.126682 0.331080 0.649033
0.127139 0.331537 0.672201
0.127596 0.331994 0.695369
0.128052 0.332451 0.718537
0.128509 0.332908 0.741705
0.128966 0.333365 0.764872
0.129423 0.333822 0.788040
0.129880 0.334278 0.811208
0.130337 0.334735 0.834376
0.130794 0.335192 0.857544
0.118526 0.345635 0.118526
0.118983 0.346092 0.141694
0.119440 0.346549 0.164862
0.119897 0.347006 0.188029
0.120353 0.347463 0.211197
0.120810 0.347920 0.234365
0.121267 0.348377 0.257533
0.121724 0.348833 0.280701
0.122181 0.349290 0.303868
0.122638 0.349747 0.327036
0.123095 0.350204 0.350204
0.123552 0.350661 0.373372
0.124009 0.351118 0.396540
0.124465 0.351575 0.419708
0.124922 0.352032 0.442875
0.125379 0.352489 0.466043
0.125836 0.352945 0.489211
0.126293 0.353402 0.512379
0.126750 0.353859 0.535547
0.127207 0.354316 0.558715
0.127664 0.354773 0.581882
0.128121 0.355230 0.605050
0.128577 0.355687 0.628218
0.129034 0.356144 0.651386
0.129491 0.356601 0.674554
0.129948 0.357057 0.697722
0.130405 0.357514 0.720889
0.130862 0.357971 0.744057
0.131319 0.358428 0.767225
0.131776 0.358885 0.790393
0.132233 0.359342 0.813561
0.132689 0.359799 0.836729
0.133146 0.360256 0.859896
0.120878 0.370699 0.120878
0.121335 0.371156 0.144046
0.121792 0.371613 0.167214
0.122249 0.372069 0.190382
0.122706 0.372526 0.213550
0.123163 0.372983 0.236718
0.123620 0.373440 0.259885
0.124077 0.373897 0.283053
0.124534 0.374354 0.306221
0.124990 0.374811 0.329389
0.125447 0.375268 0.352557
0.125904 0.375725 0.375725
0.126361 0.376181 0.398892
0.126818 0.376638 0.422060
0.127275 0.377095 0.445228
0.127732 0.377552 0.468396
0.128189 0.378009 0.491564
0.128646 0.378466 0.514732
0.129102 0.378923 0.537899
0.129559 0.379380 0.561067
0.130016 0.379837 0.584235
0.130473 0.380293 0.607403
0.130930 0.380750 0.630571
0.131387 0.381207 0.653738
0.131844 0.381664 0.676906
0.132301 0.382121 0.700074
0.132758 0.382578 0.723242
0.133214 0.383035 0.746410
0.133671 0.383492 0.769578
0.134128 0.383949 0.792745
0.134585 0.384405 0.815913
0.135042 0.384862 0.839081
0.135499 0.385319 0.862249
0.123231 0.395762 0.123231
0.123688 0.396219 0.146399
0.124145 0.396676 0.169567
0.124602 0.397133 0.192735
0.125059 0.397590 0.215902
0.125515 0.398047 0.239070
0.125972 0.398504 0.262238
0.126429 0.398961 0.285406
0.126886 0.399417 0.308574
0.127343 0.399874 0.331741
0.127800 0.400331 0.354909
0.128257 0.400788 0.378077
0.128714 0.401245 0.401245
0.129171 0.401702 0.424413
0.129628 0.402159 0.447581
0.130084 0.402616 0.470748
0.130541 0.403073 0.493916
0.130998 0.403529 0.517084
0.131455 0.403986 0.540252
0.131912 0.404443 0.563420
0.132369 0.404900 0.586588
0.132826 0.405357 0.609755
0.133283 0.405814 0.632923
0.133740 0.406271 0.656091
0.134196 0.406728 0.679259
0.134653 0.407185 0.702427
0.135110 0.407641 0.725595
0.135567 0.408098 0.748762
0.136024 0.408555 0.771930
0.136481 0.409012 0.795098
0.136938 0.409469 0.818266
0.137395 0.409926 0.841434
0.137852 0.410383 0.864602
0.125584 0.420826 0.125584
0.126041 0.421283 0.148751
0.126497 0.421740 0.171919
0.126954 0.422196 0.195087
0.127411 0.422653 0.218255
0.127868 0.423110 0.241423
0.128325 0.423567 0.264591
0.128782 0.424024 0.287758
0.129239 0.424481 0.310926
0.129696 0.424938 0.334094
0.130153 0.425395 0.357262
0.130609 0.425852 0.380430
0.131066 0.426308 0.403598
0.131523 0.426765 0.426765
0.131980 0.427222 0.449933
0.132437 0.427679 0.473101
0.132894 0.428136 0.496269
0.133351 0.428593 0.519437
0.133808 0.429050 0.542605
0.134265 0.429507 0.565772
0.134721 0.429964 0.588940
0.135178 0.430421 0.612108
0.135635 0.430877 0.635276
0.136092 0.431334 0.658444
0.136549 0.431791 0.681611
0.137006 0.432248 0.704779
0.137463 0.432705 0.727947
0.137920 0.433162 0.751115
0.138377 0.433619 0.774283
0.138833 0.434076 0.797451
0.139290 0.434533 0.820618
0.139747 0.434989 0.843786
0.140204 0.435446 0.866954
0.127936 0.445889 0.127936
0.128393 0.446346 0.151104
0.128850 0.446803 0.174272
0.129307 0.447260 0.197440
0.129764 0.447717 0.220608
0.130221 0.448174 0.243775
0.130678 0.448631 0.266943
0.131134 0.449088 0.290111
0.131591 0.449544 0.313279
0.132048 0.450001 0.336447
0.132505 0.450458 0.359614
0.132962 0.450915 0.382782
0.133419 0.451372 0.405950
0.133876 0.451829 0.429118
0.134333 0.452286 0.452286
0.134790 0.452743 0.475454
0.135246 0.453200 0.498621
0.135703 0.453656 0.521789
0.136160 0.454113 0.544957
0.136617 0.454570 0.568125
0.137074 0.455027 0.591293
0.137531 0.455484 0.614461
0.137988 0.455941 0.637628
0.138445 0.456398 0.660796
0.138902 0.456855 0.683964
0.139358 0.457312 0.707132
0.139815 0.457768 0.730300
0.140272 0.458225 0.753468
0.140729 0.458682 0.776635
0.141186 0.459139 0.799803
0.141643 0.459596 0.822971
0.142100 0.460053 0.846139
0.142557 0.460510 0.869307
0.130289 0.470953 0.130289
0.130746 0.471410 0.153457
0.131203 0.471867 0.176624
0.131659 0.472324 0.199792
0.132116 0.472780 0.222960
0.132573 0.473237 0.246128
0.133030 0.473694 0.269296
0.133487 0.474151 0.292464
0.133944 0.474608 0.315631
0.134401 0.475065 0.338799
0.134858 0.475522 0.361967
0.135315 0.475979 0.385135
0.135771 0.476436 0.408303
0.136228 0.476892 0.431471
0.136685 0.477349 0.454638
0.137142 0.477806 0.477806
0.137599 0.478263 0.500974
0.138056 0.478720 0.524142
0.138513 0.479177 0.547310
0.138970 0.479634 0.570478
0.139427 0.480091 0.593645
0.139883 0.480548 0.616813
0.140340 0.481004 0.639981
0.140797 0.481461 0.663149
0.141254 0.481918 0.686317
0.141711 0.482375 0.709484
0.142168 0.482832 0.732652
0.142625 0.483289 0.755820
0.143082 0.483746 0.778988
0.143539 0.484203 0.802156
0.143996 0.484660 0.825324
0.144452 0.485116 0.848491
0.144909 0.485573 0.871659
0.132641 0.496016 0.132641
0.133098 0.496473 0.155809
0.133555 0.496930 0.178977
0.134012 0.497387 0.202145
0.134469 0.497844 0.225313
0.134926 0.498301 0.248481
0.135383 0.498758 0.271648
0.135840 0.499215 0.294816
0.136296 0.499671 0.317984
0.136753 0.500128 0.341152
0.137210 0.500585 0.364320
0.137667 0.501042 0.387487
0.138124 0.501499 0.410655
0.138581 0.501956 0.433823
0.139038 0.502413 0.456991
0.139495 0.502870 0.480159
0.139952 0.503327 0.503327
0.140409 0.503784 0.526494
0.140865 0.504240 0.549662
0.141322 0.504697 0.572830
0.141779 0.505154 0.595998
0.142236 0.505611 0.619166
0.142693 0.506068 0.642334
0.143150 0.506525 0.665501
0.143607 0.506982 0.688669
0.144064 0.507439 0.711837
0.144521 0.507896 0.735005
0.144977 0.508352 0.758173
0.145434 0.508809 0.781341
0.145891 0.509266 0.804508
0.146348 0.509723 0.827676
0.146805 0.510180 0.850844
0.147262 0.510637 0.874012
0.134994 0.521080 0.134994
0.135451 0.521537 0.158162
0.135908 0.521994 0.181330
0.136365 0.522451 0.204497
0.136822 0.522907 0.227665
0.137278 0.523364 0.250833
0.137735 0.523821 0.274001
0.138192 0.524278 0.297169
0.138649 0.524735 0.320337
0.139106 0.525192 0.343504
0.139563 0.525649 0.366672
0.140020 0.526106 0.389840
0.140477 0.526563 0.413008
0.140934 0.527019 0.436176
0.141390 0.527476 0.459344
0.141847 0.527933 0.482511
0.142304 0.528390 0.505679
0.142761 0.528847 0.528847
0.143218 0.529304 0.552015
0.143675 0.529761 0.575183
0.144132 0.530218 0.598351
0.144589 0.530675 0.621518
0.145046 0.531131 0.644686
0.145502 0.531588 0.667854
0.145959 0.532045 0.691022
0.146416 0.532502 0.714190
0.146873 0.532959 0.737357
0.147330 0.533416 0.760525
0.147787 0.533873 0.783693
0.148244 0.534330 0.806861
0.148701 0.534787 0.830029
0.149158 0.535244 0.853197
0.149614 0.535700 0.876364
0.137347 0.546143 0.137347
0.137803 0.546600 0.160514
0.138260 0.547057 0.183682
0.138717 0.547514 0.206850
0.139174 0.547971 0.230018
0.139631 0.548428 0.253186
0.140088 0.548885 0.276354
0.140545 0.549342 0.299521
0.141002 0.549799 0.322689
0.141459 0.550255 0.345857
0.141915 0.550712 0.369025
0.142372 0.551169 0.392193
0.142829 0.551626 0.415360
0.143286 0.552083 0.438528
0.143743 0.552540 0.461696
0.144200 0.552997 0.484864
0.144657 0.553454 0.508032
0.145114 0.553911 0.531200
0.145571 0.554367 0.554367
0.146027 0.554824 0.577535
0.146484 0.555281 0.600703
0.146941 0.555738 0.623871
0.147398 0.556195 0.647039
0.147855 0.556652 0.670207
0.148312 0.557109 0.693374
0.148769 0.557566 0.716542
0.149226 0.558023 0.739710
0.149683 0.558479 0.762878
0.150139 0.558936 0.786046
0.150596 0.559393 0.809214
0.151053 0.559850 0.832381
0.151510 0.560307 0.855549
0.151967 0.560764 0.878717
0.139699 0.571207 0.139699
0.140156 0.571664 0.162867
0.140613 0.572121 0.186035
0.141070 0.572578 0.209203
0.141527 0.573035 0.232370
0.141984 0.573491 0.255538
0.142440 0.573948 0.278706
0.142897 0.574405 0.301874
0.143354 0.574862 0.325042
0.143811 0.575319 0.348210
0.144268 0.575776 0.371377
0.144725 0.576233 0.394545
0.145182 0.576690 0.417713
0.145639 0.577147 0.440881
0.146096 0.577603 0.464049
0.146552 0.578060 0.487217
0.147009 0.578517 0.510384
0.147466 0.578974 0.533552
0.147923 0.579431 0.556720
0.148380 0.579888 0.579888
0.148837 0.580345 0.603056
0.149294 0.580802 0.626224
0.149751 0.581259 0.649391
0.150208 0.581715 0.672559
0.150665 0.582172 0.695727
0.151121 0.582629 0.718895
0.151578 0.583086 0.742063
0.152035 0.583543 0.765230
0.152492 0.584000 0.788398
0.152949 0.584457 0.811566
0.153406 0.584914 0.834734
0.153863 0.585371 0.857902
0.154320 0.585827 0.881070
0.142052 0.596270 0.142052
0.142509 0.596727 0.165220
0.142965 0.597184 0.188387
0.143422 0.597641 0.211555
0.143879 0.598098 0.234723
0.144336 0.598555 0.257891
0.144793 0.599012 0.281059
0.145250 0.599469 0.304227
0.145707 0.599926 0.327394
0.146164 0.600382 0.350562
0.146621 0.600839 0.373730
0.147078 0.601296 0.396898
0.147534 0.601753 0.420066
0.147991 0.602210 0.443233
0.148448 0.602667 0.466401
0.148905 0.603124 0.489569
0.149362 0.603581 0.512737
0.149819 0.604038 0.535905
0.150276 0.604495 0.559073
0.150733 0.604951 0.582240
0.151190 0.605408 0.605408
0.151646 0.605865 0.628576
0.152103 0.606322 0.651744
0.152560 0.606779 0.674912
0.153017 0.607236 0.698080
0.153474 0.607693 0.721247
0.153931 0.608150 0.744415
0.154388 0.608607 0.767583
0.154845 0.609063 0.790751
0.155302 0.609520 0.813919
0.155758 0.609977 0.837087
0.156215 0.610434 0.860254
0.156672 0.610891 0.883422
0.144404 0.621334 0.144404
0.144861 0.621791 0.167572
0.145318 0.622248 0.190740
0.145775 0.622705 0.213908
0.146232 0.623162 0.237076
0.146689 0.623618 0.260243
0.147146 0.624075 0.283411
0.147603 0.624532 0.306579
0.148059 0.624989 0.329747
0.148516 0.625446 0.352915
0.148973 0.625903 0.376083
0.149430 0.626360 0.399250
0.149887 0.626817 0.422418
0.150344 0.627274 0.445586
0.150801 0.627730 0.468754
0.151258 0.628187 0.491922
0.151715 0.628644 0.515090
0.152171 0.629101 0.538257
0.152628 0.629558 0.561425
0.153085 0.630015 0.584593
0.153542 0.630472 0.607761
0.153999 0.630929 0.630929
0.154456 0.631386 0.654097
0.154913 0.631842 0.677264
0.155370 0.632299 0.700432
0.155827 0.632756 0.723600
0.156283 0.633213 0.746768
0.156740 0.633670 0.769936
0.157197 0.634127 0.793103
0.157654 0.634584 0.816271
0.158111 0.635041 0.839439
0.158568 0.635498 0.862607
0.159025 0.635954 0.885775
0.146757 0.646398 0.146757
0.147214 0.646854 0.169925
0.147671 0.647311 0.193093
0.148128 0.647768 0.216260
0.148584 0.648225 0.239428
0.149041 0.648682 0.262596
0.149498 0.649139 0.285764
0.149955 0.649596 0.308932
0.150412 0.650053 0.332100
0.150869 0.650510 0.355267
0.151326 0.650966 0.378435
0.151783 0.651423 0.401603
0.152240 0.651880 0.424771
0.152696 0.652337 0.447939
0.153153 0.652794 0.471106
0.153610 0.653251 0.494274
0.154067 0.653708 0.517442
0.154524 0.654165 0.540610
0.154981 0.654622 0.563778
0.155438 0.655078 0.586946
0.155895 0.655535 0.610113
0.156352 0.655992 0.633281
0.156808 0.656449 0.656449
0.157265 0.656906 0.679617
0.157722 0.657363 0.702785
0.158179 0.657820 0.725953
0.158636 0.658277 0.749120
0.159093 0.658734 0.772288
0.159550 0.659190 0.795456
0.160007 0.659647 0.818624
0.160464 0.660104 0.841792
0.160920 0.660561 0.864960
0.161377 0.661018 0.888127
0.149109 0.671461 0.149109
0.149566 0.671918 0.172277
0.150023 0.672375 0.195445
0.150480 0.672832 0.218613
0.150937 0.673289 0.241781
0.151394 0.673745 0.264949
0.151851 0.674202 0.288116
0.152308 0.674659 0.311284
0.152765 0.675116 0.334452
0.153221 0.675573 0.357620
0.153678 0.676030 0.380788
0.154135 0.676487 0.403956
0.154592 0.676944 0.427123
0.155049 0.677401 0.450291
0.155506 0.677858 0.473459
0.155963 0.678314 0.496627
0.156420 0.678771 0.519795
0.156877 0.679228 0.542963
0.157334 0.679685 0.566130
0.157790 0.680142 0.589298
0.158247 0.680599 0.612466
0.158704 0.681056 0.635634
0.159161 0.681513 0.658802
0.159618 0.681970 0.681970
0.160075 0.682426 0.705137
0.160532 0.682883 0.728305
0.160989 0.683340 0.751473
0.161446 0.683797 0.774641
0.161902 0.684254 0.797809
0.162359 0.684711 0.820976
0.162816 0.685168 0.844144
0.163273 0.685625 0.867312
0.163730 0.686082 0.890480
0.151462 0.696525 0.151462
0.151919 0.696981 0.174630
0.152376 0.697438 0.197798
0.152833 0.697895 0.220966
0.153290 0.698352 0.244133
0.153747 0.698809 0.267301
0.154203 0.699266 0.290469
0.154660 0.699723 0.313637
0.155117 0.700180 0.336805
0.155574 0.700637 0.359973
0.156031 0.701093 0.383140
0.156488 0.701550 0.406308
0.156945 0.702007 0.429476
0.157402 0.702464 0.452644
0.157859 0.702921 0.475812
0.158315 0.703378 0.498979
0.158772 0.703835 0.522147
0.159229 0.704292 0.545315
0.159686 0.704749 0.568483
0.160143 0.705205 0.591651
0.160600 0.705662 0.614819
0.161057 0.706119 0.637986
0.161514 0.706576 0.661154
0.161971 0.707033 0.684322
0.162427 0.707490 0.707490
0.162884 0.707947 0.730658
0.163341 0.708404 0.753826
0.163798 0.708861 0.776993
0.164255 0.709318 0.800161
0.164712 0.709774 0.823329
0.165169 0.710231 0.846497
0.165626 0.710688 0.869665
0.166083 0.711145 0.892833
0.153815 0.721588 0.153815
0.154272 0.722045 0.176982
0.154728 0.722502 0.200150
0.155185 0.722959 0.223318
0.155642 0.723416 0.246486
0.156099 0.723873 0.269654
0.156556 0.724329 0.292822
0.157013 0.724786 0.315989
0.157470 0.725243 0.339157
0.157927 0.725700 0.362325
0.158384 0.726157 0.385493
0.158840 0.726614 0.408661
0.159297 0.727071 0.431829
0.159754 0.727528 0.454996
0.160211 0.727985 0.478164
0.160668 0.728441 0.501332
0.161125 0.728898 0.524500
0.161582 0.729355 0.547668
0.162039 0.729812 0.570836
0.162496 0.730269 0.594003
0.162952 0.730726 0.617171
0.163409 0.731183 0.640339
0.163866 0.731640 0.663507
0.164323 0.732097 0.686675
0.164780 0.732553 0.709843
0.165237 0.733010 0.733010
0.165694 0.733467 0.756178
0.166151 0.733924 0.779346
0.166608 0.734381 0.802514
0.167064 0.734838 0.825682
0.167521 0.735295 0.848849
0.167978 0.735752 0.872017
0.168435 0.736209 0.895185
0.156167 0.746652 0.156167
0.156624 0.747108 0.179335
0.157081 0.747565 0.202503
0.157538 0.748022 0.225671
0.157995 0.748479 0.248839
0.158452 0.748936 0.272006
0.158909 0.749393 0.295174
0.159365 0.749850 0.318342
0.159822 0.750307 0.341510
0.160279 0.750764 0.364678
0.160736 0.751221 0.387846
0.161193 0.751677 0.411013
0.161650 0.752134 0.434181
0.162107 0.752591 0.457349
0.162564 0.753048 0.480517
0.163021 0.753505 0.503685
0.163477 0.753962 0.526852
0.163934 0.754419 0.550020
0.164391 0.754876 0.573188
0.164848 0.755333 0.596356
0.165305 0.755789 0.619524
0.165762 0.756246 0.642692
0.166219 0.756703 0.665859
0.166676 0.757160 0.689027
0.167133 0.757617 0.712195
0.167590 0.758074 0.735363
0.168046 0.758531 0.758531
0.168503 0.758988 0.781699
0.168960 0.759445 0.804866
