utils/luts/soft.cube
TITLE "Soft Pastel"
LUT_3D_SIZE 9
0.095000 0.095000 0.095000
0.096828 0.096828 0.187671
0.098655 0.098655 0.280343
0.100483 0.100483 0.373014
0.102310 0.102310 0.465685
0.104138 0.104138 0.558357
0.105965 0.105965 0.651028
0.107793 0.107793 0.743699
0.109621 0.109621 0.836371
0.104410 0.195254 0.104410
0.106238 0.197082 0.197082
0.108065 0.198909 0.289753
0.109893 0.200737 0.382424
0.111721 0.202564 0.475096
0.113548 0.204392 0.567767
0.115376 0.206219 0.660438
0.117203 0.208047 0.753110
0.119031 0.209875 0.845781
0.113821 0.295508 0.113821
0.115648 0.297336 0.206492
0.117476 0.299163 0.299163
0.119303 0.300991 0.391835
0.121131 0.302818 0.484506
0.122958 0.304646 0.577177
0.124786 0.306474 0.669849
0.126614 0.308301 0.762520
0.128441 0.310129 0.855191
0.123231 0.395762 0.123231
0.125059 0.397590 0.215902
0.126886 0.399417 0.308574
0.128714 0.401245 0.401245
0.130541 0.403073 0.493916
0.132369 0.404900 0.586588
0.134196 0.406728 0.679259
0.136024 0.408555 0.771930
0.137852 0.410383 0.864602
0.132641 0.496016 0.132641
0.134469 0.497844 0.225313
0.136296 0.499671 0.317984
0.138124 0.501499 0.410655
0.139952 0.503327 0.503327
0.141779 0.505154 0.595998
0.143607 0.506982 0.688669
0.145434 0.508809 0.781341
0.147262 0.510637 0.874012
0.142052 0.596270 0.142052
0.143879 0.598098 0.234723
0.145707 0.599926 0.327394
0.147534 0.601753 0.420066
0.149362 0.603581 0.512737
0.151190 0.605408 0.605408
0.153017 0.607236 0.698080
0.154845 0.609063 0.790751
0.156672 0.610891 0.883422
0.151462 0.696525 0.151462
0.153290 0.698352 0.244133
0.155117 0.700180 0.336805
0.156945 0.702007 0.429476
0.158772 0.703835 0.522147
0.160600 0.705662 0.614819
0.162427 0.707490 0.707490
0.164255 0.709318 0.800161
0.166083 0.711145 0.892833
0.160872 0.796779 0.160872
0.162700 0.798606 0.253544
0.164528 0.800434 0.346215
0.166355 0.802261 0.438886
0.168183 0.804089 0.531558
0.170010 0.805916 0.624229
0.171838 0.807744 0.716900
0.173665 0.809572 0.809572
0.175493 0.811399 0.902243
0.170283 0.897033 0.170283
0.172110 0.898860 0.262954
0.173938 0.900688 0.355625
0.175765 0.902515 0.448297
0.177593 0.904343 0.540968
0.179421 0.906171 0.633639
0.181248 0.907998 0.726311
0.183076 0.909826 0.818982
0.184903 0.911653 0.911653
0.190637 0.099793 0.099793
0.192465 0.101621 0.192465
0.194292 0.103448 0.285136
0.196120 0.105276 0.377807
0.197947 0.107104 0.470479
0.199775 0.108931 0.563150
0.201602 0.110759 0.655821
0.203430 0.112586 0.748493
0.205258 0.114414 0.841164
0.200047 0.200047 0.109204
0.201875 0.201875 0.201875
0.203703 0.203703 0.294546
0.205530 0.205530 0.387218
0.207358 0.207358 0.479889
0.209185 0.209185 0.572560
0.211013 0.211013 0.665232
0.212840 0.212840 0.757903
0.214668 0.214668 0.850574
0.209458 0.300302 0.118614
0.211285 0.302129 0.211285
0.213113 0.303957 0.303957
0.214940 0.305784 0.396628
0.216768 0.307612 0.489299
0.218596 0.309439 0.581971
0.220423 0.311267 0.674642
0.222251 0.313094 0.767313
0.224078 0.314922 0.859985
0.218868 0.400556 0.128024
0.220696 0.402383 0.220696
0.222523 0.404211 0.313367
0.224351 0.406038 0.406038
0.226178 0.407866 0.498710
0.228006 0.409693 0.591381
0.229834 0.411521 0.684052
0.231661 0.413349 0.776724
0.233489 0.415176 0.869395
0.228278 0.500810 0.137435
0.230106 0.502637 0.230106
0.231934 0.504465 0.322777
0.233761 0.506292 0.415449
0.235589 0.508120 0.508120
0.237416 0.509948 0.600791
0.239244 0.511775 0.693463
0.241071 0.513603 0.786134
0.242899 0.515430 0.878805
0.237689 0.601064 0.146845
0.239516 0.602891 0.239516
0.241344 0.604719 0.332188
0.243171 0.606547 0.424859
0.244999 0.608374 0.517530
0.246827 0.610202 0.610202
0.248654 0.612029 0.702873
0.250482 0.613857 0.795544
0.252309 0.615684 0.888216
0.247099 0.701318 0.156255
0.248927 0.703145 0.248927
0.250754 0.704973 0.341598
0.252582 0.706801 0.434269
0.254409 0.708628 0.526941
0.256237 0.710456 0.619612
0.258065 0.712283 0.712283
0.259892 0.714111 0.804955
0.261720 0.715938 0.897626
0.256510 0.801572 0.165666
0.258337 0.803400 0.258337
0.260165 0.805227 0.351008
0.261992 0.807055 0.443680
0.263820 0.808882 0.536351
0.265647 0.810710 0.629022
0.267475 0.812537 0.721694
0.269302 0.814365 0.814365
0.271130 0.816192 0.907036
0.265920 0.901826 0.175076
0.267747 0.903654 0.267747
0.269575 0.905481 0.360419
0.271403 0.907309 0.453090
0.273230 0.909136 0.545761
0.275058 0.910964 0.638433
0.276885 0.912791 0.731104
0.278713 0.914619 0.823775
0.280540 0.916447 0.916447
0.286274 0.104587 0.104587
0.288102 0.106414 0.197258
0.289929 0.108242 0.289929
0.291757 0.110069 0.382601
0.293584 0.111897 0.475272
0.295412 0.113725 0.567943
0.297240 0.115552 0.660615
0.299067 0.117380 0.753286
0.300895 0.119207 0.845957
0.295685 0.204841 0.113997
0.297512 0.206668 0.206668
0.299340 0.208496 0.299340
0.301167 0.210323 0.392011
0.302995 0.212151 0.484682
0.304822 0.213979 0.577354
0.306650 0.215806 0.670025
0.308477 0.217634 0.762696
0.310305 0.219461 0.855368
0.305095 0.305095 0.123407
0.306922 0.306922 0.216079
0.308750 0.308750 0.308750
0.310578 0.310578 0.401421
0.312405 0.312405 0.494093
0.314233 0.314233 0.586764
0.316060 0.316060 0.679435
0.317888 0.317888 0.772107
0.319715 0.319715 0.864778
0.314505 0.405349 0.132818
0.316333 0.407177 0.225489
0.318160 0.409004 0.318160
0.319988 0.410832 0.410832
0.321815 0.412659 0.503503
0.323643 0.414487 0.596174
0.325471 0.416314 0.688846
0.327298 0.418142 0.781517
0.329126 0.419969 0.874188
0.323916 0.505603 0.142228
0.325743 0.507431 0.234899
0.327571 0.509258 0.327571
0.329398 0.511086 0.420242
0.331226 0.512913 0.512913
0.333053 0.514741 0.605585
0.334881 0.516568 0.698256
0.336708 0.518396 0.790927
0.338536 0.520224 0.883599
0.333326 0.605857 0.151638
0.335153 0.607685 0.244310
0.336981 0.609512 0.336981
0.338809 0.611340 0.429652
0.340636 0.613167 0.522324
0.342464 0.614995 0.614995
0.344291 0.616823 0.707666
0.346119 0.618650 0.800338
0.347946 0.620478 0.893009
0.342736 0.706111 0.161049
0.344564 0.707939 0.253720
0.346391 0.709766 0.346391
0.348219 0.711594 0.439063
0.350046 0.713422 0.531734
0.351874 0.715249 0.624405
0.353702 0.717077 0.717077
0.355529 0.718904 0.809748
0.357357 0.720732 0.902419
0.352147 0.806365 0.170459
0.353974 0.808193 0.263130
0.355802 0.810020 0.355802
0.357629 0.811848 0.448473
0.359457 0.813676 0.541144
0.361284 0.815503 0.633816
0.363112 0.817331 0.726487
0.364940 0.819158 0.819158
0.366767 0.820986 0.911830
0.361557 0.906619 0.179869
0.363384 0.908447 0.272541
0.365212 0.910275 0.365212
0.367040 0.912102 0.457883
0.368867 0.913930 0.550555
0.370695 0.915757 0.643226
0.372522 0.917585 0.735897
0.374350 0.919412 0.828569
0.376177 0.921240 0.921240
0.381911 0.109380 0.109380
0.383739 0.111208 0.202051
0.385566 0.113035 0.294723
0.387394 0.114863 0.387394
0.389222 0.116690 0.480065
0.391049 0.118518 0.572737
0.392877 0.120345 0.665408
0.394704 0.122173 0.758079
0.396532 0.124001 0.850751
0.391322 0.209634 0.118790
0.393149 0.211462 0.211462
0.394977 0.213289 0.304133
0.396804 0.215117 0.396804
0.398632 0.216944 0.489476
0.400459 0.218772 0.582147
0.402287 0.220599 0.674818
0.404115 0.222427 0.767490
0.405942 0.224255 0.860161
0.400732 0.309888 0.128201
0.402560 0.311716 0.220872
0.404387 0.313543 0.313543
0.406215 0.315371 0.406215
0.408042 0.317198 0.498886
0.409870 0.319026 0.591557
0.411697 0.320854 0.684229
0.413525 0.322681 0.776900
0.415352 0.324509 0.869571
0.410142 0.410142 0.137611
0.411970 0.411970 0.230282
0.413797 0.413797 0.322954
0.415625 0.415625 0.415625
0.417453 0.417453 0.508296
0.419280 0.419280 0.600968
0.421108 0.421108 0.693639
0.422935 0.422935 0.786310
0.424763 0.424763 0.878982
0.419553 0.510396 0.147021
0.421380 0.512224 0.239693
0.423208 0.514052 0.332364
0.425035 0.515879 0.425035
0.426863 0.517707 0.517707
0.428690 0.519534 0.610378
0.430518 0.521362 0.703049
0.432346 0.523189 0.795721
0.434173 0.525017 0.888392
0.428963 0.610650 0.156432
0.430791 0.612478 0.249103
0.432618 0.614306 0.341774
0.434446 0.616133 0.434446
0.436273 0.617961 0.527117
0.438101 0.619788 0.619788
0.439928 0.621616 0.712460
0.441756 0.623443 0.805131
0.443583 0.625271 0.897802
0.438373 0.710905 0.165842
0.440201 0.712732 0.258513
0.442028 0.714560 0.351185
0.443856 0.716387 0.443856
0.445684 0.718215 0.536527
0.447511 0.720042 0.629199
0.449339 0.721870 0.721870
0.451166 0.723698 0.814541
0.452994 0.725525 0.907213
0.447784 0.811159 0.175252
0.449611 0.812986 0.267924
0.451439 0.814814 0.360595
0.453266 0.816641 0.453266
0.455094 0.818469 0.545938
0.456921 0.820296 0.638609
0.458749 0.822124 0.731280
0.460577 0.823952 0.823952
0.462404 0.825779 0.916623
0.457194 0.911413 0.184663
0.459022 0.913240 0.277334
0.460849 0.915068 0.370005
0.462677 0.916895 0.462677
0.464504 0.918723 0.555348
0.466332 0.920551 0.648019
0.468159 0.922378 0.740691
0.469987 0.924206 0.833362
0.471815 0.926033 0.926033
0.477548 0.114173 0.114173
0.479376 0.116001 0.206845
0.481203 0.117829 0.299516
0.483031 0.119656 0.392187
0.484859 0.121484 0.484859
0.486686 0.123311 0.577530
0.488514 0.125139 0.670201
0.490341 0.126966 0.762873
0.492169 0.128794 0.855544
0.486959 0.214427 0.123584
0.488786 0.216255 0.216255
0.490614 0.218083 0.308926
0.492441 0.219910 0.401598
0.494269 0.221738 0.494269
0.496097 0.223565 0.586940
0.497924 0.225393 0.679612
0.499752 0.227220 0.772283
0.501579 0.229048 0.864954
0.496369 0.314682 0.132994
0.498197 0.316509 0.225665
0.500024 0.318337 0.318337
0.501852 0.320164 0.411008
0.503679 0.321992 0.503679
0.505507 0.323819 0.596351
0.507334 0.325647 0.689022
0.509162 0.327475 0.781693
0.510990 0.329302 0.874365
0.505779 0.414936 0.142404
0.507607 0.416763 0.235076
0.509435 0.418591 0.327747
0.511262 0.420418 0.420418
0.513090 0.422246 0.513090
0.514917 0.424073 0.605761
0.516745 0.425901 0.698432
0.518572 0.427729 0.791104
0.520400 0.429556 0.883775
0.515190 0.515190 0.151815
0.517017 0.517017 0.244486
0.518845 0.518845 0.337157
0.520672 0.520672 0.429829
0.522500 0.522500 0.522500
0.524328 0.524328 0.615171
0.526155 0.526155 0.707843
0.527983 0.527983 0.800514
0.529810 0.529810 0.893185
0.524600 0.615444 0.161225
0.526428 0.617271 0.253896
0.528255 0.619099 0.346568
0.530083 0.620927 0.439239
0.531910 0.622754 0.531910
0.533738 0.624582 0.624582
0.535565 0.626409 0.717253
0.537393 0.628237 0.809924
0.539221 0.630064 0.902596
0.534010 0.715698 0.170635
0.535838 0.717526 0.263307
0.537666 0.719353 0.355978
0.539493 0.721181 0.448649
0.541321 0.723008 0.541321
0.543148 0.724836 0.633992
0.544976 0.726663 0.726663
0.546803 0.728491 0.819335
0.548631 0.730318 0.912006
0.543421 0.815952 0.180046
0.545248 0.817780 0.272717
0.547076 0.819607 0.365388
0.548903 0.821435 0.458060
0.550731 0.823262 0.550731
0.552559 0.825090 0.643402
0.554386 0.826917 0.736074
0.556214 0.828745 0.828745
0.558041 0.830573 0.921416
0.552831 0.916206 0.189456
0.554659 0.918034 0.282127
0.556486 0.919861 0.374799
0.558314 0.921689 0.467470
0.560141 0.923516 0.560141
0.561969 0.925344 0.652813
0.563797 0.927172 0.745484
0.565624 0.928999 0.838155
0.567452 0.930827 0.930827
0.573185 0.118967 0.118967
0.575013 0.120794 0.211638
0.576841 0.122622 0.304309
0.578668 0.124449 0.396981
0.580496 0.126277 0.489652
0.582323 0.128105 0.582323
0.584151 0.129932 0.674995
0.585978 0.131760 0.767666
0.587806 0.133587 0.860337
0.582596 0.219221 0.128377
0.584423 0.221048 0.221048
0.586251 0.222876 0.313720
0.588078 0.224704 0.406391
0.589906 0.226531 0.499062
0.591734 0.228359 0.591734
0.593561 0.230186 0.684405
0.595389 0.232014 0.777076
0.597216 0.233841 0.869748
0.592006 0.319475 0.137787
0.593834 0.321302 0.230459
0.595661 0.323130 0.323130
0.597489 0.324958 0.415801
0.599316 0.326785 0.508473
0.601144 0.328613 0.601144
0.602972 0.330440 0.693815
0.604799 0.332268 0.786487
0.606627 0.334095 0.879158
0.601417 0.419729 0.147198
0.603244 0.421557 0.239869
0.605072 0.423384 0.332540
0.606899 0.425212 0.425212
0.608727 0.427039 0.517883
0.610554 0.428867 0.610554
0.612382 0.430694 0.703226
0.614209 0.432522 0.795897
0.616037 0.434349 0.888568
0.610827 0.519983 0.156608
0.612654 0.521811 0.249279
0.614482 0.523638 0.341951
0.616310 0.525466 0.434622
0.618137 0.527293 0.527293
0.619965 0.529121 0.619965
0.621792 0.530948 0.712636
0.623620 0.532776 0.805307
0.625447 0.534604 0.897979
0.620237 0.620237 0.166018
0.622065 0.622065 0.258690
0.623892 0.623892 0.351361
0.625720 0.625720 0.444032
0.627547 0.627547 0.536704
0.629375 0.629375 0.629375
0.631203 0.631203 0.722046
0.633030 0.633030 0.814718
0.634858 0.634858 0.907389
0.629648 0.720491 0.175429
0.631475 0.722319 0.268100
0.633303 0.724146 0.360771
0.635130 0.725974 0.453443
0.636958 0.727802 0.546114
0.638785 0.729629 0.638785
0.640613 0.731457 0.731457
0.642440 0.733284 0.824128
0.644268 0.735112 0.916799
0.639058 0.820745 0.184839
0.640885 0.822573 0.277510
0.642713 0.824401 0.370182
0.644541 0.826228 0.462853
0.646368 0.828056 0.555524
0.648196 0.829883 0.648196
0.650023 0.831711 0.740867
0.651851 0.833538 0.833538
0.653678 0.835366 0.926210
0.648468 0.920999 0.194249
0.650296 0.922827 0.286921
0.652123 0.924655 0.379592
0.653951 0.926482 0.472263
0.655778 0.928310 0.564935
0.657606 0.930137 0.657606
0.659434 0.931965 0.750277
0.661261 0.933792 0.842949
0.663089 0.935620 0.935620
0.668823 0.123760 0.123760
0.670650 0.125588 0.216431
0.672478 0.127415 0.309103
0.674305 0.129243 0.401774
0.676133 0.131070 0.494445
0.677960 0.132898 0.587117
0.679788 0.134725 0.679788
0.681615 0.136553 0.772459
0.683443 0.138381 0.865131
0.678233 0.224014 0.133170
0.680060 0.225842 0.225842
0.681888 0.227669 0.318513
0.683716 0.229497 0.411184
0.685543 0.231324 0.503856
0.687371 0.233152 0.596527
0.689198 0.234980 0.689198
0.691026 0.236807 0.781870
0.692853 0.238635 0.874541
0.687643 0.324268 0.142581
0.689471 0.326096 0.235252
0.691298 0.327923 0.327923
0.693126 0.329751 0.420595
0.694954 0.331578 0.513266
0.696781 0.333406 0.605937
0.698609 0.335234 0.698609
0.700436 0.337061 0.791280
0.702264 0.338889 0.883951
0.697054 0.424522 0.151991
0.698881 0.426350 0.244662
0.700709 0.428177 0.337334
0.702536 0.430005 0.430005
0.704364 0.431833 0.522676
0.706191 0.433660 0.615348
0.708019 0.435488 0.708019
0.709847 0.437315 0.800690
0.711674 0.439143 0.893362
0.706464 0.524776 0.161401
0.708292 0.526604 0.254073
0.710119 0.528432 0.346744
0.711947 0.530259 0.439415
0.713774 0.532087 0.532087
0.715602 0.533914 0.624758
0.717429 0.535742 0.717429
0.719257 0.537569 0.810101
0.721084 0.539397 0.902772
0.715874 0.625031 0.170812
0.717702 0.626858 0.263483
0.719529 0.628686 0.356154
0.721357 0.630513 0.448826
0.723185 0.632341 0.541497
0.725012 0.634168 0.634168
0.726840 0.635996 0.726840
0.728667 0.637823 0.819511
0.730495 0.639651 0.912182
0.725285 0.725285 0.180222
0.727112 0.727112 0.272893
0.728940 0.728940 0.365565
0.730767 0.730767 0.458236
0.732595 0.732595 0.550907
0.734422 0.734422 0.643579
0.736250 0.736250 0.736250
0.738078 0.738078 0.828921
0.739905 0.739905 0.921593
0.734695 0.825539 0.189632
0.736523 0.827366 0.282304
0.738350 0.829194 0.374975
0.740178 0.831021 0.467646
0.742005 0.832849 0.560318
0.743833 0.834677 0.652989
0.745660 0.836504 0.745660
0.747488 0.838332 0.838332
0.749315 0.840159 0.931003
0.744105 0.925793 0.199043
0.745933 0.927620 0.291714
0.747760 0.929448 0.384385
0.749588 0.931275 0.477057
0.751416 0.933103 0.569728
0.753243 0.934931 0.662399
0.755071 0.936758 0.755071
0.756898 0.938586 0.847742
0.758726 0.940413 0.940413
0.764460 0.128553 0.128553
0.766287 0.130381 0.221225
0.768115 0.132209 0.313896
0.769942 0.134036 0.406567
0.771770 0.135864 0.499239
0.773597 0.137691 0.591910
0.775425 0.139519 0.684581
0.777253 0.141346 0.777253
0.779080 0.143174 0.869924
0.773870 0.228807 0.137964
0.775698 0.230635 0.230635
0.777525 0.232463 0.323306
0.779353 0.234290 0.415978
0.781180 0.236118 0.508649
0.783008 0.237945 0.601320
0.784835 0.239773 0.693992
0.786663 0.241600 0.786663
0.788490 0.243428 0.879334
0.783280 0.329062 0.147374
0.785108 0.330889 0.240045
0.786935 0.332717 0.332717
0.788763 0.334544 0.425388
0.790591 0.336372 0.518059
0.792418 0.338199 0.610731
0.794246 0.340027 0.703402
0.796073 0.341855 0.796073
0.797901 0.343682 0.888745
0.792691 0.429316 0.156784
0.794518 0.431143 0.249456
0.796346 0.432971 0.342127
0.798173 0.434798 0.434798
0.800001 0.436626 0.527470
0.801829 0.438453 0.620141
0.803656 0.440281 0.712812
0.805484 0.442109 0.805484
0.807311 0.443936 0.898155
0.802101 0.529570 0.166195
0.803929 0.531397 0.258866
0.805756 0.533225 0.351537
0.807584 0.535052 0.444209
0.809411 0.536880 0.536880
0.811239 0.538708 0.629551
0.813066 0.540535 0.722223
0.814894 0.542363 0.814894
0.816722 0.544190 0.907565
0.811511 0.629824 0.175605
0.813339 0.631651 0.268276
0.815167 0.633479 0.360948
0.816994 0.635307 0.453619
0.818822 0.637134 0.546290
0.820649 0.638962 0.638962
0.822477 0.640789 0.731633
0.824304 0.642617 0.824304
0.826132 0.644444 0.916976
0.820922 0.730078 0.185015
0.822749 0.731906 0.277687
0.824577 0.733733 0.370358
0.826404 0.735561 0.463029
0.828232 0.737388 0.555701
0.830060 0.739216 0.648372
0.831887 0.741043 0.741043
0.833715 0.742871 0.833715
0.835542 0.744698 0.926386
0.830332 0.830332 0.194426
0.832160 0.832160 0.287097
0.833987 0.833987 0.379768
0.835815 0.835815 0.472440
0.837642 0.837642 0.565111
0.839470 0.839470 0.657782
0.841297 0.841297 0.750454
0.843125 0.843125 0.843125
0.844953 0.844953 0.935796
0.839742 0.930586 0.203836
0.841570 0.932414 0.296507
0.843398 0.934241 0.389179
0.845225 0.936069 0.481850
0.847053 0.937896 0.574521
0.848880 0.939724 0.667193
0.850708 0.941552 0.759864
0.852535 0.943379 0.852535
0.854363 0.945207 0.945207
0.860097 0.133347 0.133347
0.861924 0.135174 0.226018
0.863752 0.137002 0.318689
0.865579 0.138829 0.411361
0.867407 0.140657 0.504032
0.869235 0.142485 0.596703
0.871062 0.144312 0.689375
0.872890 0.146140 0.782046
0.874717 0.147967 0.874717
0.869507 0.233601 0.142757
0.871335 0.235428 0.235428
0.873162 0.237256 0.328100
0.874990 0.239084 0.420771
0.876817 0.240911 0.513442
0.878645 0.242739 0.606114
0.880472 0.244566 0.698785
0.882300 0.246394 0.791456
0.884128 0.248221 0.884128
0.878917 0.333855 0.152167
0.880745 0.335682 0.244839
0.882573 0.337510 0.337510
0.884400 0.339338 0.430181
0.886228 0.341165 0.522853
0.888055 0.342993 0.615524
0.889883 0.344820 0.708195
0.891710 0.346648 0.800867
0.893538 0.348475 0.893538
0.888328 0.434109 0.161578
0.890155 0.435937 0.254249
0.891983 0.437764 0.346920
0.893810 0.439592 0.439592
0.895638 0.441419 0.532263
0.897466 0.443247 0.624934
0.899293 0.445074 0.717606
0.901121 0.446902 0.810277
0.902948 0.448730 0.902948
0.897738 0.534363 0.170988
0.899566 0.536191 0.263659
0.901393 0.538018 0.356331
0.903221 0.539846 0.449002
0.905048 0.541673 0.541673
0.906876 0.543501 0.634345
0.908704 0.545328 0.727016
0.910531 0.547156 0.819687
0.912359 0.548984 0.912359
0.907148 0.634617 0.180398
0.908976 0.636445 0.273070
0.910804 0.638272 0.365741
0.912631 0.640100 0.458412
0.914459 0.641927 0.551084
0.916286 0.643755 0.643755
0.918114 0.645583 0.736426
0.919941 0.647410 0.829098
0.921769 0.649238 0.921769
0.916559 0.734871 0.189809
0.918386 0.736699 0.282480
0.920214 0.738526 0.375151
0.922042 0.740354 0.467823
0.923869 0.742182 0.560494
0.925697 0.744009 0.653165
0.927524 0.745837 0.745837
0.929352 0.747664 0.838508
0.931179 0.749492 0.931179
0.925969 0.835125 0.199219
0.927797 0.836953 0.291890
0.929624 0.838781 0.384562
0.931452 0.840608 0.477233
0.933279 0.842436 0.569904
0.935107 0.844263 0.662576
0.936935 0.846091 0.755247
0.938762 0.847918 0.847918
0.940590 0.849746 0.940590
0.935380 0.935380 0.208629
0.937207 0.937207 0.301301
0.939035 0.939035 0.393972
0.940862 0.940862 0.486643
0.942690 0.942690 0.579315
0.944517 0.944517 0.671986
0.946345 0.946345 0.764657
0.948172 0.948172 0.857329
0.950000 0.950000 0.950000
