utils/luts/soft.cube
TITLE "Soft Pastel"
LUT_3D_SIZE 5
0.095000 0.095000 0.095000
0.098655 0.098655 0.280343
0.102310 0.102310 0.465685
0.105965 0.105965 0.651028
0.109621 0.109621 0.836371
0.113821 0.295508 0.113821
0.117476 0.299163 0.299163
0.121131 0.302818 0.484506
0.124786 0.306474 0.669849
0.128441 0.310129 0.855191
0.132641 0.496016 0.132641
0.136296 0.499671 0.317984
0.139952 0.503327 0.503327
0.143607 0.506982 0.688669
0.147262 0.510637 0.874012
0.151462 0.696525 0.151462
0.155117 0.700180 0.336805
0.158772 0.703835 0.522147
0.162427 0.707490 0.707490
0.166083 0.711145 0.892833
0.170283 0.897033 0.170283
0.173938 0.900688 0.355625
0.177593 0.904343 0.540968
0.181248 0.907998 0.726311
0.184903 0.911653 0.911653
0.286274 0.104587 0.104587
0.289929 0.108242 0.289929
0.293584 0.111897 0.475272
0.297240 0.115552 0.660615
0.300895 0.119207 0.845957
0.305095 0.305095 0.123407
0.308750 0.308750 0.308750
0.312405 0.312405 0.494093
0.316060 0.316060 0.679435
0.319715 0.319715 0.864778
0.323916 0.505603 0.142228
0.327571 0.509258 0.327571
0.331226 0.512913 0.512913
0.334881 0.516568 0.698256
0.338536 0.520224 0.883599
0.342736 0.706111 0.161049
0.346391 0.709766 0.346391
0.350046 0.713422 0.531734
0.353702 0.717077 0.717077
0.357357 0.720732 0.902419
0.361557 0.906619 0.179869
0.365212 0.910275 0.365212
0.368867 0.913930 0.550555
0.372522 0.917585 0.735897
0.376177 0.921240 0.921240
0.477548 0.114173 0.114173
0.481203 0.117829 0.299516
0.484859 0.121484 0.484859
0.488514 0.125139 0.670201
0.492169 0.128794 0.855544
0.496369 0.314682 0.132994
0.500024 0.318337 0.318337
0.503679 0.321992 0.503679
0.507334 0.325647 0.689022
0.510990 0.329302 0.874365
0.515190 0.515190 0.151815
0.518845 0.518845 0.337157
0.522500 0.522500 0.522500
0.526155 0.526155 0.707843
0.529810 0.529810 0.893185
0.534010 0.715698 0.170635
0.537666 0.719353 0.355978
0.541321 0.723008 0.541321
0.544976 0.726663 0.726663
0.548631 0.730318 0.912006
0.552831 0.916206 0.189456
0.556486 0.919861 0.374799
0.560141 0.923516 0.560141
0.563797 0.927172 0.745484
0.567452 0.930827 0.930827
0.668823 0.123760 0.123760
0.672478 0.127415 0.309103
0.676133 0.131070 0.494445
0.679788 0.134725 0.679788
0.683443 0.138381 0.865131
0.687643 0.324268 0.142581
0.691298 0.327923 0.327923
0.694954 0.331578 0.513266
0.698609 0.335234 0.698609
0.702264 0.338889 0.883951
0.706464 0.524776 0.161401
0.710119 0.528432 0.346744
0.713774 0.532087 0.532087
0.717429 0.535742 0.717429
0.721084 0.539397 0.902772
0.725285 0.725285 0.180222
0.728940 0.728940 0.365565
0.732595 0.732595 0.550907
0.736250 0.736250 0.736250
0.739905 0.739905 0.921593
0.744105 0.925793 0.199043
0.747760 0.929448 0.384385
0.751416 0.933103 0.569728
0.755071 0.936758 0.755071
0.758726 0.940413 0.940413
0.860097 0.133347 0.133347
0.863752 0.137002 0.318689
0.867407 0.140657 0.504032
0.871062 0.144312 0.689375
0.874717 0.147967 0.874717
0.878917 0.333855 0.152167
0.882573 0.337510 0.337510
0.886228 0.341165 0.522853
0.889883 0.344820 0.708195
0.893538 0.348475 0.893538
0.897738 0.534363 0.170988
0.901393 0.538018 0.356331
0.905048 0.541673 0.541673
0.908704 0.545328 0.727016
0.912359 0.548984 0.912359
0.916559 0.734871 0.189809
0.920214 0.738526 0.375151
0.923869 0.742182 0.560494
0.927524 0.745837 0.745837
0.931179 0.749492 0.931179
0.935380 0.935380 0.208629
0.939035 0.939035 0.393972
0.942690 0.942690 0.579315
0.946345 0.946345 0.764657
0.950000 0.950000 0.950000
