utils/luts/vintage.cube
TITLE "Vintage Faded"
LUT_3D_SIZE 9
0.096856 0.095752 0.093544
0.100029 0.098864 0.175175
0.103203 0.101975 0.256806
0.106376 0.105087 0.338438
0.109549 0.108199 0.420069
0.112722 0.111310 0.501700
0.115896 0.114422 0.583331
0.119069 0.117534 0.664962
0.122242 0.120645 0.746593
0.113196 0.193660 0.108932
0.116369 0.196772 0.190563
0.119542 0.199883 0.272194
0.122715 0.202995 0.353825
0.125889 0.206107 0.435456
0.129062 0.209218 0.517088
0.132235 0.212330 0.598719
0.135409 0.215442 0.680350
0.138582 0.218553 0.761981
0.129535 0.291568 0.124320
0.132708 0.294680 0.205951
0.135882 0.297791 0.287582
0.139055 0.300903 0.369213
0.142228 0.304015 0.450844
0.145402 0.307126 0.532475
0.148575 0.310238 0.614107
0.151748 0.313350 0.695738
0.154921 0.316461 0.777369
0.145875 0.389476 0.139707
0.149048 0.392588 0.221338
0.152221 0.395700 0.302970
0.155395 0.398811 0.384601
0.158568 0.401923 0.466232
0.161741 0.405034 0.547863
0.164914 0.408146 0.629494
0.168088 0.411258 0.711126
0.171261 0.414369 0.792757
0.162214 0.487384 0.155095
0.165388 0.490496 0.236726
0.168561 0.493608 0.318357
0.171734 0.496719 0.399989
0.174907 0.499831 0.481620
0.178081 0.502943 0.563251
0.181254 0.506054 0.644882
0.184427 0.509166 0.726513
0.187601 0.512278 0.808144
0.178554 0.585292 0.170483
0.181727 0.588404 0.252114
0.184900 0.591516 0.333745
0.188074 0.594627 0.415376
0.191247 0.597739 0.497008
0.194420 0.600851 0.578639
0.197594 0.603962 0.660270
0.200767 0.607074 0.741901
0.203940 0.610186 0.823532
0.194894 0.683200 0.185871
0.198067 0.686312 0.267502
0.201240 0.689424 0.349133
0.204413 0.692535 0.430764
0.207587 0.695647 0.512395
0.210760 0.698759 0.594026
0.213933 0.701870 0.675658
0.217106 0.704982 0.757289
0.220280 0.708094 0.838920
0.211233 0.781108 0.201258
0.214406 0.784220 0.282890
0.217580 0.787332 0.364521
0.220753 0.790443 0.446152
0.223926 0.793555 0.527783
0.227099 0.796667 0.609414
0.230273 0.799778 0.691045
0.233446 0.802890 0.772677
0.236619 0.806002 0.854308
0.227573 0.879016 0.216646
0.230746 0.882128 0.298277
0.233919 0.885240 0.379908
0.237093 0.888351 0.461540
0.240266 0.891463 0.543171
0.243439 0.894575 0.624802
0.246612 0.897686 0.706433
0.249786 0.900798 0.788064
0.252959 0.903910 0.869696
0.188686 0.103913 0.101382
0.191859 0.107025 0.183013
0.195033 0.110137 0.264644
0.198206 0.113248 0.346276
0.201379 0.116360 0.427907
0.204553 0.119472 0.509538
0.207726 0.122583 0.591169
0.210899 0.125695 0.672800
0.214072 0.128807 0.754431
0.205026 0.201821 0.116770
0.208199 0.204933 0.198401
0.211372 0.208045 0.280032
0.214546 0.211156 0.361663
0.217719 0.214268 0.443295
0.220892 0.217380 0.524926
0.224065 0.220491 0.606557
0.227239 0.223603 0.688188
0.230412 0.226715 0.769819
0.221365 0.299729 0.132158
0.224539 0.302841 0.213789
0.227712 0.305953 0.295420
0.230885 0.309064 0.377051
0.234058 0.312176 0.458682
0.237232 0.315288 0.540313
0.240405 0.318399 0.621945
0.243578 0.321511 0.703576
0.246752 0.324623 0.785207
0.237705 0.397637 0.147545
0.240878 0.400749 0.229177
0.244051 0.403861 0.310808
0.247225 0.406972 0.392439
0.250398 0.410084 0.474070
0.253571 0.413196 0.555701
0.256745 0.416307 0.637332
0.259918 0.419419 0.718964
0.263091 0.422531 0.800595
0.254044 0.495546 0.162933
0.257218 0.498657 0.244564
0.260391 0.501769 0.326195
0.263564 0.504881 0.407827
0.266738 0.507992 0.489458
0.269911 0.511104 0.571089
0.273084 0.514215 0.652720
0.276257 0.517327 0.734351
0.279431 0.520439 0.815983
0.270384 0.593454 0.178321
0.273557 0.596565 0.259952
0.276731 0.599677 0.341583
0.279904 0.602789 0.423214
0.283077 0.605900 0.504846
0.286250 0.609012 0.586477
0.289424 0.612124 0.668108
0.292597 0.615235 0.749739
0.295770 0.618347 0.831370
0.286724 0.691362 0.193709
0.289897 0.694473 0.275340
0.293070 0.697585 0.356971
0.296243 0.700697 0.438602
0.299417 0.703808 0.520233
0.302590 0.706920 0.601865
0.305763 0.710032 0.683496
0.308937 0.713143 0.765127
0.312110 0.716255 0.846758
0.303063 0.789270 0.209096
0.306237 0.792381 0.290728
0.309410 0.795493 0.372359
0.312583 0.798605 0.453990
0.315756 0.801716 0.535621
0.318930 0.804828 0.617252
0.322103 0.807940 0.698883
0.325276 0.811051 0.780515
0.328449 0.814163 0.862146
0.319403 0.887178 0.224484
0.322576 0.890289 0.306115
0.325749 0.893401 0.387747
0.328923 0.896513 0.469378
0.332096 0.899624 0.551009
0.335269 0.902736 0.632640
0.338442 0.905848 0.714271
0.341616 0.908959 0.795902
0.344789 0.912071 0.877534
0.280516 0.112075 0.109220
0.283690 0.115186 0.190851
0.286863 0.118298 0.272482
0.290036 0.121410 0.354114
0.293209 0.124521 0.435745
0.296383 0.127633 0.517376
0.299556 0.130745 0.599007
0.302729 0.133856 0.680638
0.305902 0.136968 0.762270
0.296856 0.209983 0.124608
0.300029 0.213094 0.206239
0.303202 0.216206 0.287870
0.306376 0.219318 0.369501
0.309549 0.222429 0.451133
0.312722 0.225541 0.532764
0.315896 0.228653 0.614395
0.319069 0.231764 0.696026
0.322242 0.234876 0.777657
0.313195 0.307891 0.139996
0.316369 0.311002 0.221627
0.319542 0.314114 0.303258
0.322715 0.317226 0.384889
0.325889 0.320337 0.466520
0.329062 0.323449 0.548152
0.332235 0.326561 0.629783
0.335408 0.329672 0.711414
0.338582 0.332784 0.793045
0.329535 0.405799 0.155383
0.332708 0.408910 0.237015
0.335882 0.412022 0.318646
0.339055 0.415134 0.400277
0.342228 0.418245 0.481908
0.345401 0.421357 0.563539
0.348575 0.424469 0.645170
0.351748 0.427580 0.726802
0.354921 0.430692 0.808433
0.345875 0.503707 0.170771
0.349048 0.506818 0.252402
0.352221 0.509930 0.334034
0.355394 0.513042 0.415665
0.358568 0.516153 0.497296
0.361741 0.519265 0.578927
0.364914 0.522377 0.660558
0.368088 0.525488 0.742189
0.371261 0.528600 0.823821
0.362214 0.601615 0.186159
0.365387 0.604727 0.267790
0.368561 0.607838 0.349421
0.371734 0.610950 0.431052
0.374907 0.614062 0.512684
0.378081 0.617173 0.594315
0.381254 0.620285 0.675946
0.384427 0.623396 0.757577
0.387600 0.626508 0.839208
0.378554 0.699523 0.201547
0.381727 0.702635 0.283178
0.384900 0.705746 0.364809
0.388074 0.708858 0.446440
0.391247 0.711970 0.528071
0.394420 0.715081 0.609703
0.397593 0.718193 0.691334
0.400767 0.721305 0.772965
0.403940 0.724416 0.854596
0.394893 0.797431 0.216934
0.398067 0.800543 0.298566
0.401240 0.803654 0.380197
0.404413 0.806766 0.461828
0.407586 0.809878 0.543459
0.410760 0.812989 0.625090
0.413933 0.816101 0.706722
0.417106 0.819213 0.788353
0.420280 0.822324 0.869984
0.411233 0.895339 0.232322
0.414406 0.898451 0.313953
0.417580 0.901562 0.395585
0.420753 0.904674 0.477216
0.423926 0.907786 0.558847
0.427099 0.910897 0.640478
0.430273 0.914009 0.722109
0.433446 0.917121 0.803740
0.436619 0.920232 0.885372
0.372346 0.120236 0.117058
0.375520 0.123347 0.198689
0.378693 0.126459 0.280321
0.381866 0.129571 0.361952
0.385040 0.132682 0.443583
0.388213 0.135794 0.525214
0.391386 0.138906 0.606845
0.394559 0.142017 0.688476
0.397733 0.145129 0.770108
0.388686 0.218144 0.132446
0.391859 0.221256 0.214077
0.395033 0.224367 0.295708
0.398206 0.227479 0.377339
0.401379 0.230591 0.458971
0.404552 0.233702 0.540602
0.407726 0.236814 0.622233
0.410899 0.239926 0.703864
0.414072 0.243037 0.785495
0.405026 0.316052 0.147834
0.408199 0.319164 0.229465
0.411372 0.322275 0.311096
0.414545 0.325387 0.392727
0.417719 0.328499 0.474358
0.420892 0.331610 0.555990
0.424065 0.334722 0.637621
0.427239 0.337834 0.719252
0.430412 0.340945 0.800883
0.421365 0.413960 0.163221
0.424538 0.417072 0.244853
0.427712 0.420183 0.326484
0.430885 0.423295 0.408115
0.434058 0.426407 0.489746
0.437232 0.429518 0.571377
0.440405 0.432630 0.653009
0.443578 0.435742 0.734640
0.446751 0.438853 0.816271
0.437705 0.511868 0.178609
0.440878 0.514980 0.260240
0.444051 0.518091 0.341872
0.447225 0.521203 0.423503
0.450398 0.524315 0.505134
0.453571 0.527426 0.586765
0.456744 0.530538 0.668396
0.459918 0.533650 0.750027
0.463091 0.536761 0.831659
0.454044 0.609776 0.193997
0.457218 0.612888 0.275628
0.460391 0.615999 0.357259
0.463564 0.619111 0.438891
0.466737 0.622223 0.520522
0.469911 0.625334 0.602153
0.473084 0.628446 0.683784
0.476257 0.631558 0.765415
0.479431 0.634669 0.847046
0.470384 0.707684 0.209385
0.473557 0.710796 0.291016
0.476730 0.713908 0.372647
0.479904 0.717019 0.454278
0.483077 0.720131 0.535909
0.486250 0.723243 0.617541
0.489424 0.726354 0.699172
0.492597 0.729466 0.780803
0.495770 0.732577 0.862434
0.486724 0.805592 0.224773
0.489897 0.808704 0.306404
0.493070 0.811816 0.388035
0.496243 0.814927 0.469666
0.499417 0.818039 0.551297
0.502590 0.821151 0.632928
0.505763 0.824262 0.714560
0.508936 0.827374 0.796191
0.512110 0.830486 0.877822
0.503063 0.903500 0.240160
0.506236 0.906612 0.321791
0.509410 0.909724 0.403423
0.512583 0.912835 0.485054
0.515756 0.915947 0.566685
0.518929 0.919059 0.648316
0.522103 0.922170 0.729947
0.525276 0.925282 0.811579
0.528449 0.928394 0.893210
0.464177 0.128397 0.124896
0.467350 0.131509 0.206527
0.470523 0.134620 0.288159
0.473696 0.137732 0.369790
0.476870 0.140844 0.451421
0.480043 0.143955 0.533052
0.483216 0.147067 0.614683
0.486389 0.150179 0.696314
0.489563 0.153290 0.777946
0.480516 0.226305 0.140284
0.483689 0.229417 0.221915
0.486863 0.232528 0.303546
0.490036 0.235640 0.385178
0.493209 0.238752 0.466809
0.496383 0.241863 0.548440
0.499556 0.244975 0.630071
0.502729 0.248087 0.711702
0.505902 0.251198 0.793333
0.496856 0.324213 0.155672
0.500029 0.327325 0.237303
0.503202 0.330437 0.318934
0.506376 0.333548 0.400565
0.509549 0.336660 0.482196
0.512722 0.339772 0.563828
0.515895 0.342883 0.645459
0.519069 0.345995 0.727090
0.522242 0.349107 0.808721
0.513195 0.422121 0.171060
0.516369 0.425233 0.252691
0.519542 0.428345 0.334322
0.522715 0.431456 0.415953
0.525888 0.434568 0.497584
0.529062 0.437680 0.579215
0.532235 0.440791 0.660847
0.535408 0.443903 0.742478
0.538582 0.447015 0.824109
0.529535 0.520029 0.186447
0.532708 0.523141 0.268078
0.535881 0.526253 0.349710
0.539055 0.529364 0.431341
0.542228 0.532476 0.512972
0.545401 0.535588 0.594603
0.548575 0.538699 0.676234
0.551748 0.541811 0.757866
0.554921 0.544923 0.839497
0.545874 0.617937 0.201835
0.549048 0.621049 0.283466
0.552221 0.624161 0.365097
0.555394 0.627272 0.446729
0.558568 0.630384 0.528360
0.561741 0.633496 0.609991
0.564914 0.636607 0.691622
0.568087 0.639719 0.773253
0.571261 0.642831 0.854884
0.562214 0.715845 0.217223
0.565387 0.718957 0.298854
0.568561 0.722069 0.380485
0.571734 0.725180 0.462116
0.574907 0.728292 0.543748
0.578080 0.731404 0.625379
0.581254 0.734515 0.707010
0.584427 0.737627 0.788641
0.587600 0.740739 0.870272
0.578554 0.813754 0.232611
0.581727 0.816865 0.314242
0.584900 0.819977 0.395873
0.588073 0.823089 0.477504
0.591247 0.826200 0.559135
0.594420 0.829312 0.640766
0.597593 0.832424 0.722398
0.600767 0.835535 0.804029
0.603940 0.838647 0.885660
0.594893 0.911662 0.247998
0.598067 0.914773 0.329630
0.601240 0.917885 0.411261
0.604413 0.920997 0.492892
0.607586 0.924108 0.574523
0.610760 0.927220 0.656154
0.613933 0.930332 0.737785
0.617106 0.933443 0.819417
0.620279 0.936555 0.901048
0.556007 0.136558 0.132734
0.559180 0.139670 0.214365
0.562353 0.142782 0.295997
0.565527 0.145893 0.377628
0.568700 0.149005 0.459259
0.571873 0.152117 0.540890
0.575046 0.155228 0.622521
0.578220 0.158340 0.704153
0.581393 0.161452 0.785784
0.572346 0.234466 0.148122
0.575520 0.237578 0.229753
0.578693 0.240690 0.311384
0.581866 0.243801 0.393016
0.585039 0.246913 0.474647
0.588213 0.250025 0.556278
0.591386 0.253136 0.637909
0.594559 0.256248 0.719540
0.597732 0.259360 0.801171
0.588686 0.332375 0.163510
0.591859 0.335486 0.245141
0.595032 0.338598 0.326772
0.598206 0.341709 0.408403
0.601379 0.344821 0.490035
0.604552 0.347933 0.571666
0.607726 0.351044 0.653297
0.610899 0.354156 0.734928
0.614072 0.357268 0.816559
0.605025 0.430283 0.178898
0.608199 0.433394 0.260529
0.611372 0.436506 0.342160
0.614545 0.439618 0.423791
0.617719 0.442729 0.505422
0.620892 0.445841 0.587053
0.624065 0.448953 0.668685
0.627238 0.452064 0.750316
0.630412 0.455176 0.831947
0.621365 0.528191 0.194285
0.624538 0.531302 0.275917
0.627712 0.534414 0.357548
0.630885 0.537526 0.439179
0.634058 0.540637 0.520810
0.637231 0.543749 0.602441
0.640405 0.546861 0.684072
0.643578 0.549972 0.765704
0.646751 0.553084 0.847335
0.637705 0.626099 0.209673
0.640878 0.629210 0.291304
0.644051 0.632322 0.372935
0.647224 0.635434 0.454567
0.650398 0.638545 0.536198
0.653571 0.641657 0.617829
0.656744 0.644769 0.699460
0.659918 0.647880 0.781091
0.663091 0.650992 0.862723
0.654044 0.724007 0.225061
0.657217 0.727118 0.306692
0.660391 0.730230 0.388323
0.663564 0.733342 0.469954
0.666737 0.736453 0.551586
0.669911 0.739565 0.633217
0.673084 0.742677 0.714848
0.676257 0.745788 0.796479
0.679430 0.748900 0.878110
0.670384 0.821915 0.240449
0.673557 0.825026 0.322080
0.676730 0.828138 0.403711
0.679904 0.831250 0.485342
0.683077 0.834361 0.566973
0.686250 0.837473 0.648605
0.689423 0.840585 0.730236
0.692597 0.843696 0.811867
0.695770 0.846808 0.893498
0.686723 0.919823 0.255836
0.689897 0.922935 0.337468
0.693070 0.926046 0.419099
0.696243 0.929158 0.500730
0.699416 0.932270 0.582361
0.702590 0.935381 0.663992
0.705763 0.938493 0.745623
0.708936 0.941605 0.827255
0.712110 0.944716 0.908886
0.647837 0.144720 0.140572
0.651010 0.147831 0.222204
0.654183 0.150943 0.303835
0.657357 0.154055 0.385466
0.660530 0.157166 0.467097
0.663703 0.160278 0.548728
0.666876 0.163390 0.630359
0.670050 0.166501 0.711991
0.673223 0.169613 0.793622
0.664176 0.242628 0.155960
0.667350 0.245739 0.237591
0.670523 0.248851 0.319222
0.673696 0.251963 0.400854
0.676870 0.255074 0.482485
0.680043 0.258186 0.564116
0.683216 0.261298 0.645747
0.686389 0.264409 0.727378
0.689563 0.267521 0.809010
0.680516 0.340536 0.171348
0.683689 0.343647 0.252979
0.686863 0.346759 0.334610
0.690036 0.349871 0.416241
0.693209 0.352982 0.497873
0.696382 0.356094 0.579504
0.699556 0.359206 0.661135
0.702729 0.362317 0.742766
0.705902 0.365429 0.824397
0.696856 0.438444 0.186736
0.700029 0.441556 0.268367
0.703202 0.444667 0.349998
0.706375 0.447779 0.431629
0.709549 0.450890 0.513260
0.712722 0.454002 0.594892
0.715895 0.457114 0.676523
0.719069 0.460225 0.758154
0.722242 0.463337 0.839785
0.713195 0.536352 0.202123
0.716368 0.539464 0.283755
0.719542 0.542575 0.365386
0.722715 0.545687 0.447017
0.725888 0.548799 0.528648
0.729062 0.551910 0.610279
0.732235 0.555022 0.691910
0.735408 0.558134 0.773542
0.738581 0.561245 0.855173
0.729535 0.634260 0.217511
0.732708 0.637372 0.299142
0.735881 0.640483 0.380774
0.739055 0.643595 0.462405
0.742228 0.646707 0.544036
0.745401 0.649818 0.625667
0.748574 0.652930 0.707298
0.751748 0.656042 0.788929
0.754921 0.659153 0.870561
0.745874 0.732168 0.232899
0.749048 0.735280 0.314530
0.752221 0.738391 0.396161
0.755394 0.741503 0.477792
0.758567 0.744615 0.559424
0.761741 0.747726 0.641055
0.764914 0.750838 0.722686
0.768087 0.753950 0.804317
0.771261 0.757061 0.885948
0.762214 0.830076 0.248287
0.765387 0.833188 0.329918
0.768560 0.836299 0.411549
0.771734 0.839411 0.493180
0.774907 0.842523 0.574811
0.778080 0.845634 0.656443
0.781254 0.848746 0.738074
0.784427 0.851858 0.819705
0.787600 0.854969 0.901336
0.778554 0.927984 0.263674
0.781727 0.931096 0.345306
0.784900 0.934207 0.426937
0.788073 0.937319 0.508568
0.791247 0.940431 0.590199
0.794420 0.943542 0.671830
0.797593 0.946654 0.753462
0.800766 0.949766 0.835093
0.803940 0.952877 0.916724
0.739667 0.152881 0.148410
0.742840 0.155993 0.230042
0.746014 0.159104 0.311673
0.749187 0.162216 0.393304
0.752360 0.165328 0.474935
0.755533 0.168439 0.556566
0.758707 0.171551 0.638197
0.761880 0.174663 0.719829
0.765053 0.177774 0.801460
0.756007 0.250789 0.163798
0.759180 0.253901 0.245429
0.762353 0.257012 0.327061
0.765526 0.260124 0.408692
0.768700 0.263236 0.490323
0.771873 0.266347 0.571954
0.775046 0.269459 0.653585
0.778219 0.272571 0.735216
0.781393 0.275682 0.816848
0.772346 0.348697 0.179186
0.775519 0.351809 0.260817
0.778693 0.354920 0.342448
0.781866 0.358032 0.424079
0.785039 0.361144 0.505711
0.788213 0.364255 0.587342
0.791386 0.367367 0.668973
0.794559 0.370479 0.750604
0.797732 0.373590 0.832235
0.788686 0.446605 0.194574
0.791859 0.449717 0.276205
0.795032 0.452828 0.357836
0.798206 0.455940 0.439467
0.801379 0.459052 0.521098
0.804552 0.462163 0.602730
0.807725 0.465275 0.684361
0.810899 0.468387 0.765992
0.814072 0.471498 0.847623
0.805025 0.544513 0.209961
0.808199 0.547625 0.291593
0.811372 0.550737 0.373224
0.814545 0.553848 0.454855
0.817718 0.556960 0.536486
0.820892 0.560071 0.618117
0.824065 0.563183 0.699749
0.827238 0.566295 0.781380
0.830412 0.569406 0.863011
0.821365 0.642421 0.225349
0.824538 0.645533 0.306980
0.827711 0.648645 0.388612
0.830885 0.651756 0.470243
0.834058 0.654868 0.551874
0.837231 0.657980 0.633505
0.840405 0.661091 0.715136
0.843578 0.664203 0.796767
0.846751 0.667315 0.878399
0.837704 0.740329 0.240737
0.840878 0.743441 0.322368
0.844051 0.746553 0.403999
0.847224 0.749664 0.485631
0.850398 0.752776 0.567262
0.853571 0.755888 0.648893
0.856744 0.758999 0.730524
0.859917 0.762111 0.812155
0.863091 0.765223 0.893786
0.854044 0.838237 0.256125
0.857217 0.841349 0.337756
0.860391 0.844461 0.419387
0.863564 0.847572 0.501018
0.866737 0.850684 0.582649
0.869910 0.853796 0.664281
0.873084 0.856907 0.745912
0.876257 0.860019 0.827543
0.879430 0.863131 0.909174
0.870384 0.936145 0.271513
0.873557 0.939257 0.353144
0.876730 0.942369 0.434775
0.879903 0.945480 0.516406
0.883077 0.948592 0.598037
0.886250 0.951704 0.679668
0.889423 0.954815 0.761300
0.892597 0.957927 0.842931
0.895770 0.961039 0.924562
0.831497 0.161042 0.156248
0.834670 0.164154 0.237880
0.837844 0.167266 0.319511
0.841017 0.170377 0.401142
0.844190 0.173489 0.482773
0.847363 0.176601 0.564404
0.850537 0.179712 0.646036
0.853710 0.182824 0.727667
0.856883 0.185936 0.809298
0.847837 0.258950 0.171636
0.851010 0.262062 0.253267
0.854183 0.265174 0.334899
0.857357 0.268285 0.416530
0.860530 0.271397 0.498161
0.863703 0.274509 0.579792
0.866876 0.277620 0.661423
0.870050 0.280732 0.743054
0.873223 0.283844 0.824686
0.864176 0.356858 0.187024
0.867350 0.359970 0.268655
0.870523 0.363082 0.350286
0.873696 0.366193 0.431918
0.876869 0.369305 0.513549
0.880043 0.372417 0.595180
0.883216 0.375528 0.676811
0.886389 0.378640 0.758442
0.889562 0.381752 0.840073
0.880516 0.454766 0.202412
0.883689 0.457878 0.284043
0.886862 0.460990 0.365674
0.890036 0.464101 0.447305
0.893209 0.467213 0.528936
0.896382 0.470325 0.610568
0.899556 0.473436 0.692199
0.902729 0.476548 0.773830
0.905902 0.479660 0.855461
0.896855 0.552674 0.217800
0.900029 0.555786 0.299431
0.903202 0.558898 0.381062
0.906375 0.562009 0.462693
0.909549 0.565121 0.544324
0.912722 0.568233 0.625955
0.915895 0.571344 0.707587
0.919068 0.574456 0.789218
0.922242 0.577568 0.870849
0.913195 0.650583 0.233187
0.916368 0.653694 0.314818
0.919542 0.656806 0.396450
0.922715 0.659918 0.478081
0.925888 0.663029 0.559712
0.929061 0.666141 0.641343
0.932235 0.669252 0.722974
0.935408 0.672364 0.804606
0.938581 0.675476 0.886237
0.929535 0.748491 0.248575
0.932708 0.751602 0.330206
0.935881 0.754714 0.411837
0.939054 0.757826 0.493469
0.942228 0.760937 0.575100
0.945401 0.764049 0.656731
0.948574 0.767161 0.738362
0.951748 0.770272 0.819993
0.954921 0.773384 0.901624
0.945874 0.846399 0.263963
0.949047 0.849510 0.345594
0.952221 0.852622 0.427225
0.955394 0.855734 0.508856
0.958567 0.858845 0.590488
0.961741 0.861957 0.672119
0.964914 0.865069 0.753750
0.968087 0.868180 0.835381
0.971260 0.871292 0.917012
0.962214 0.944307 0.279351
0.965387 0.947418 0.360982
0.968560 0.950530 0.442613
0.971734 0.953642 0.524244
0.974907 0.956753 0.605875
0.978080 0.959865 0.687506
0.981253 0.962977 0.769138
0.984427 0.966088 0.850769
0.987600 0.969200 0.932400
