utils/luts/vintage.cube
TITLE "Vintage Faded"
LUT_3D_SIZE 33
0.096856 0.095752 0.093544
0.097649 0.096530 0.113952
0.098443 0.097308 0.134360
0.099236 0.098086 0.154767
0.100029 0.098864 0.175175
0.100823 0.099642 0.195583
0.101616 0.100419 0.215991
0.102409 0.101197 0.236399
0.103203 0.101975 0.256806
0.103996 0.102753 0.277214
0.104789 0.103531 0.297622
0.105583 0.104309 0.318030
0.106376 0.105087 0.338438
0.107169 0.105865 0.358845
0.107962 0.106643 0.379253
0.108756 0.107421 0.399661
0.109549 0.108199 0.420069
0.110342 0.108977 0.440476
0.111136 0.109754 0.460884
0.111929 0.110532 0.481292
0.112722 0.111310 0.501700
0.113516 0.112088 0.522108
0.114309 0.112866 0.542515
0.115102 0.113644 0.562923
0.115896 0.114422 0.583331
0.116689 0.115200 0.603739
0.117482 0.115978 0.624147
0.118276 0.116756 0.644554
0.119069 0.117534 0.664962
0.119862 0.118312 0.685370
0.120656 0.119089 0.705778
0.121449 0.119867 0.726186
0.122242 0.120645 0.746593
0.100941 0.120229 0.097391
0.101734 0.121007 0.117799
0.102528 0.121785 0.138207
0.103321 0.122563 0.158614
0.104114 0.123341 0.179022
0.104907 0.124119 0.199430
0.105701 0.124897 0.219838
0.106494 0.125674 0.240245
0.107287 0.126452 0.260653
0.108081 0.127230 0.281061
0.108874 0.128008 0.301469
0.109667 0.128786 0.321877
0.110461 0.129564 0.342284
0.111254 0.130342 0.362692
0.112047 0.131120 0.383100
0.112841 0.131898 0.403508
0.113634 0.132676 0.423916
0.114427 0.133454 0.444323
0.115221 0.134231 0.464731
0.116014 0.135009 0.485139
0.116807 0.135787 0.505547
0.117601 0.136565 0.525955
0.118394 0.137343 0.546362
0.119187 0.138121 0.566770
0.119981 0.138899 0.587178
0.120774 0.139677 0.607586
0.121567 0.140455 0.627994
0.122361 0.141233 0.648401
0.123154 0.142011 0.668809
0.123947 0.142789 0.689217
0.124740 0.143566 0.709625
0.125534 0.144344 0.730033
0.126327 0.145122 0.750440
0.105026 0.144706 0.101238
0.105819 0.145484 0.121646
0.106612 0.146262 0.142053
0.107406 0.147040 0.162461
0.108199 0.147818 0.182869
0.108992 0.148596 0.203277
0.109786 0.149374 0.223685
0.110579 0.150151 0.244092
0.111372 0.150929 0.264500
0.112166 0.151707 0.284908
0.112959 0.152485 0.305316
0.113752 0.153263 0.325724
0.114546 0.154041 0.346131
0.115339 0.154819 0.366539
0.116132 0.155597 0.386947
0.116926 0.156375 0.407355
0.117719 0.157153 0.427763
0.118512 0.157931 0.448170
0.119306 0.158708 0.468578
0.120099 0.159486 0.488986
0.120892 0.160264 0.509394
0.121685 0.161042 0.529802
0.122479 0.161820 0.550209
0.123272 0.162598 0.570617
0.124065 0.163376 0.591025
0.124859 0.164154 0.611433
0.125652 0.164932 0.631841
0.126445 0.165710 0.652248
0.127239 0.166488 0.672656
0.128032 0.167266 0.693064
0.128825 0.168043 0.713472
0.129619 0.168821 0.733879
0.130412 0.169599 0.754287
0.109111 0.169183 0.105085
0.109904 0.169961 0.125493
0.110697 0.170739 0.145900
0.111491 0.171517 0.166308
0.112284 0.172295 0.186716
0.113077 0.173073 0.207124
0.113871 0.173851 0.227532
0.114664 0.174628 0.247939
0.115457 0.175406 0.268347
0.116251 0.176184 0.288755
0.117044 0.176962 0.309163
0.117837 0.177740 0.329571
0.118631 0.178518 0.349978
0.119424 0.179296 0.370386
0.120217 0.180074 0.390794
0.121010 0.180852 0.411202
0.121804 0.181630 0.431610
0.122597 0.182408 0.452017
0.123390 0.183186 0.472425
0.124184 0.183963 0.492833
0.124977 0.184741 0.513241
0.125770 0.185519 0.533648
0.126564 0.186297 0.554056
0.127357 0.187075 0.574464
0.128150 0.187853 0.594872
0.128944 0.188631 0.615280
0.129737 0.189409 0.635687
0.130530 0.190187 0.656095
0.131324 0.190965 0.676503
0.132117 0.191743 0.696911
0.132910 0.192520 0.717319
0.133704 0.193298 0.737726
0.134497 0.194076 0.758134
0.113196 0.193660 0.108932
0.113989 0.194438 0.129340
0.114782 0.195216 0.149747
0.115576 0.195994 0.170155
0.116369 0.196772 0.190563
0.117162 0.197550 0.210971
0.117955 0.198328 0.231379
0.118749 0.199105 0.251786
0.119542 0.199883 0.272194
0.120335 0.200661 0.292602
0.121129 0.201439 0.313010
0.121922 0.202217 0.333417
0.122715 0.202995 0.353825
0.123509 0.203773 0.374233
0.124302 0.204551 0.394641
0.125095 0.205329 0.415049
0.125889 0.206107 0.435456
0.126682 0.206885 0.455864
0.127475 0.207663 0.476272
0.128269 0.208440 0.496680
0.129062 0.209218 0.517088
0.129855 0.209996 0.537495
0.130649 0.210774 0.557903
0.131442 0.211552 0.578311
0.132235 0.212330 0.598719
0.133029 0.213108 0.619127
0.133822 0.213886 0.639534
0.134615 0.214664 0.659942
0.135409 0.215442 0.680350
0.136202 0.216220 0.700758
0.136995 0.216998 0.721166
0.137788 0.217775 0.741573
0.138582 0.218553 0.761981
0.117280 0.218137 0.112779
0.118074 0.218915 0.133186
0.118867 0.219693 0.153594
0.119660 0.220471 0.174002
0.120454 0.221249 0.194410
0.121247 0.222027 0.214818
0.122040 0.222805 0.235225
0.122834 0.223582 0.255633
0.123627 0.224360 0.276041
0.124420 0.225138 0.296449
0.125214 0.225916 0.316857
0.126007 0.226694 0.337264
0.126800 0.227472 0.357672
0.127594 0.228250 0.378080
0.128387 0.229028 0.398488
0.129180 0.229806 0.418896
0.129974 0.230584 0.439303
0.130767 0.231362 0.459711
0.131560 0.232140 0.480119
0.132354 0.232917 0.500527
0.133147 0.233695 0.520935
0.133940 0.234473 0.541342
0.134733 0.235251 0.561750
0.135527 0.236029 0.582158
0.136320 0.236807 0.602566
0.137113 0.237585 0.622974
0.137907 0.238363 0.643381
0.138700 0.239141 0.663789
0.139493 0.239919 0.684197
0.140287 0.240697 0.704605
0.141080 0.241475 0.725013
0.141873 0.242252 0.745420
0.142667 0.243030 0.765828
0.121365 0.242614 0.116626
0.122159 0.243392 0.137033
0.122952 0.244170 0.157441
0.123745 0.244948 0.177849
0.124539 0.245726 0.198257
0.125332 0.246504 0.218665
0.126125 0.247282 0.239072
0.126919 0.248059 0.259480
0.127712 0.248837 0.279888
0.128505 0.249615 0.300296
0.129299 0.250393 0.320704
0.130092 0.251171 0.341111
0.130885 0.251949 0.361519
0.131679 0.252727 0.381927
0.132472 0.253505 0.402335
0.133265 0.254283 0.422743
0.134058 0.255061 0.443150
0.134852 0.255839 0.463558
0.135645 0.256617 0.483966
0.136438 0.257394 0.504374
0.137232 0.258172 0.524782
0.138025 0.258950 0.545189
0.138818 0.259728 0.565597
0.139612 0.260506 0.586005
0.140405 0.261284 0.606413
0.141198 0.262062 0.626820
0.141992 0.262840 0.647228
0.142785 0.263618 0.667636
0.143578 0.264396 0.688044
0.144372 0.265174 0.708452
0.145165 0.265952 0.728859
0.145958 0.266729 0.749267
0.146752 0.267507 0.769675
0.125450 0.267091 0.120473
0.126244 0.267869 0.140880
0.127037 0.268647 0.161288
0.127830 0.269425 0.181696
0.128624 0.270203 0.202104
0.129417 0.270981 0.222512
0.130210 0.271759 0.242919
0.131004 0.272537 0.263327
0.131797 0.273314 0.283735
0.132590 0.274092 0.304143
0.133383 0.274870 0.324551
0.134177 0.275648 0.344958
0.134970 0.276426 0.365366
0.135763 0.277204 0.385774
0.136557 0.277982 0.406182
0.137350 0.278760 0.426589
0.138143 0.279538 0.446997
0.138937 0.280316 0.467405
0.139730 0.281094 0.487813
0.140523 0.281871 0.508221
0.141317 0.282649 0.528628
0.142110 0.283427 0.549036
0.142903 0.284205 0.569444
0.143697 0.284983 0.589852
0.144490 0.285761 0.610260
0.145283 0.286539 0.630667
0.146077 0.287317 0.651075
0.146870 0.288095 0.671483
0.147663 0.288873 0.691891
0.148457 0.289651 0.712299
0.149250 0.290429 0.732706
0.150043 0.291206 0.753114
0.150836 0.291984 0.773522
0.129535 0.291568 0.124320
0.130328 0.292346 0.144727
0.131122 0.293124 0.165135
0.131915 0.293902 0.185543
0.132708 0.294680 0.205951
0.133502 0.295458 0.226358
0.134295 0.296236 0.246766
0.135088 0.297014 0.267174
0.135882 0.297791 0.287582
0.136675 0.298569 0.307990
0.137468 0.299347 0.328397
0.138262 0.300125 0.348805
0.139055 0.300903 0.369213
0.139848 0.301681 0.389621
0.140642 0.302459 0.410029
0.141435 0.303237 0.430436
0.142228 0.304015 0.450844
0.143022 0.304793 0.471252
0.143815 0.305571 0.491660
0.144608 0.306349 0.512068
0.145402 0.307126 0.532475
0.146195 0.307904 0.552883
0.146988 0.308682 0.573291
0.147782 0.309460 0.593699
0.148575 0.310238 0.614107
0.149368 0.311016 0.634514
0.150161 0.311794 0.654922
0.150955 0.312572 0.675330
0.151748 0.313350 0.695738
0.152541 0.314128 0.716146
0.153335 0.314906 0.736553
0.154128 0.315683 0.756961
0.154921 0.316461 0.777369
0.133620 0.316045 0.128166
0.134413 0.316823 0.148574
0.135207 0.317601 0.168982
0.136000 0.318379 0.189390
0.136793 0.319157 0.209798
0.137587 0.319935 0.230205
0.138380 0.320713 0.250613
0.139173 0.321491 0.271021
0.139967 0.322268 0.291429
0.140760 0.323046 0.311837
0.141553 0.323824 0.332244
0.142347 0.324602 0.352652
0.143140 0.325380 0.373060
0.143933 0.326158 0.393468
0.144727 0.326936 0.413876
0.145520 0.327714 0.434283
0.146313 0.328492 0.454691
0.147106 0.329270 0.475099
0.147900 0.330048 0.495507
0.148693 0.330826 0.515915
0.149486 0.331603 0.536322
0.150280 0.332381 0.556730
0.151073 0.333159 0.577138
0.151866 0.333937 0.597546
0.152660 0.334715 0.617954
0.153453 0.335493 0.638361
0.154246 0.336271 0.658769
0.155040 0.337049 0.679177
0.155833 0.337827 0.699585
0.156626 0.338605 0.719992
0.157420 0.339383 0.740400
0.158213 0.340160 0.760808
0.159006 0.340938 0.781216
0.137705 0.340522 0.132013
0.138498 0.341300 0.152421
0.139292 0.342078 0.172829
0.140085 0.342856 0.193237
0.140878 0.343634 0.213645
0.141672 0.344412 0.234052
0.142465 0.345190 0.254460
0.143258 0.345968 0.274868
0.144052 0.346745 0.295276
0.144845 0.347523 0.315684
0.145638 0.348301 0.336091
0.146431 0.349079 0.356499
0.147225 0.349857 0.376907
0.148018 0.350635 0.397315
0.148811 0.351413 0.417723
0.149605 0.352191 0.438130
0.150398 0.352969 0.458538
0.151191 0.353747 0.478946
0.151985 0.354525 0.499354
0.152778 0.355303 0.519761
0.153571 0.356080 0.540169
0.154365 0.356858 0.560577
0.155158 0.357636 0.580985
0.155951 0.358414 0.601393
0.156745 0.359192 0.621800
0.157538 0.359970 0.642208
0.158331 0.360748 0.662616
0.159125 0.361526 0.683024
0.159918 0.362304 0.703432
0.160711 0.363082 0.723839
0.161505 0.363860 0.744247
0.162298 0.364638 0.764655
0.163091 0.365415 0.785063
0.141790 0.364999 0.135860
0.142583 0.365777 0.156268
0.143376 0.366555 0.176676
0.144170 0.367333 0.197084
0.144963 0.368111 0.217492
0.145756 0.368889 0.237899
0.146550 0.369667 0.258307
0.147343 0.370445 0.278715
0.148136 0.371222 0.299123
0.148930 0.372000 0.319530
0.149723 0.372778 0.339938
0.150516 0.373556 0.360346
0.151310 0.374334 0.380754
0.152103 0.375112 0.401162
0.152896 0.375890 0.421569
0.153690 0.376668 0.441977
0.154483 0.377446 0.462385
0.155276 0.378224 0.482793
0.156070 0.379002 0.503201
0.156863 0.379780 0.523608
0.157656 0.380557 0.544016
0.158450 0.381335 0.564424
0.159243 0.382113 0.584832
0.160036 0.382891 0.605240
0.160830 0.383669 0.625647
0.161623 0.384447 0.646055
0.162416 0.385225 0.666463
0.163209 0.386003 0.686871
0.164003 0.386781 0.707279
0.164796 0.387559 0.727686
0.165589 0.388337 0.748094
0.166383 0.389115 0.768502
0.167176 0.389892 0.788910
0.145875 0.389476 0.139707
0.146668 0.390254 0.160115
0.147461 0.391032 0.180523
0.148255 0.391810 0.200931
0.149048 0.392588 0.221338
0.149841 0.393366 0.241746
0.150635 0.394144 0.262154
0.151428 0.394922 0.282562
0.152221 0.395700 0.302970
0.153015 0.396477 0.323377
0.153808 0.397255 0.343785
0.154601 0.398033 0.364193
0.155395 0.398811 0.384601
0.156188 0.399589 0.405009
0.156981 0.400367 0.425416
0.157775 0.401145 0.445824
0.158568 0.401923 0.466232
0.159361 0.402701 0.486640
0.160154 0.403479 0.507048
0.160948 0.404257 0.527455
0.161741 0.405034 0.547863
0.162534 0.405812 0.568271
0.163328 0.406590 0.588679
0.164121 0.407368 0.609087
0.164914 0.408146 0.629494
0.165708 0.408924 0.649902
0.166501 0.409702 0.670310
0.167294 0.410480 0.690718
0.168088 0.411258 0.711126
0.168881 0.412036 0.731533
0.169674 0.412814 0.751941
0.170468 0.413592 0.772349
0.171261 0.414369 0.792757
0.149960 0.413953 0.143554
0.150753 0.414731 0.163962
0.151546 0.415509 0.184370
0.152340 0.416287 0.204778
0.153133 0.417065 0.225185
0.153926 0.417843 0.245593
0.154720 0.418621 0.266001
0.155513 0.419399 0.286409
0.156306 0.420177 0.306817
0.157100 0.420954 0.327224
0.157893 0.421732 0.347632
0.158686 0.422510 0.368040
0.159479 0.423288 0.388448
0.160273 0.424066 0.408856
0.161066 0.424844 0.429263
0.161859 0.425622 0.449671
0.162653 0.426400 0.470079
0.163446 0.427178 0.490487
0.164239 0.427956 0.510895
0.165033 0.428734 0.531302
0.165826 0.429511 0.551710
0.166619 0.430289 0.572118
0.167413 0.431067 0.592526
0.168206 0.431845 0.612933
0.168999 0.432623 0.633341
0.169793 0.433401 0.653749
0.170586 0.434179 0.674157
0.171379 0.434957 0.694565
0.172173 0.435735 0.714972
0.172966 0.436513 0.735380
0.173759 0.437291 0.755788
0.174553 0.438069 0.776196
0.175346 0.438846 0.796604
0.154045 0.438430 0.147401
0.154838 0.439208 0.167809
0.155631 0.439986 0.188217
0.156425 0.440764 0.208625
0.157218 0.441542 0.229032
0.158011 0.442320 0.249440
0.158804 0.443098 0.269848
0.159598 0.443876 0.290256
0.160391 0.444654 0.310664
0.161184 0.445431 0.331071
0.161978 0.446209 0.351479
0.162771 0.446987 0.371887
0.163564 0.447765 0.392295
0.164358 0.448543 0.412702
0.165151 0.449321 0.433110
0.165944 0.450099 0.453518
0.166738 0.450877 0.473926
0.167531 0.451655 0.494334
0.168324 0.452433 0.514741
0.169118 0.453211 0.535149
0.169911 0.453989 0.555557
0.170704 0.454766 0.575965
0.171498 0.455544 0.596373
0.172291 0.456322 0.616780
0.173084 0.457100 0.637188
0.173878 0.457878 0.657596
0.174671 0.458656 0.678004
0.175464 0.459434 0.698412
0.176257 0.460212 0.718819
0.177051 0.460990 0.739227
0.177844 0.461768 0.759635
0.178637 0.462546 0.780043
0.179431 0.463323 0.800451
0.158129 0.462907 0.151248
0.158923 0.463685 0.171656
0.159716 0.464463 0.192064
0.160509 0.465241 0.212471
0.161303 0.466019 0.232879
0.162096 0.466797 0.253287
0.162889 0.467575 0.273695
0.163683 0.468353 0.294103
0.164476 0.469131 0.314510
0.165269 0.469908 0.334918
0.166063 0.470686 0.355326
0.166856 0.471464 0.375734
0.167649 0.472242 0.396142
0.168443 0.473020 0.416549
0.169236 0.473798 0.436957
0.170029 0.474576 0.457365
0.170823 0.475354 0.477773
0.171616 0.476132 0.498181
0.172409 0.476910 0.518588
0.173203 0.477688 0.538996
0.173996 0.478466 0.559404
0.174789 0.479243 0.579812
0.175582 0.480021 0.600220
0.176376 0.480799 0.620627
0.177169 0.481577 0.641035
0.177962 0.482355 0.661443
0.178756 0.483133 0.681851
0.179549 0.483911 0.702259
0.180342 0.484689 0.722666
0.181136 0.485467 0.743074
0.181929 0.486245 0.763482
0.182722 0.487023 0.783890
0.183516 0.487800 0.804298
0.162214 0.487384 0.155095
0.163008 0.488162 0.175503
0.163801 0.488940 0.195911
0.164594 0.489718 0.216318
0.165388 0.490496 0.236726
0.166181 0.491274 0.257134
0.166974 0.492052 0.277542
0.167768 0.492830 0.297950
0.168561 0.493608 0.318357
0.169354 0.494385 0.338765
0.170148 0.495163 0.359173
0.170941 0.495941 0.379581
0.171734 0.496719 0.399989
0.172527 0.497497 0.420396
0.173321 0.498275 0.440804
0.174114 0.499053 0.461212
0.174907 0.499831 0.481620
0.175701 0.500609 0.502028
0.176494 0.501387 0.522435
0.177287 0.502165 0.542843
0.178081 0.502943 0.563251
0.178874 0.503720 0.583659
0.179667 0.504498 0.604067
0.180461 0.505276 0.624474
0.181254 0.506054 0.644882
0.182047 0.506832 0.665290
0.182841 0.507610 0.685698
0.183634 0.508388 0.706105
0.184427 0.509166 0.726513
0.185221 0.509944 0.746921
0.186014 0.510722 0.767329
0.186807 0.511500 0.787737
0.187601 0.512278 0.808144
0.166299 0.511861 0.158942
0.167093 0.512639 0.179350
0.167886 0.513417 0.199758
0.168679 0.514195 0.220165
0.169473 0.514973 0.240573
0.170266 0.515751 0.260981
0.171059 0.516529 0.281389
0.171852 0.517307 0.301797
0.172646 0.518085 0.322204
0.173439 0.518862 0.342612
0.174232 0.519640 0.363020
0.175026 0.520418 0.383428
0.175819 0.521196 0.403836
0.176612 0.521974 0.424243
0.177406 0.522752 0.444651
0.178199 0.523530 0.465059
0.178992 0.524308 0.485467
0.179786 0.525086 0.505874
0.180579 0.525864 0.526282
0.181372 0.526642 0.546690
0.182166 0.527420 0.567098
0.182959 0.528197 0.587506
0.183752 0.528975 0.607913
0.184546 0.529753 0.628321
0.185339 0.530531 0.648729
0.186132 0.531309 0.669137
0.186926 0.532087 0.689545
0.187719 0.532865 0.709952
0.188512 0.533643 0.730360
0.189305 0.534421 0.750768
0.190099 0.535199 0.771176
0.190892 0.535977 0.791584
0.191685 0.536755 0.811991
0.170384 0.536338 0.162789
0.171177 0.537116 0.183197
0.171971 0.537894 0.203605
0.172764 0.538672 0.224012
0.173557 0.539450 0.244420
0.174351 0.540228 0.264828
0.175144 0.541006 0.285236
0.175937 0.541784 0.305643
0.176731 0.542562 0.326051
0.177524 0.543340 0.346459
0.178317 0.544117 0.366867
0.179111 0.544895 0.387275
0.179904 0.545673 0.407682
0.180697 0.546451 0.428090
0.181491 0.547229 0.448498
0.182284 0.548007 0.468906
0.183077 0.548785 0.489314
0.183871 0.549563 0.509721
0.184664 0.550341 0.530129
0.185457 0.551119 0.550537
0.186251 0.551897 0.570945
0.187044 0.552674 0.591353
0.187837 0.553452 0.611760
0.188630 0.554230 0.632168
0.189424 0.555008 0.652576
0.190217 0.555786 0.672984
0.191010 0.556564 0.693392
0.191804 0.557342 0.713799
0.192597 0.558120 0.734207
0.193390 0.558898 0.754615
0.194184 0.559676 0.775023
0.194977 0.560454 0.795431
0.195770 0.561232 0.815838
0.174469 0.560815 0.166636
0.175262 0.561593 0.187044
0.176056 0.562371 0.207451
0.176849 0.563149 0.227859
0.177642 0.563927 0.248267
0.178436 0.564705 0.268675
0.179229 0.565483 0.289083
0.180022 0.566261 0.309490
0.180816 0.567039 0.329898
0.181609 0.567817 0.350306
0.182402 0.568594 0.370714
0.183196 0.569372 0.391122
0.183989 0.570150 0.411529
0.184782 0.570928 0.431937
0.185575 0.571706 0.452345
0.186369 0.572484 0.472753
0.187162 0.573262 0.493161
0.187955 0.574040 0.513568
0.188749 0.574818 0.533976
0.189542 0.575596 0.554384
0.190335 0.576374 0.574792
0.191129 0.577152 0.595200
0.191922 0.577929 0.615607
0.192715 0.578707 0.636015
0.193509 0.579485 0.656423
0.194302 0.580263 0.676831
0.195095 0.581041 0.697239
0.195889 0.581819 0.717646
0.196682 0.582597 0.738054
0.197475 0.583375 0.758462
0.198269 0.584153 0.778870
0.199062 0.584931 0.799277
0.199855 0.585709 0.819685
0.178554 0.585292 0.170483
0.179347 0.586070 0.190891
0.180141 0.586848 0.211298
0.180934 0.587626 0.231706
0.181727 0.588404 0.252114
0.182521 0.589182 0.272522
0.183314 0.589960 0.292930
0.184107 0.590738 0.313337
0.184900 0.591516 0.333745
0.185694 0.592294 0.354153
0.186487 0.593071 0.374561
0.187280 0.593849 0.394969
0.188074 0.594627 0.415376
0.188867 0.595405 0.435784
0.189660 0.596183 0.456192
0.190454 0.596961 0.476600
0.191247 0.597739 0.497008
0.192040 0.598517 0.517415
0.192834 0.599295 0.537823
0.193627 0.600073 0.558231
0.194420 0.600851 0.578639
0.195214 0.601629 0.599046
0.196007 0.602406 0.619454
0.196800 0.603184 0.639862
0.197594 0.603962 0.660270
0.198387 0.604740 0.680678
0.199180 0.605518 0.701085
0.199974 0.606296 0.721493
0.200767 0.607074 0.741901
0.201560 0.607852 0.762309
0.202353 0.608630 0.782717
0.203147 0.609408 0.803124
0.203940 0.610186 0.823532
0.182639 0.609769 0.174330
0.183432 0.610547 0.194738
0.184225 0.611325 0.215145
0.185019 0.612103 0.235553
0.185812 0.612881 0.255961
0.186605 0.613659 0.276369
0.187399 0.614437 0.296777
0.188192 0.615215 0.317184
0.188985 0.615993 0.337592
0.189779 0.616771 0.358000
0.190572 0.617548 0.378408
0.191365 0.618326 0.398815
0.192159 0.619104 0.419223
0.192952 0.619882 0.439631
0.193745 0.620660 0.460039
0.194539 0.621438 0.480447
0.195332 0.622216 0.500854
0.196125 0.622994 0.521262
0.196919 0.623772 0.541670
0.197712 0.624550 0.562078
0.198505 0.625328 0.582486
0.199299 0.626106 0.602893
0.200092 0.626883 0.623301
0.200885 0.627661 0.643709
0.201678 0.628439 0.664117
0.202472 0.629217 0.684525
0.203265 0.629995 0.704932
0.204058 0.630773 0.725340
0.204852 0.631551 0.745748
0.205645 0.632329 0.766156
0.206438 0.633107 0.786564
0.207232 0.633885 0.806971
0.208025 0.634663 0.827379
0.186724 0.634246 0.178177
0.187517 0.635024 0.198584
0.188310 0.635802 0.218992
0.189104 0.636580 0.239400
0.189897 0.637358 0.259808
0.190690 0.638136 0.280216
0.191484 0.638914 0.300623
0.192277 0.639692 0.321031
0.193070 0.640470 0.341439
0.193864 0.641248 0.361847
0.194657 0.642025 0.382255
0.195450 0.642803 0.402662
0.196244 0.643581 0.423070
0.197037 0.644359 0.443478
0.197830 0.645137 0.463886
0.198624 0.645915 0.484294
0.199417 0.646693 0.504701
0.200210 0.647471 0.525109
0.201003 0.648249 0.545517
0.201797 0.649027 0.565925
0.202590 0.649805 0.586333
0.203383 0.650583 0.606740
0.204177 0.651360 0.627148
0.204970 0.652138 0.647556
0.205763 0.652916 0.667964
0.206557 0.653694 0.688372
0.207350 0.654472 0.708779
0.208143 0.655250 0.729187
0.208937 0.656028 0.749595
0.209730 0.656806 0.770003
0.210523 0.657584 0.790411
0.211317 0.658362 0.810818
0.212110 0.659140 0.831226
0.190809 0.658723 0.182024
0.191602 0.659501 0.202431
0.192395 0.660279 0.222839
0.193189 0.661057 0.243247
0.193982 0.661835 0.263655
0.194775 0.662613 0.284063
0.195569 0.663391 0.304470
0.196362 0.664169 0.324878
0.197155 0.664947 0.345286
0.197948 0.665725 0.365694
0.198742 0.666503 0.386102
0.199535 0.667280 0.406509
0.200328 0.668058 0.426917
0.201122 0.668836 0.447325
0.201915 0.669614 0.467733
0.202708 0.670392 0.488141
0.203502 0.671170 0.508548
0.204295 0.671948 0.528956
0.205088 0.672726 0.549364
0.205882 0.673504 0.569772
0.206675 0.674282 0.590180
0.207468 0.675060 0.610587
0.208262 0.675837 0.630995
0.209055 0.676615 0.651403
0.209848 0.677393 0.671811
0.210642 0.678171 0.692218
0.211435 0.678949 0.712626
0.212228 0.679727 0.733034
0.213022 0.680505 0.753442
0.213815 0.681283 0.773850
0.214608 0.682061 0.794257
0.215402 0.682839 0.814665
0.216195 0.683617 0.835073
0.194894 0.683200 0.185871
0.195687 0.683978 0.206278
0.196480 0.684756 0.226686
0.197273 0.685534 0.247094
0.198067 0.686312 0.267502
0.198860 0.687090 0.287910
0.199653 0.687868 0.308317
0.200447 0.688646 0.328725
0.201240 0.689424 0.349133
0.202033 0.690202 0.369541
0.202827 0.690980 0.389949
0.203620 0.691757 0.410356
0.204413 0.692535 0.430764
0.205207 0.693313 0.451172
0.206000 0.694091 0.471580
0.206793 0.694869 0.491987
0.207587 0.695647 0.512395
0.208380 0.696425 0.532803
0.209173 0.697203 0.553211
0.209967 0.697981 0.573619
0.210760 0.698759 0.594026
0.211553 0.699537 0.614434
0.212347 0.700314 0.634842
0.213140 0.701092 0.655250
0.213933 0.701870 0.675658
0.214726 0.702648 0.696065
0.215520 0.703426 0.716473
0.216313 0.704204 0.736881
0.217106 0.704982 0.757289
0.217900 0.705760 0.777697
0.218693 0.706538 0.798104
0.219486 0.707316 0.818512
0.220280 0.708094 0.838920
0.198978 0.707677 0.189718
0.199772 0.708455 0.210125
0.200565 0.709233 0.230533
0.201358 0.710011 0.250941
0.202152 0.710789 0.271349
0.202945 0.711567 0.291756
0.203738 0.712345 0.312164
0.204532 0.713123 0.332572
0.205325 0.713901 0.352980
0.206118 0.714679 0.373388
0.206912 0.715457 0.393795
0.207705 0.716234 0.414203
0.208498 0.717012 0.434611
0.209292 0.717790 0.455019
0.210085 0.718568 0.475427
0.210878 0.719346 0.495834
0.211672 0.720124 0.516242
0.212465 0.720902 0.536650
0.213258 0.721680 0.557058
0.214051 0.722458 0.577466
0.214845 0.723236 0.597873
0.215638 0.724014 0.618281
0.216431 0.724792 0.638689
0.217225 0.725569 0.659097
0.218018 0.726347 0.679505
0.218811 0.727125 0.699912
0.219605 0.727903 0.720320
0.220398 0.728681 0.740728
0.221191 0.729459 0.761136
0.221985 0.730237 0.781544
0.222778 0.731015 0.801951
0.223571 0.731793 0.822359
0.224365 0.732571 0.842767
0.203063 0.732154 0.193564
0.203857 0.732932 0.213972
0.204650 0.733710 0.234380
0.205443 0.734488 0.254788
0.206237 0.735266 0.275196
0.207030 0.736044 0.295603
0.207823 0.736822 0.316011
0.208617 0.737600 0.336419
0.209410 0.738378 0.356827
0.210203 0.739156 0.377235
0.210996 0.739934 0.397642
0.211790 0.740711 0.418050
0.212583 0.741489 0.438458
0.213376 0.742267 0.458866
0.214170 0.743045 0.479274
0.214963 0.743823 0.499681
0.215756 0.744601 0.520089
0.216550 0.745379 0.540497
0.217343 0.746157 0.560905
0.218136 0.746935 0.581313
0.218930 0.747713 0.601720
0.219723 0.748491 0.622128
0.220516 0.749269 0.642536
0.221310 0.750046 0.662944
0.222103 0.750824 0.683352
0.222896 0.751602 0.703759
0.223690 0.752380 0.724167
0.224483 0.753158 0.744575
0.225276 0.753936 0.764983
