utils/luts/vintage.cube
TITLE "Vintage Faded"
LUT_3D_SIZE 5
0.096856 0.095752 0.093544
0.103203 0.101975 0.256806
0.109549 0.108199 0.420069
0.115896 0.114422 0.583331
0.122242 0.120645 0.746593
0.129535 0.291568 0.124320
0.135882 0.297791 0.287582
0.142228 0.304015 0.450844
0.148575 0.310238 0.614107
0.154921 0.316461 0.777369
0.162214 0.487384 0.155095
0.168561 0.493608 0.318357
0.174907 0.499831 0.481620
0.181254 0.506054 0.644882
0.187601 0.512278 0.808144
0.194894 0.683200 0.185871
0.201240 0.689424 0.349133
0.207587 0.695647 0.512395
0.213933 0.701870 0.675658
0.220280 0.708094 0.838920
0.227573 0.879016 0.216646
0.233919 0.885240 0.379908
0.240266 0.891463 0.543171
0.246612 0.897686 0.706433
0.252959 0.903910 0.869696
0.280516 0.112075 0.109220
0.286863 0.118298 0.272482
0.293209 0.124521 0.435745
0.299556 0.130745 0.599007
0.305902 0.136968 0.762270
0.313195 0.307891 0.139996
0.319542 0.314114 0.303258
0.325889 0.320337 0.466520
0.332235 0.326561 0.629783
0.338582 0.332784 0.793045
0.345875 0.503707 0.170771
0.352221 0.509930 0.334034
0.358568 0.516153 0.497296
0.364914 0.522377 0.660558
0.371261 0.528600 0.823821
0.378554 0.699523 0.201547
0.384900 0.705746 0.364809
0.391247 0.711970 0.528071
0.397593 0.718193 0.691334
0.403940 0.724416 0.854596
0.411233 0.895339 0.232322
0.417580 0.901562 0.395585
0.423926 0.907786 0.558847
0.430273 0.914009 0.722109
0.436619 0.920232 0.885372
0.464177 0.128397 0.124896
0.470523 0.134620 0.288159
0.476870 0.140844 0.451421
0.483216 0.147067 0.614683
0.489563 0.153290 0.777946
0.496856 0.324213 0.155672
0.503202 0.330437 0.318934
0.509549 0.336660 0.482196
0.515895 0.342883 0.645459
0.522242 0.349107 0.808721
0.529535 0.520029 0.186447
0.535881 0.526253 0.349710
0.542228 0.532476 0.512972
0.548575 0.538699 0.676234
0.554921 0.544923 0.839497
0.562214 0.715845 0.217223
0.568561 0.722069 0.380485
0.574907 0.728292 0.543748
0.581254 0.734515 0.707010
0.587600 0.740739 0.870272
0.594893 0.911662 0.247998
0.601240 0.917885 0.411261
0.607586 0.924108 0.574523
0.613933 0.930332 0.737785
0.620279 0.936555 0.901048
0.647837 0.144720 0.140572
0.654183 0.150943 0.303835
0.660530 0.157166 0.467097
0.666876 0.163390 0.630359
0.673223 0.169613 0.793622
0.680516 0.340536 0.171348
0.686863 0.346759 0.334610
0.693209 0.352982 0.497873
0.699556 0.359206 0.661135
0.705902 0.365429 0.824397
0.713195 0.536352 0.202123
0.719542 0.542575 0.365386
0.725888 0.548799 0.528648
0.732235 0.555022 0.691910
0.738581 0.561245 0.855173
0.745874 0.732168 0.232899
0.752221 0.738391 0.396161
0.758567 0.744615 0.559424
0.764914 0.750838 0.722686
0.771261 0.757061 0.885948
0.778554 0.927984 0.263674
0.784900 0.934207 0.426937
0.791247 0.940431 0.590199
0.797593 0.946654 0.753462
0.803940 0.952877 0.916724
0.831497 0.161042 0.156248
0.837844 0.167266 0.319511
0.844190 0.173489 0.482773
0.850537 0.179712 0.646036
0.856883 0.185936 0.809298
0.864176 0.356858 0.187024
0.870523 0.363082 0.350286
0.876869 0.369305 0.513549
0.883216 0.375528 0.676811
0.889562 0.381752 0.840073
0.896855 0.552674 0.217800
0.903202 0.558898 0.381062
0.909549 0.565121 0.544324
0.915895 0.571344 0.707587
0.922242 0.577568 0.870849
0.929535 0.748491 0.248575
0.935881 0.754714 0.411837
0.942228 0.760937 0.575100
0.948574 0.767161 0.738362
0.954921 0.773384 0.901624
0.962214 0.944307 0.279351
0.968560 0.950530 0.442613
0.974907 0.956753 0.605875
0.981253 0.962977 0.769138
0.987600 0.969200 0.932400
