utils/luts/vivid.cube
TITLE "Vivid Saturated"
LUT_3D_SIZE 33
0.000000 0.000000 0.000000
0.000000 0.000000 0.000000
0.000000 0.000000 0.031707
0.000000 0.000000 0.077560
0.000000 0.000000 0.123414
0.000000 0.000000 0.169267
0.000000 0.000000 0.215121
0.000000 0.000000 0.260974
0.000000 0.000000 0.306828
0.000000 0.000000 0.352681
0.000000 0.000000 0.398535
0.000000 0.000000 0.444389
0.000000 0.000000 0.490242
0.000000 0.000000 0.536096
0.000000 0.000000 0.581949
0.000000 0.000000 0.627803
0.000000 0.000000 0.673656
0.000000 0.000000 0.719510
0.000000 0.000000 0.765363
0.000000 0.000000 0.811217
0.000000 0.000000 0.857070
0.000000 0.000000 0.902924
0.000000 0.000000 0.948777
0.000000 0.000000 0.994631
0.000000 0.000000 1.000000
0.000000 0.000000 1.000000
0.000000 0.000000 1.000000
0.000000 0.000000 1.000000
0.000000 0.000000 1.000000
0.000000 0.000000 1.000000
0.000000 0.000000 1.000000
0.000000 0.000000 1.000000
0.000000 0.000000 1.000000
0.000000 0.000000 0.000000
0.000000 0.000000 0.000000
0.000000 0.000000 0.024516
0.000000 0.000000 0.070370
0.000000 0.000000 0.116223
0.000000 0.000000 0.162077
0.000000 0.000000 0.207930
0.000000 0.000000 0.253784
0.000000 0.000000 0.299637
0.000000 0.000000 0.345491
0.000000 0.000000 0.391344
0.000000 0.000000 0.437198
0.000000 0.000000 0.483051
0.000000 0.000000 0.528905
0.000000 0.000000 0.574758
0.000000 0.000000 0.620612
0.000000 0.000000 0.666465
0.000000 0.000000 0.712319
0.000000 0.000000 0.758172
0.000000 0.000000 0.804026
0.000000 0.000000 0.849879
0.000000 0.000000 0.895733
0.000000 0.000000 0.941586
0.000000 0.000000 0.987440
0.000000 0.000000 1.000000
0.000000 0.000000 1.000000
0.000000 0.000000 1.000000
0.000000 0.000000 1.000000
0.000000 0.000000 1.000000
0.000000 0.000000 1.000000
0.000000 0.000000 1.000000
0.000000 0.000000 1.000000
0.000000 0.000000 1.000000
0.000000 0.020118 0.000000
0.000000 0.018722 0.000000
0.000000 0.017325 0.017325
0.000000 0.015929 0.063179
0.000000 0.014532 0.109032
0.000000 0.013136 0.154886
0.000000 0.011739 0.200739
0.000000 0.010343 0.246593
0.000000 0.008946 0.292446
0.000000 0.007550 0.338300
0.000000 0.006153 0.384154
0.000000 0.004757 0.430007
0.000000 0.003360 0.475861
0.000000 0.001964 0.521714
0.000000 0.000567 0.567568
0.000000 0.000000 0.613421
0.000000 0.000000 0.659274
0.000000 0.000000 0.705128
0.000000 0.000000 0.750982
0.000000 0.000000 0.796835
0.000000 0.000000 0.842689
0.000000 0.000000 0.888542
0.000000 0.000000 0.934396
0.000000 0.000000 0.980249
0.000000 0.000000 1.000000
0.000000 0.000000 1.000000
0.000000 0.000000 1.000000
0.000000 0.000000 1.000000
0.000000 0.000000 1.000000
0.000000 0.000000 1.000000
0.000000 0.000000 1.000000
0.000000 0.000000 1.000000
0.000000 0.000000 1.000000
0.000000 0.060178 0.000000
0.000000 0.058781 0.000000
0.000000 0.057385 0.010135
0.000000 0.055988 0.055988
0.000000 0.054592 0.101842
0.000000 0.053195 0.147695
0.000000 0.051799 0.193549
0.000000 0.050402 0.239402
0.000000 0.049006 0.285256
0.000000 0.047609 0.331109
0.000000 0.046213 0.376963
0.000000 0.044816 0.422816
0.000000 0.043420 0.468670
0.000000 0.042023 0.514523
0.000000 0.040627 0.560377
0.000000 0.039230 0.606230
0.000000 0.037834 0.652084
0.000000 0.036437 0.697937
0.000000 0.035041 0.743791
0.000000 0.033644 0.789644
0.000000 0.032248 0.835498
0.000000 0.030851 0.881351
0.000000 0.029455 0.927205
0.000000 0.028058 0.973058
0.000000 0.026662 1.000000
0.000000 0.025265 1.000000
0.000000 0.023869 1.000000
0.000000 0.022472 1.000000
0.000000 0.021076 1.000000
0.000000 0.019679 1.000000
0.000000 0.018283 1.000000
0.000000 0.016886 1.000000
0.000000 0.015490 1.000000
0.000000 0.100237 0.000000
0.000000 0.098840 0.000000
0.000000 0.097444 0.002944
0.000000 0.096048 0.048797
0.000000 0.094651 0.094651
0.000000 0.093254 0.140504
0.000000 0.091858 0.186358
0.000000 0.090461 0.232212
0.000000 0.089065 0.278065
0.000000 0.087668 0.323918
0.000000 0.086272 0.369772
0.000000 0.084875 0.415625
0.000000 0.083479 0.461479
0.000000 0.082082 0.507332
0.000000 0.080686 0.553186
0.000000 0.079290 0.599040
0.000000 0.077893 0.644893
0.000000 0.076496 0.690747
0.000000 0.075100 0.736600
0.000000 0.073703 0.782454
0.000000 0.072307 0.828307
0.000000 0.070910 0.874161
0.000000 0.069514 0.920014
0.000000 0.068117 0.965868
0.000000 0.066721 1.000000
0.000000 0.065324 1.000000
0.000000 0.063928 1.000000
0.000000 0.062531 1.000000
0.000000 0.061135 1.000000
0.000000 0.059738 1.000000
0.000000 0.058342 1.000000
0.000000 0.056945 1.000000
0.000000 0.055549 1.000000
0.000000 0.140296 0.000000
0.000000 0.138900 0.000000
0.000000 0.137503 0.000000
0.000000 0.136107 0.041607
0.000000 0.134710 0.087460
0.000000 0.133314 0.133314
0.000000 0.131917 0.179167
0.000000 0.130521 0.225021
0.000000 0.129124 0.270874
0.000000 0.127728 0.316728
0.000000 0.126331 0.362581
0.000000 0.124935 0.408435
0.000000 0.123538 0.454288
0.000000 0.122142 0.500142
0.000000 0.120745 0.545995
0.000000 0.119349 0.591849
0.000000 0.117952 0.637702
0.000000 0.116556 0.683556
0.000000 0.115159 0.729409
0.000000 0.113763 0.775263
0.000000 0.112366 0.821116
0.000000 0.110970 0.866970
0.000000 0.109573 0.912823
0.000000 0.108177 0.958677
0.000000 0.106780 1.000000
0.000000 0.105384 1.000000
0.000000 0.103987 1.000000
0.000000 0.102591 1.000000
0.000000 0.101194 1.000000
0.000000 0.099798 1.000000
0.000000 0.098401 1.000000
0.000000 0.097005 1.000000
0.000000 0.095608 1.000000
0.000000 0.180356 0.000000
0.000000 0.178959 0.000000
0.000000 0.177562 0.000000
0.000000 0.176166 0.034416
0.000000 0.174770 0.080269
0.000000 0.173373 0.126123
0.000000 0.171976 0.171976
0.000000 0.170580 0.217830
0.000000 0.169183 0.263684
0.000000 0.167787 0.309537
0.000000 0.166390 0.355391
0.000000 0.164994 0.401244
0.000000 0.163598 0.447098
0.000000 0.162201 0.492951
0.000000 0.160804 0.538804
0.000000 0.159408 0.584658
0.000000 0.158011 0.630512
0.000000 0.156615 0.676365
0.000000 0.155218 0.722218
0.000000 0.153822 0.768072
0.000000 0.152425 0.813926
0.000000 0.151029 0.859779
0.000000 0.149632 0.905633
0.000000 0.148236 0.951486
0.000000 0.146840 0.997340
0.000000 0.145443 1.000000
0.000000 0.144046 1.000000
0.000000 0.142650 1.000000
0.000000 0.141253 1.000000
0.000000 0.139857 1.000000
0.000000 0.138460 1.000000
0.000000 0.137064 1.000000
0.000000 0.135667 1.000000
0.000000 0.220415 0.000000
0.000000 0.219018 0.000000
0.000000 0.217622 0.000000
0.000000 0.216225 0.027225
0.000000 0.214829 0.073079
0.000000 0.213432 0.118932
0.000000 0.212036 0.164786
0.000000 0.210639 0.210639
0.000000 0.209243 0.256493
0.000000 0.207846 0.302346
0.000000 0.206450 0.348200
0.000000 0.205053 0.394053
0.000000 0.203657 0.439907
0.000000 0.202260 0.485760
0.000000 0.200864 0.531614
0.000000 0.199467 0.577467
0.000000 0.198071 0.623321
0.000000 0.196674 0.669174
0.000000 0.195278 0.715028
0.000000 0.193881 0.760881
0.000000 0.192485 0.806735
0.000000 0.191088 0.852588
0.000000 0.189692 0.898442
0.000000 0.188295 0.944295
0.000000 0.186899 0.990149
0.000000 0.185502 1.000000
0.000000 0.184106 1.000000
0.000000 0.182709 1.000000
0.000000 0.181313 1.000000
0.000000 0.179916 1.000000
0.000000 0.178520 1.000000
0.000000 0.177123 1.000000
0.000000 0.175727 1.000000
0.000000 0.260474 0.000000
0.000000 0.259077 0.000000
0.000000 0.257681 0.000000
0.000000 0.256284 0.020034
0.000000 0.254888 0.065888
0.000000 0.253491 0.111741
0.000000 0.252095 0.157595
0.000000 0.250698 0.203448
0.000000 0.249302 0.249302
0.000000 0.247905 0.295156
0.000000 0.246509 0.341009
0.000000 0.245113 0.386863
0.000000 0.243716 0.432716
0.000000 0.242320 0.478570
0.000000 0.240923 0.524423
0.000000 0.239526 0.570277
0.000000 0.238130 0.616130
0.000000 0.236733 0.661984
0.000000 0.235337 0.707837
0.000000 0.233940 0.753691
0.000000 0.232544 0.799544
0.000000 0.231148 0.845398
0.000000 0.229751 0.891251
0.000000 0.228354 0.937105
0.000000 0.226958 0.982958
0.000000 0.225562 1.000000
0.000000 0.224165 1.000000
0.000000 0.222768 1.000000
0.000000 0.221372 1.000000
0.000000 0.219976 1.000000
0.000000 0.218579 1.000000
0.000000 0.217182 1.000000
0.000000 0.215786 1.000000
0.000000 0.300533 0.000000
0.000000 0.299137 0.000000
0.000000 0.297740 0.000000
0.000000 0.296344 0.012844
0.000000 0.294947 0.058697
0.000000 0.293551 0.104551
0.000000 0.292154 0.150404
0.000000 0.290758 0.196258
0.000000 0.289361 0.242111
0.000000 0.287965 0.287965
0.000000 0.286568 0.333818
0.000000 0.285172 0.379672
0.000000 0.283775 0.425525
0.000000 0.282379 0.471379
0.000000 0.280982 0.517232
0.000000 0.279586 0.563086
0.000000 0.278189 0.608939
0.000000 0.276793 0.654793
0.000000 0.275396 0.700646
0.000000 0.274000 0.746500
0.000000 0.272603 0.792353
0.000000 0.271207 0.838207
0.000000 0.269810 0.884060
0.000000 0.268414 0.929914
0.000000 0.267017 0.975767
0.000000 0.265621 1.000000
0.000000 0.264224 1.000000
0.000000 0.262828 1.000000
0.000000 0.261431 1.000000
0.000000 0.260035 1.000000
0.000000 0.258638 1.000000
0.000000 0.257242 1.000000
0.000000 0.255845 1.000000
0.000000 0.340593 0.000000
0.000000 0.339196 0.000000
0.000000 0.337800 0.000000
0.000000 0.336403 0.005653
0.000000 0.335007 0.051506
0.000000 0.333610 0.097360
0.000000 0.332213 0.143213
0.000000 0.330817 0.189067
0.000000 0.329421 0.234921
0.000000 0.328024 0.280774
0.000000 0.326627 0.326627
0.000000 0.325231 0.372481
0.000000 0.323834 0.418334
0.000000 0.322438 0.464188
0.000000 0.321041 0.510042
0.000000 0.319645 0.555895
0.000000 0.318248 0.601749
0.000000 0.316852 0.647602
0.000000 0.315455 0.693456
0.000000 0.314059 0.739309
0.000000 0.312663 0.785162
0.000000 0.311266 0.831016
0.000000 0.309870 0.876870
0.000000 0.308473 0.922723
0.000000 0.307076 0.968577
0.000000 0.305680 1.000000
0.000000 0.304284 1.000000
0.000000 0.302887 1.000000
0.000000 0.301490 1.000000
0.000000 0.300094 1.000000
0.000000 0.298697 1.000000
0.000000 0.297301 1.000000
0.000000 0.295905 1.000000
0.000000 0.380652 0.000000
0.000000 0.379255 0.000000
0.000000 0.377859 0.000000
0.000000 0.376462 0.000000
0.000000 0.375066 0.044316
0.000000 0.373669 0.090169
0.000000 0.372273 0.136023
0.000000 0.370876 0.181876
0.000000 0.369480 0.227730
0.000000 0.368083 0.273583
0.000000 0.366687 0.319437
0.000000 0.365290 0.365290
0.000000 0.363894 0.411144
0.000000 0.362497 0.456997
0.000000 0.361101 0.502851
0.000000 0.359704 0.548704
0.000000 0.358308 0.594558
0.000000 0.356911 0.640411
0.000000 0.355515 0.686265
0.000000 0.354118 0.732118
0.000000 0.352722 0.777972
0.000000 0.351325 0.823825
0.000000 0.349929 0.869679
0.000000 0.348532 0.915532
0.000000 0.347136 0.961386
0.000000 0.345739 1.000000
0.000000 0.344343 1.000000
0.000000 0.342946 1.000000
0.000000 0.341550 1.000000
0.000000 0.340153 1.000000
0.000000 0.338757 1.000000
0.000000 0.337360 1.000000
0.000000 0.335964 1.000000
0.000000 0.420711 0.000000
0.000000 0.419315 0.000000
0.000000 0.417918 0.000000
0.000000 0.416521 0.000000
0.000000 0.415125 0.037125
0.000000 0.413728 0.082978
0.000000 0.412332 0.128832
0.000000 0.410936 0.174685
0.000000 0.409539 0.220539
0.000000 0.408143 0.266392
0.000000 0.406746 0.312246
0.000000 0.405349 0.358100
0.000000 0.403953 0.403953
0.000000 0.402557 0.449806
0.000000 0.401160 0.495660
0.000000 0.399764 0.541514
0.000000 0.398367 0.587367
0.000000 0.396971 0.633220
0.000000 0.395574 0.679074
0.000000 0.394178 0.724928
0.000000 0.392781 0.770781
0.000000 0.391385 0.816635
0.000000 0.389988 0.862488
0.000000 0.388591 0.908342
0.000000 0.387195 0.954195
0.000000 0.385798 1.000000
0.000000 0.384402 1.000000
0.000000 0.383005 1.000000
0.000000 0.381609 1.000000
0.000000 0.380213 1.000000
0.000000 0.378816 1.000000
0.000000 0.377420 1.000000
0.000000 0.376023 1.000000
0.000000 0.460770 0.000000
0.000000 0.459374 0.000000
0.000000 0.457977 0.000000
0.000000 0.456581 0.000000
0.000000 0.455184 0.029934
0.000000 0.453788 0.075788
0.000000 0.452391 0.121641
0.000000 0.450995 0.167495
0.000000 0.449598 0.213348
0.000000 0.448202 0.259202
0.000000 0.446805 0.305055
0.000000 0.445409 0.350909
0.000000 0.444012 0.396762
0.000000 0.442616 0.442616
0.000000 0.441219 0.488469
0.000000 0.439823 0.534323
0.000000 0.438426 0.580176
0.000000 0.437030 0.626030
0.000000 0.435633 0.671883
0.000000 0.434237 0.717737
0.000000 0.432840 0.763590
0.000000 0.431444 0.809444
0.000000 0.430047 0.855297
0.000000 0.428651 0.901151
0.000000 0.427254 0.947004
0.000000 0.425858 0.992858
0.000000 0.424461 1.000000
0.000000 0.423065 1.000000
0.000000 0.421668 1.000000
0.000000 0.420272 1.000000
0.000000 0.418875 1.000000
0.000000 0.417479 1.000000
0.000000 0.416082 1.000000
0.000000 0.500830 0.000000
0.000000 0.499433 0.000000
0.000000 0.498036 0.000000
0.000000 0.496640 0.000000
0.000000 0.495244 0.022743
0.000000 0.493847 0.068597
0.000000 0.492451 0.114451
0.000000 0.491054 0.160304
0.000000 0.489657 0.206157
0.000000 0.488261 0.252011
0.000000 0.486865 0.297864
0.000000 0.485468 0.343718
0.000000 0.484071 0.389571
0.000000 0.482675 0.435425
0.000000 0.481278 0.481278
0.000000 0.479882 0.527132
0.000000 0.478486 0.572986
0.000000 0.477089 0.618839
0.000000 0.475693 0.664693
0.000000 0.474296 0.710546
0.000000 0.472899 0.756400
0.000000 0.471503 0.802253
0.000000 0.470107 0.848107
0.000000 0.468710 0.893960
0.000000 0.467313 0.939814
0.000000 0.465917 0.985667
0.000000 0.464521 1.000000
0.000000 0.463124 1.000000
0.000000 0.461728 1.000000
0.000000 0.460331 1.000000
0.000000 0.458935 1.000000
0.000000 0.457538 1.000000
0.000000 0.456141 1.000000
0.000000 0.540889 0.000000
0.000000 0.539492 0.000000
0.000000 0.538096 0.000000
0.000000 0.536699 0.000000
0.000000 0.535303 0.015553
0.000000 0.533906 0.061406
0.000000 0.532510 0.107260
0.000000 0.531113 0.153113
0.000000 0.529717 0.198967
0.000000 0.528320 0.244820
0.000000 0.526924 0.290674
0.000000 0.525527 0.336527
0.000000 0.524131 0.382381
0.000000 0.522734 0.428234
0.000000 0.521338 0.474088
0.000000 0.519941 0.519941
0.000000 0.518545 0.565795
0.000000 0.517148 0.611648
0.000000 0.515752 0.657502
0.000000 0.514355 0.703355
0.000000 0.512959 0.749209
0.000000 0.511562 0.795062
0.000000 0.510166 0.840916
0.000000 0.508769 0.886769
0.000000 0.507373 0.932623
0.000000 0.505976 0.978476
0.000000 0.504580 1.000000
0.000000 0.503183 1.000000
0.000000 0.501787 1.000000
0.000000 0.500390 1.000000
0.000000 0.498994 1.000000
0.000000 0.497597 1.000000
0.000000 0.496201 1.000000
0.000000 0.580948 0.000000
0.000000 0.579551 0.000000
0.000000 0.578155 0.000000
0.000000 0.576759 0.000000
0.000000 0.575362 0.008362
0.000000 0.573966 0.054215
0.000000 0.572569 0.100069
0.000000 0.571172 0.145922
0.000000 0.569776 0.191776
0.000000 0.568380 0.237629
0.000000 0.566983 0.283483
0.000000 0.565586 0.329337
0.000000 0.564190 0.375190
0.000000 0.562794 0.421043
0.000000 0.561397 0.466897
0.000000 0.560001 0.512750
0.000000 0.558604 0.558604
0.000000 0.557207 0.604458
0.000000 0.555811 0.650311
0.000000 0.554415 0.696165
0.000000 0.553018 0.742018
0.000000 0.551622 0.787872
0.000000 0.550225 0.833725
0.000000 0.548828 0.879579
0.000000 0.547432 0.925432
0.000000 0.546036 0.971286
0.000000 0.544639 1.000000
0.000000 0.543243 1.000000
0.000000 0.541846 1.000000
0.000000 0.540450 1.000000
0.000000 0.539053 1.000000
0.000000 0.537656 1.000000
0.000000 0.536260 1.000000
0.000000 0.621007 0.000000
0.000000 0.619611 0.000000
0.000000 0.618214 0.000000
0.000000 0.616818 0.000000
0.000000 0.615421 0.001171
0.000000 0.614025 0.047025
0.000000 0.612628 0.092878
0.000000 0.611232 0.138732
0.000000 0.609835 0.184585
0.000000 0.608439 0.230439
0.000000 0.607042 0.276292
0.000000 0.605646 0.322146
0.000000 0.604249 0.367999
0.000000 0.602853 0.413853
0.000000 0.601456 0.459706
0.000000 0.600060 0.505560
0.000000 0.598663 0.551413
0.000000 0.597267 0.597267
0.000000 0.595870 0.643120
0.000000 0.594474 0.688974
0.000000 0.593077 0.734827
0.000000 0.591681 0.780681
0.000000 0.590284 0.826534
0.000000 0.588888 0.872388
0.000000 0.587491 0.918241
0.000000 0.586095 0.964095
0.000000 0.584698 1.000000
0.000000 0.583302 1.000000
0.000000 0.581905 1.000000
0.000000 0.580509 1.000000
0.000000 0.579112 1.000000
0.000000 0.577716 1.000000
0.000000 0.576319 1.000000
0.000000 0.661067 0.000000
0.000000 0.659670 0.000000
0.000000 0.658274 0.000000
0.000000 0.656877 0.000000
0.000000 0.655481 0.000000
0.000000 0.654084 0.039834
0.000000 0.652688 0.085688
0.000000 0.651291 0.131541
0.000000 0.649894 0.177394
0.000000 0.648498 0.223248
0.000000 0.647101 0.269101
0.000000 0.645705 0.314955
0.000000 0.644309 0.360808
0.000000 0.642912 0.406662
0.000000 0.641516 0.452516
0.000000 0.640119 0.498369
0.000000 0.638722 0.544223
0.000000 0.637326 0.590076
0.000000 0.635930 0.635930
0.000000 0.634533 0.681783
0.000000 0.633136 0.727637
0.000000 0.631740 0.773490
0.000000 0.630343 0.819344
0.000000 0.628947 0.865197
0.000000 0.627551 0.911051
0.000000 0.626154 0.956904
0.000000 0.624758 1.000000
0.000000 0.623361 1.000000
0.000000 0.621965 1.000000
0.000000 0.620568 1.000000
0.000000 0.619172 1.000000
0.000000 0.617775 1.000000
0.000000 0.616378 1.000000
0.000000 0.701126 0.000000
0.000000 0.699729 0.000000
0.000000 0.698333 0.000000
0.000000 0.696936 0.000000
0.000000 0.695540 0.000000
0.000000 0.694143 0.032643
0.000000 0.692747 0.078497
0.000000 0.691350 0.124350
0.000000 0.689954 0.170204
0.000000 0.688557 0.216057
0.000000 0.687161 0.261911
0.000000 0.685764 0.307764
0.000000 0.684368 0.353618
0.000000 0.682971 0.399471
0.000000 0.681575 0.445325
0.000000 0.680178 0.491178
0.000000 0.678782 0.537032
0.000000 0.677385 0.582885
0.000000 0.675989 0.628739
0.000000 0.674592 0.674592
0.000000 0.673196 0.720446
0.000000 0.671799 0.766299
0.000000 0.670403 0.812153
0.000000 0.669006 0.858006
0.000000 0.667610 0.903860
0.000000 0.666213 0.949713
0.000000 0.664817 0.995567
0.000000 0.663420 1.000000
0.000000 0.662024 1.000000
0.000000 0.660627 1.000000
0.000000 0.659231 1.000000
0.000000 0.657834 1.000000
0.000000 0.656438 1.000000
0.000000 0.741185 0.000000
0.000000 0.739789 0.000000
0.000000 0.738392 0.000000
0.000000 0.736996 0.000000
0.000000 0.735599 0.000000
0.000000 0.734203 0.025452
0.000000 0.732806 0.071306
0.000000 0.731410 0.117159
0.000000 0.730013 0.163013
0.000000 0.728617 0.208867
0.000000 0.727220 0.254720
0.000000 0.725824 0.300574
0.000000 0.724427 0.346427
0.000000 0.723031 0.392280
0.000000 0.721634 0.438134
0.000000 0.720238 0.483988
0.000000 0.718841 0.529841
0.000000 0.717445 0.575694
0.000000 0.716048 0.621548
0.000000 0.714651 0.667402
0.000000 0.713255 0.713255
0.000000 0.711859 0.759109
0.000000 0.710462 0.804962
0.000000 0.709066 0.850815
0.000000 0.707669 0.896669
0.000000 0.706273 0.942523
0.000000 0.704876 0.988376
0.000000 0.703480 1.000000
0.000000 0.702083 1.000000
0.000000 0.700686 1.000000
0.000000 0.699290 1.000000
0.000000 0.697893 1.000000
0.000000 0.696497 1.000000
0.000000 0.781244 0.000000
0.000000 0.779848 0.000000
0.000000 0.778451 0.000000
0.000000 0.777055 0.000000
0.000000 0.775658 0.000000
0.000000 0.774262 0.018262
0.000000 0.772865 0.064115
0.000000 0.771469 0.109969
0.000000 0.770072 0.155822
0.000000 0.768676 0.201676
0.000000 0.767279 0.247529
0.000000 0.765883 0.293383
0.000000 0.764486 0.339236
0.000000 0.763090 0.385090
0.000000 0.761693 0.430943
0.000000 0.760297 0.476797
0.000000 0.758900 0.522650
0.000000 0.757504 0.568504
0.000000 0.756107 0.614357
0.000000 0.754711 0.660211
0.000000 0.753314 0.706064
0.000000 0.751918 0.751918
0.000000 0.750521 0.797771
0.000000 0.749125 0.843625
0.000000 0.747728 0.889478
0.000000 0.746332 0.935332
0.000000 0.744935 0.981185
0.000000 0.743539 1.000000
0.000000 0.742142 1.000000
0.000000 0.740746 1.000000
0.000000 0.739349 1.000000
0.000000 0.737953 1.000000
0.000000 0.736556 1.000000
0.000000 0.821304 0.000000
0.000000 0.819907 0.000000
0.000000 0.818511 0.000000
0.000000 0.817114 0.000000
0.000000 0.815717 0.000000
0.000000 0.814321 0.011071
0.000000 0.812925 0.056924
0.000000 0.811528 0.102778
0.000000 0.810132 0.148631
0.000000 0.808735 0.194485
0.000000 0.807339 0.240338
0.000000 0.805942 0.286192
0.000000 0.804546 0.332045
0.000000 0.803149 0.377899
0.000000 0.801753 0.423752
0.000000 0.800356 0.469606
0.000000 0.798960 0.515460
0.000000 0.797563 0.561313
0.000000 0.796166 0.607167
0.000000 0.794770 0.653020
0.000000 0.793374 0.698874
0.000000 0.791977 0.744727
0.000000 0.790581 0.790581
0.000000 0.789184 0.836434
0.000000 0.787788 0.882288
0.000000 0.786391 0.928141
0.000000 0.784995 0.973995
0.000000 0.783598 1.000000
0.000000 0.782201 1.000000
0.000000 0.780805 1.000000
0.000000 0.779409 1.000000
0.000000 0.778012 1.000000
0.000000 0.776616 1.000000
0.000000 0.861363 0.000000
0.000000 0.859966 0.000000
0.000000 0.858570 0.000000
0.000000 0.857173 0.000000
0.000000 0.855777 0.000000
0.000000 0.854380 0.003880
0.000000 0.852984 0.049734
0.000000 0.851587 0.095587
0.000000 0.850191 0.141441
0.000000 0.848794 0.187294
0.000000 0.847398 0.233148
0.000000 0.846001 0.279001
0.000000 0.844605 0.324855
0.000000 0.843208 0.370708
0.000000 0.841812 0.416562
0.000000 0.840415 0.462415
0.000000 0.839019 0.508269
0.000000 0.837622 0.554122
0.000000 0.836226 0.599976
0.000000 0.834829 0.645829
0.000000 0.833433 0.691683
0.000000 0.832036 0.737536
0.000000 0.830640 0.783390
0.000000 0.829243 0.829243
0.000000 0.827847 0.875097
0.000000 0.826450 0.920950
0.000000 0.825054 0.966804
0.000000 0.823657 1.000000
0.000000 0.822261 1.000000
0.000000 0.820864 1.000000
0.000000 0.819468 1.000000
0.000000 0.818071 1.000000
0.000000 0.816675 1.000000
0.000000 0.901422 0.000000
0.000000 0.900026 0.000000
0.000000 0.898629 0.000000
0.000000 0.897232 0.000000
0.000000 0.895836 0.000000
0.000000 0.894440 0.000000
0.000000 0.893043 0.042543
0.000000 0.891647 0.088396
0.000000 0.890250 0.134250
0.000000 0.888854 0.180103
0.000000 0.887457 0.225957
0.000000 0.886061 0.271810
0.000000 0.884664 0.317664
0.000000 0.883268 0.363517
0.000000 0.881871 0.409371
0.000000 0.880475 0.455225
0.000000 0.879078 0.501078
0.000000 0.877682 0.546932
0.000000 0.876285 0.592785
0.000000 0.874889 0.638639
0.000000 0.873492 0.684492
0.000000 0.872096 0.730345
0.000000 0.870699 0.776199
0.000000 0.869303 0.822053
0.000000 0.867906 0.867906
0.000000 0.866510 0.913760
0.000000 0.865113 0.959613
0.000000 0.863716 1.000000
0.000000 0.862320 1.000000
0.000000 0.860924 1.000000
0.000000 0.859527 1.000000
0.000000 0.858131 1.000000
0.000000 0.856734 1.000000
0.000000 0.941481 0.000000
0.000000 0.940085 0.000000
0.000000 0.938688 0.000000
0.000000 0.937292 0.000000
0.000000 0.935895 0.000000
0.000000 0.934499 0.000000
0.000000 0.933102 0.035352
0.000000 0.931706 0.081206
0.000000 0.930309 0.127059
0.000000 0.928913 0.172913
0.000000 0.927516 0.218766
0.000000 0.926120 0.264620
0.000000 0.924723 0.310473
0.000000 0.923327 0.356327
0.000000 0.921930 0.402180
0.000000 0.920534 0.448034
0.000000 0.919137 0.493887
0.000000 0.917741 0.539741
0.000000 0.916344 0.585594
0.000000 0.914948 0.631448
0.000000 0.913551 0.677301
0.000000 0.912155 0.723155
0.000000 0.910758 0.769008
0.000000 0.909362 0.814862
0.000000 0.907965 0.860715
0.000000 0.906569 0.906569
0.000000 0.905172 0.952422
0.000000 0.903776 0.998276
0.000000 0.902379 1.000000
0.000000 0.900983 1.000000
0.000000 0.899586 1.000000
0.000000 0.898190 1.000000
0.000000 0.896793 1.000000
0.000000 0.981541 0.000000
0.000000 0.980144 0.000000
0.000000 0.978748 0.000000
0.000000 0.977351 0.000000
0.000000 0.975955 0.000000
0.000000 0.974558 0.000000
0.000000 0.973162 0.028161
0.000000 0.971765 0.074015
0.000000 0.970369 0.119868
0.000000 0.968972 0.165722
0.000000 0.967576 0.211575
0.000000 0.966179 0.257429
0.000000 0.964782 0.303283
0.000000 0.963386 0.349136
0.000000 0.961990 0.394989
0.000000 0.960593 0.440843
0.000000 0.959197 0.486697
0.000000 0.957800 0.532550
0.000000 0.956404 0.578404
0.000000 0.955007 0.624257
0.000000 0.953611 0.670111
0.000000 0.952214 0.715964
0.000000 0.950818 0.761818
0.000000 0.949421 0.807671
0.000000 0.948025 0.853525
0.000000 0.946628 0.899378
0.000000 0.945232 0.945232
0.000000 0.943835 0.991085
0.000000 0.942439 1.000000
