utils/luts/vivid.cube
TITLE "Vivid Saturated"
LUT_3D_SIZE 9
0.000000 0.000000 0.000000
0.000000 0.000000 0.123414
0.000000 0.000000 0.306828
0.000000 0.000000 0.490242
0.000000 0.000000 0.673656
0.000000 0.000000 0.857070
0.000000 0.000000 1.000000
0.000000 0.000000 1.000000
0.000000 0.000000 1.000000
0.000000 0.100237 0.000000
0.000000 0.094651 0.094651
0.000000 0.089065 0.278065
0.000000 0.083479 0.461479
0.000000 0.077893 0.644893
0.000000 0.072307 0.828307
0.000000 0.066721 1.000000
0.000000 0.061135 1.000000
0.000000 0.055549 1.000000
0.000000 0.260474 0.000000
0.000000 0.254888 0.065888
0.000000 0.249302 0.249302
0.000000 0.243716 0.432716
0.000000 0.238130 0.616130
0.000000 0.232544 0.799544
0.000000 0.226958 0.982958
0.000000 0.221372 1.000000
0.000000 0.215786 1.000000
0.000000 0.420711 0.000000
0.000000 0.415125 0.037125
0.000000 0.409539 0.220539
0.000000 0.403953 0.403953
0.000000 0.398367 0.587367
0.000000 0.392781 0.770781
0.000000 0.387195 0.954195
0.000000 0.381609 1.000000
0.000000 0.376023 1.000000
0.000000 0.580948 0.000000
0.000000 0.575362 0.008362
0.000000 0.569776 0.191776
0.000000 0.564190 0.375190
0.000000 0.558604 0.558604
0.000000 0.553018 0.742018
0.000000 0.547432 0.925432
0.000000 0.541846 1.000000
0.000000 0.536260 1.000000
0.000000 0.741185 0.000000
0.000000 0.735599 0.000000
0.000000 0.730013 0.163013
0.000000 0.724427 0.346427
0.000000 0.718841 0.529841
0.000000 0.713255 0.713255
0.000000 0.707669 0.896669
0.000000 0.702083 1.000000
0.000000 0.696497 1.000000
0.000000 0.901422 0.000000
0.000000 0.895836 0.000000
0.000000 0.890250 0.134250
0.000000 0.884664 0.317664
0.000000 0.879078 0.501078
0.000000 0.873492 0.684492
0.000000 0.867906 0.867906
0.000000 0.862320 1.000000
0.000000 0.856734 1.000000
0.000000 1.000000 0.000000
0.000000 1.000000 0.000000
0.000000 1.000000 0.105487
0.000000 1.000000 0.288901
0.000000 1.000000 0.472315
0.000000 1.000000 0.655729
0.000000 1.000000 0.839143
0.000000 1.000000 1.000000
0.000000 1.000000 1.000000
0.000000 1.000000 0.000000
0.000000 1.000000 0.000000
0.000000 1.000000 0.076724
0.000000 1.000000 0.260138
0.000000 1.000000 0.443552
0.000000 1.000000 0.626966
0.000000 1.000000 0.810380
0.000000 1.000000 0.993794
0.000000 1.000000 1.000000
0.114349 0.000000 0.000000
0.108763 0.000000 0.108763
0.103177 0.000000 0.292177
0.097591 0.000000 0.475591
0.092005 0.000000 0.659005
0.086419 0.000000 0.842419
0.080833 0.000000 1.000000
0.075247 0.000000 1.000000
0.069661 0.000000 1.000000
0.085586 0.085586 0.000000
0.080000 0.080000 0.080000
0.074414 0.074414 0.263414
0.068828 0.068828 0.446828
0.063242 0.063242 0.630242
0.057656 0.057656 0.813656
0.052070 0.052070 0.997070
0.046484 0.046484 1.000000
0.040898 0.040898 1.000000
0.056823 0.245823 0.000000
0.051237 0.240237 0.051237
0.045651 0.234651 0.234651
0.040065 0.229065 0.418065
0.034479 0.223479 0.601479
0.028893 0.217893 0.784893
0.023307 0.212307 0.968307
0.017721 0.206721 1.000000
0.012135 0.201135 1.000000
0.028060 0.406060 0.000000
0.022474 0.400474 0.022474
0.016888 0.394888 0.205888
0.011302 0.389302 0.389302
0.005716 0.383716 0.572716
0.000130 0.378130 0.756130
0.000000 0.372544 0.939544
0.000000 0.366958 1.000000
0.000000 0.361372 1.000000
0.000000 0.566297 0.000000
0.000000 0.560711 0.000000
0.000000 0.555125 0.177125
0.000000 0.549539 0.360539
0.000000 0.543953 0.543953
0.000000 0.538367 0.727367
0.000000 0.532781 0.910781
0.000000 0.527195 1.000000
0.000000 0.521609 1.000000
0.000000 0.726534 0.000000
0.000000 0.720948 0.000000
0.000000 0.715362 0.148362
0.000000 0.709776 0.331776
0.000000 0.704190 0.515190
0.000000 0.698604 0.698604
0.000000 0.693018 0.882018
0.000000 0.687432 1.000000
0.000000 0.681846 1.000000
0.000000 0.886771 0.000000
0.000000 0.881185 0.000000
0.000000 0.875599 0.119599
0.000000 0.870013 0.303013
0.000000 0.864427 0.486427
0.000000 0.858841 0.669841
0.000000 0.853255 0.853255
0.000000 0.847669 1.000000
0.000000 0.842083 1.000000
0.000000 1.000000 0.000000
0.000000 1.000000 0.000000
0.000000 1.000000 0.090836
0.000000 1.000000 0.274250
0.000000 1.000000 0.457664
0.000000 1.000000 0.641078
0.000000 1.000000 0.824492
0.000000 1.000000 1.000000
0.000000 1.000000 1.000000
0.000000 1.000000 0.000000
0.000000 1.000000 0.000000
0.000000 1.000000 0.062073
0.000000 1.000000 0.245487
0.000000 1.000000 0.428901
0.000000 1.000000 0.612315
0.000000 1.000000 0.795729
0.000000 1.000000 0.979143
0.000000 1.000000 1.000000
0.288698 0.000000 0.000000
0.283112 0.000000 0.094112
0.277526 0.000000 0.277526
0.271940 0.000000 0.460940
0.266354 0.000000 0.644354
0.260768 0.000000 0.827768
0.255182 0.000000 1.000000
0.249596 0.000000 1.000000
0.244010 0.000000 1.000000
0.259935 0.070935 0.000000
0.254349 0.065349 0.065349
0.248763 0.059763 0.248763
0.243177 0.054177 0.432177
0.237591 0.048591 0.615591
0.232005 0.043005 0.799005
0.226419 0.037419 0.982419
0.220833 0.031833 1.000000
0.215247 0.026247 1.000000
0.231172 0.231172 0.000000
0.225586 0.225586 0.036586
0.220000 0.220000 0.220000
0.214414 0.214414 0.403414
0.208828 0.208828 0.586828
0.203242 0.203242 0.770242
0.197656 0.197656 0.953656
0.192070 0.192070 1.000000
0.186484 0.186484 1.000000
0.202409 0.391409 0.000000
0.196823 0.385823 0.007823
0.191237 0.380237 0.191237
0.185651 0.374651 0.374651
0.180065 0.369065 0.558065
0.174479 0.363479 0.741479
0.168893 0.357893 0.924893
0.163307 0.352307 1.000000
0.157721 0.346721 1.000000
0.173646 0.551646 0.000000
0.168060 0.546060 0.000000
0.162474 0.540474 0.162474
0.156888 0.534888 0.345888
0.151302 0.529302 0.529302
0.145716 0.523716 0.712716
0.140130 0.518130 0.896130
0.134544 0.512544 1.000000
0.128958 0.506958 1.000000
0.144883 0.711883 0.000000
0.139297 0.706297 0.000000
0.133711 0.700711 0.133711
0.128125 0.695125 0.317125
0.122539 0.689539 0.500539
0.116953 0.683953 0.683953
0.111367 0.678367 0.867367
0.105781 0.672781 1.000000
0.100195 0.667195 1.000000
0.116120 0.872120 0.000000
0.110534 0.866534 0.000000
0.104948 0.860948 0.104948
0.099362 0.855362 0.288362
0.093776 0.849776 0.471776
0.088190 0.844190 0.655190
0.082604 0.838604 0.838604
0.077018 0.833018 1.000000
0.071432 0.827432 1.000000
0.087357 1.000000 0.000000
0.081771 1.000000 0.000000
0.076185 1.000000 0.076185
0.070599 1.000000 0.259599
0.065013 1.000000 0.443013
0.059427 1.000000 0.626427
0.053841 0.998841 0.809841
0.048255 0.993255 0.993255
0.042669 0.987669 1.000000
0.058594 1.000000 0.000000
0.053008 1.000000 0.000000
0.047422 1.000000 0.047422
0.041836 1.000000 0.230836
0.036250 1.000000 0.414250
0.030664 1.000000 0.597664
0.025078 1.000000 0.781078
0.019492 1.000000 0.964492
0.013906 1.000000 1.000000
0.463047 0.000000 0.000000
0.457461 0.000000 0.079461
0.451875 0.000000 0.262875
0.446289 0.000000 0.446289
0.440703 0.000000 0.629703
0.435117 0.000000 0.813117
0.429531 0.000000 0.996531
0.423945 0.000000 1.000000
0.418359 0.000000 1.000000
0.434284 0.056284 0.000000
0.428698 0.050698 0.050698
0.423112 0.045112 0.234112
0.417526 0.039526 0.417526
0.411940 0.033940 0.600940
0.406354 0.028354 0.784354
0.400768 0.022768 0.967768
0.395182 0.017182 1.000000
0.389596 0.011596 1.000000
0.405521 0.216521 0.000000
0.399935 0.210935 0.021935
0.394349 0.205349 0.205349
0.388763 0.199763 0.388763
0.383177 0.194177 0.572177
0.377591 0.188591 0.755591
0.372005 0.183005 0.939005
0.366419 0.177419 1.000000
0.360833 0.171833 1.000000
0.376758 0.376758 0.000000
0.371172 0.371172 0.000000
0.365586 0.365586 0.176586
0.360000 0.360000 0.360000
0.354414 0.354414 0.543414
0.348828 0.348828 0.726828
0.343242 0.343242 0.910242
0.337656 0.337656 1.000000
0.332070 0.332070 1.000000
0.347995 0.536995 0.000000
0.342409 0.531409 0.000000
0.336823 0.525823 0.147823
0.331237 0.520237 0.331237
0.325651 0.514651 0.514651
0.320065 0.509065 0.698065
0.314479 0.503479 0.881479
0.308893 0.497893 1.000000
0.303307 0.492307 1.000000
0.319232 0.697232 0.000000
0.313646 0.691646 0.000000
0.308060 0.686060 0.119060
0.302474 0.680474 0.302474
0.296888 0.674888 0.485888
0.291302 0.669302 0.669302
0.285716 0.663716 0.852716
0.280130 0.658130 1.000000
0.274544 0.652544 1.000000
0.290469 0.857469 0.000000
0.284883 0.851883 0.000000
0.279297 0.846297 0.090297
0.273711 0.840711 0.273711
0.268125 0.835125 0.457125
0.262539 0.829539 0.640539
0.256953 0.823953 0.823953
0.251367 0.818367 1.000000
0.245781 0.812781 1.000000
0.261706 1.000000 0.000000
0.256120 1.000000 0.000000
0.250534 1.000000 0.061534
0.244948 1.000000 0.244948
0.239362 0.995362 0.428362
0.233776 0.989776 0.611776
0.228190 0.984190 0.795190
0.222604 0.978604 0.978604
0.217018 0.973018 1.000000
0.232943 1.000000 0.000000
0.227357 1.000000 0.000000
0.221771 1.000000 0.032771
0.216185 1.000000 0.216185
0.210599 1.000000 0.399599
0.205013 1.000000 0.583013
0.199427 1.000000 0.766427
0.193841 1.000000 0.949841
0.188255 1.000000 1.000000
0.637396 0.000000 0.000000
0.631810 0.000000 0.064810
0.626224 0.000000 0.248224
0.620638 0.000000 0.431638
0.615052 0.000000 0.615052
0.609466 0.000000 0.798466
0.603880 0.000000 0.981880
0.598294 0.000000 1.000000
0.592708 0.000000 1.000000
0.608633 0.041633 0.000000
0.603047 0.036047 0.036047
0.597461 0.030461 0.219461
0.591875 0.024875 0.402875
0.586289 0.019289 0.586289
0.580703 0.013703 0.769703
0.575117 0.008117 0.953117
0.569531 0.002531 1.000000
0.563945 0.000000 1.000000
0.579870 0.201870 0.000000
0.574284 0.196284 0.007284
0.568698 0.190698 0.190698
0.563112 0.185112 0.374112
0.557526 0.179526 0.557526
0.551940 0.173940 0.740940
0.546354 0.168354 0.924354
0.540768 0.162768 1.000000
0.535182 0.157182 1.000000
0.551107 0.362107 0.000000
0.545521 0.356521 0.000000
0.539935 0.350935 0.161935
0.534349 0.345349 0.345349
0.528763 0.339763 0.528763
0.523177 0.334177 0.712177
0.517591 0.328591 0.895591
0.512005 0.323005 1.000000
0.506419 0.317419 1.000000
0.522344 0.522344 0.000000
0.516758 0.516758 0.000000
0.511172 0.511172 0.133172
0.505586 0.505586 0.316586
0.500000 0.500000 0.500000
0.494414 0.494414 0.683414
0.488828 0.488828 0.866828
0.483242 0.483242 1.000000
0.477656 0.477656 1.000000
0.493581 0.682581 0.000000
0.487995 0.676995 0.000000
0.482409 0.671409 0.104409
0.476823 0.665823 0.287823
0.471237 0.660237 0.471237
0.465651 0.654651 0.654651
0.460065 0.649065 0.838065
0.454479 0.643479 1.000000
0.448893 0.637893 1.000000
0.464818 0.842818 0.000000
0.459232 0.837232 0.000000
0.453646 0.831646 0.075646
0.448060 0.826060 0.259060
0.442474 0.820474 0.442474
0.436888 0.814888 0.625888
0.431302 0.809302 0.809302
0.425716 0.803716 0.992716
0.420130 0.798130 1.000000
0.436055 1.000000 0.000000
0.430469 0.997469 0.000000
0.424883 0.991883 0.046883
0.419297 0.986297 0.230297
0.413711 0.980711 0.413711
0.408125 0.975125 0.597125
0.402539 0.969539 0.780539
0.396953 0.963953 0.963953
0.391367 0.958367 1.000000
0.407292 1.000000 0.000000
0.401706 1.000000 0.000000
0.396120 1.000000 0.018120
0.390534 1.000000 0.201534
0.384948 1.000000 0.384948
0.379362 1.000000 0.568362
0.373776 1.000000 0.751776
0.368190 1.000000 0.935190
0.362604 1.000000 1.000000
0.811745 0.000000 0.000000
0.806159 0.000000 0.050159
0.800573 0.000000 0.233573
0.794987 0.000000 0.416987
0.789401 0.000000 0.600401
0.783815 0.000000 0.783815
0.778229 0.000000 0.967229
0.772643 0.000000 1.000000
0.767057 0.000000 1.000000
0.782982 0.026982 0.000000
0.777396 0.021396 0.021396
0.771810 0.015810 0.204810
0.766224 0.010224 0.388224
0.760638 0.004638 0.571638
0.755052 0.000000 0.755052
0.749466 0.000000 0.938466
0.743880 0.000000 1.000000
0.738294 0.000000 1.000000
0.754219 0.187219 0.000000
0.748633 0.181633 0.000000
0.743047 0.176047 0.176047
0.737461 0.170461 0.359461
0.731875 0.164875 0.542875
0.726289 0.159289 0.726289
0.720703 0.153703 0.909703
0.715117 0.148117 1.000000
0.709531 0.142531 1.000000
0.725456 0.347456 0.000000
0.719870 0.341870 0.000000
0.714284 0.336284 0.147284
0.708698 0.330698 0.330698
0.703112 0.325112 0.514112
0.697526 0.319526 0.697526
0.691940 0.313940 0.880940
0.686354 0.308354 1.000000
0.680768 0.302768 1.000000
0.696693 0.507693 0.000000
0.691107 0.502107 0.000000
0.685521 0.496521 0.118521
0.679935 0.490935 0.301935
0.674349 0.485349 0.485349
0.668763 0.479763 0.668763
0.663177 0.474177 0.852177
0.657591 0.468591 1.000000
0.652005 0.463005 1.000000
0.667930 0.667930 0.000000
0.662344 0.662344 0.000000
0.656758 0.656758 0.089758
0.651172 0.651172 0.273172
0.645586 0.645586 0.456586
0.640000 0.640000 0.640000
0.634414 0.634414 0.823414
0.628828 0.628828 1.000000
0.623242 0.623242 1.000000
0.639167 0.828167 0.000000
0.633581 0.822581 0.000000
0.627995 0.816995 0.060995
0.622409 0.811409 0.244409
0.616823 0.805823 0.427823
0.611237 0.800237 0.611237
0.605651 0.794651 0.794651
0.600065 0.789065 0.978065
0.594479 0.783479 1.000000
0.610404 0.988404 0.000000
0.604818 0.982818 0.000000
0.599232 0.977232 0.032232
0.593646 0.971646 0.215646
0.588060 0.966060 0.399060
0.582474 0.960474 0.582474
0.576888 0.954888 0.765888
0.571302 0.949302 0.949302
0.565716 0.943716 1.000000
0.581641 1.000000 0.000000
0.576055 1.000000 0.000000
0.570469 1.000000 0.003469
0.564883 1.000000 0.186883
0.559297 1.000000 0.370297
0.553711 1.000000 0.553711
0.548125 1.000000 0.737125
0.542539 1.000000 0.920539
0.536953 1.000000 1.000000
0.986094 0.000000 0.000000
0.980508 0.000000 0.035508
0.974922 0.000000 0.218922
0.969336 0.000000 0.402336
0.963750 0.000000 0.585750
0.958164 0.000000 0.769164
0.952578 0.000000 0.952578
0.946992 0.000000 1.000000
0.941406 0.000000 1.000000
0.957331 0.012331 0.000000
0.951745 0.006745 0.006745
0.946159 0.001159 0.190159
0.940573 0.000000 0.373573
0.934987 0.000000 0.556987
0.929401 0.000000 0.740401
0.923815 0.000000 0.923815
0.918229 0.000000 1.000000
0.912643 0.000000 1.000000
0.928568 0.172568 0.000000
0.922982 0.166982 0.000000
0.917396 0.161396 0.161396
0.911810 0.155810 0.344810
0.906224 0.150224 0.528224
0.900638 0.144638 0.711638
0.895052 0.139052 0.895052
0.889466 0.133466 1.000000
0.883880 0.127880 1.000000
0.899805 0.332805 0.000000
0.894219 0.327219 0.000000
0.888633 0.321633 0.132633
0.883047 0.316047 0.316047
0.877461 0.310461 0.499461
0.871875 0.304875 0.682875
0.866289 0.299289 0.866289
0.860703 0.293703 1.000000
0.855117 0.288117 1.000000
0.871042 0.493042 0.000000
0.865456 0.487456 0.000000
0.859870 0.481870 0.103870
0.854284 0.476284 0.287284
0.848698 0.470698 0.470698
0.843112 0.465112 0.654112
0.837526 0.459526 0.837526
0.831940 0.453940 1.000000
0.826354 0.448354 1.000000
0.842279 0.653279 0.000000
0.836693 0.647693 0.000000
0.831107 0.642107 0.075107
0.825521 0.636521 0.258521
0.819935 0.630935 0.441935
0.814349 0.625349 0.625349
0.808763 0.619763 0.808763
0.803177 0.614177 0.992177
0.797591 0.608591 1.000000
0.813516 0.813516 0.000000
0.807930 0.807930 0.000000
0.802344 0.802344 0.046344
0.796758 0.796758 0.229758
0.791172 0.791172 0.413172
0.785586 0.785586 0.596586
0.780000 0.780000 0.780000
0.774414 0.774414 0.963414
0.768828 0.768828 1.000000
0.784753 0.973753 0.000000
0.779167 0.968167 0.000000
0.773581 0.962581 0.017581
0.767995 0.956995 0.200995
0.762409 0.951409 0.384409
0.756823 0.945823 0.567823
0.751237 0.940237 0.751237
0.745651 0.934651 0.934651
0.740065 0.929065 1.000000
0.755990 1.000000 0.000000
0.750404 1.000000 0.000000
0.744818 1.000000 0.000000
0.739232 1.000000 0.172232
0.733646 1.000000 0.355646
0.728060 1.000000 0.539060
0.722474 1.000000 0.722474
0.716888 1.000000 0.905888
0.711302 1.000000 1.000000
1.000000 0.000000 0.000000
1.000000 0.000000 0.020857
1.000000 0.000000 0.204271
1.000000 0.000000 0.387685
1.000000 0.000000 0.571099
1.000000 0.000000 0.754513
1.000000 0.000000 0.937927
1.000000 0.000000 1.000000
1.000000 0.000000 1.000000
1.000000 0.000000 0.000000
1.000000 0.000000 0.000000
1.000000 0.000000 0.175508
1.000000 0.000000 0.358922
1.000000 0.000000 0.542336
1.000000 0.000000 0.725750
1.000000 0.000000 0.909164
1.000000 0.000000 1.000000
1.000000 0.000000 1.000000
1.000000 0.157917 0.000000
1.000000 0.152331 0.000000
1.000000 0.146745 0.146745
1.000000 0.141159 0.330159
1.000000 0.135573 0.513573
1.000000 0.129987 0.696987
1.000000 0.124401 0.880401
1.000000 0.118815 1.000000
1.000000 0.113229 1.000000
1.000000 0.318154 0.000000
1.000000 0.312568 0.000000
1.000000 0.306982 0.117982
1.000000 0.301396 0.301396
1.000000 0.295810 0.484810
1.000000 0.290224 0.668224
1.000000 0.284638 0.851638
1.000000 0.279052 1.000000
1.000000 0.273466 1.000000
1.000000 0.478391 0.000000
1.000000 0.472805 0.000000
1.000000 0.467219 0.089219
1.000000 0.461633 0.272633
1.000000 0.456047 0.456047
1.000000 0.450461 0.639461
1.000000 0.444875 0.822875
1.000000 0.439289 1.000000
1.000000 0.433703 1.000000
1.000000 0.638628 0.000000
1.000000 0.633042 0.000000
1.000000 0.627456 0.060456
0.999870 0.621870 0.243870
0.994284 0.616284 0.427284
0.988698 0.610698 0.610698
0.983112 0.605112 0.794112
0.977526 0.599526 0.977526
0.971940 0.593940 1.000000
0.987865 0.798865 0.000000
0.982279 0.793279 0.000000
0.976693 0.787693 0.031693
0.971107 0.782107 0.215107
0.965521 0.776521 0.398521
0.959935 0.770935 0.581935
0.954349 0.765349 0.765349
0.948763 0.759763 0.948763
0.943177 0.754177 1.000000
0.959102 0.959102 0.000000
0.953516 0.953516 0.000000
0.947930 0.947930 0.002930
0.942344 0.942344 0.186344
0.936758 0.936758 0.369758
0.931172 0.931172 0.553172
0.925586 0.925586 0.736586
0.920000 0.920000 0.920000
0.914414 0.914414 1.000000
0.930339 1.000000 0.000000
0.924753 1.000000 0.000000
0.919167 1.000000 0.000000
0.913581 1.000000 0.157581
0.907995 1.000000 0.340995
0.902409 1.000000 0.524409
0.896823 1.000000 0.707823
0.891237 1.000000 0.891237
0.885651 1.000000 1.000000
1.000000 0.000000 0.000000
1.000000 0.000000 0.006206
1.000000 0.000000 0.189620
1.000000 0.000000 0.373034
1.000000 0.000000 0.556448
1.000000 0.000000 0.739862
1.000000 0.000000 0.923276
1.000000 0.000000 1.000000
1.000000 0.000000 1.000000
1.000000 0.000000 0.000000
1.000000 0.000000 0.000000
1.000000 0.000000 0.160857
1.000000 0.000000 0.344271
1.000000 0.000000 0.527685
1.000000 0.000000 0.711099
1.000000 0.000000 0.894513
1.000000 0.000000 1.000000
1.000000 0.000000 1.000000
1.000000 0.143266 0.000000
1.000000 0.137680 0.000000
1.000000 0.132094 0.132094
1.000000 0.126508 0.315508
1.000000 0.120922 0.498922
1.000000 0.115336 0.682336
1.000000 0.109750 0.865750
1.000000 0.104164 1.000000
1.000000 0.098578 1.000000
1.000000 0.303503 0.000000
1.000000 0.297917 0.000000
1.000000 0.292331 0.103331
1.000000 0.286745 0.286745
1.000000 0.281159 0.470159
1.000000 0.275573 0.653573
1.000000 0.269987 0.836987
1.000000 0.264401 1.000000
1.000000 0.258815 1.000000
1.000000 0.463740 0.000000
1.000000 0.458154 0.000000
1.000000 0.452568 0.074568
1.000000 0.446982 0.257982
1.000000 0.441396 0.441396
1.000000 0.435810 0.624810
1.000000 0.430224 0.808224
1.000000 0.424638 0.991638
1.000000 0.419052 1.000000
1.000000 0.623977 0.000000
1.000000 0.618391 0.000000
1.000000 0.612805 0.045805
1.000000 0.607219 0.229219
1.000000 0.601633 0.412633
1.000000 0.596047 0.596047
1.000000 0.590461 0.779461
1.000000 0.584875 0.962875
1.000000 0.579289 1.000000
1.000000 0.784214 0.000000
1.000000 0.778628 0.000000
1.000000 0.773042 0.017042
1.000000 0.767456 0.200456
1.000000 0.761870 0.383870
1.000000 0.756284 0.567284
1.000000 0.750698 0.750698
1.000000 0.745112 0.934112
1.000000 0.739526 1.000000
1.000000 0.944451 0.000000
1.000000 0.938865 0.000000
1.000000 0.933279 0.000000
1.000000 0.927693 0.171693
1.000000 0.922107 0.355107
1.000000 0.916521 0.538521
1.000000 0.910935 0.721935
1.000000 0.905349 0.905349
1.000000 0.899763 1.000000
1.000000 1.000000 0.000000
1.000000 1.000000 0.000000
1.000000 1.000000 0.000000
1.000000 1.000000 0.142930
1.000000 1.000000 0.326344
1.000000 1.000000 0.509758
1.000000 1.000000 0.693172
1.000000 1.000000 0.876586
1.000000 1.000000 1.000000
