utils/luts/vivid.cube
TITLE "Vivid Saturated"
LUT_3D_SIZE 5
0.000000 0.000000 0.000000
0.000000 0.000000 0.306828
0.000000 0.000000 0.673656
0.000000 0.000000 1.000000
0.000000 0.000000 1.000000
0.000000 0.260474 0.000000
0.000000 0.249302 0.249302
0.000000 0.238130 0.616130
0.000000 0.226958 0.982958
0.000000 0.215786 1.000000
0.000000 0.580948 0.000000
0.000000 0.569776 0.191776
0.000000 0.558604 0.558604
0.000000 0.547432 0.925432
0.000000 0.536260 1.000000
0.000000 0.901422 0.000000
0.000000 0.890250 0.134250
0.000000 0.879078 0.501078
0.000000 0.867906 0.867906
0.000000 0.856734 1.000000
0.000000 1.000000 0.000000
0.000000 1.000000 0.076724
0.000000 1.000000 0.443552
0.000000 1.000000 0.810380
0.000000 1.000000 1.000000
0.288698 0.000000 0.000000
0.277526 0.000000 0.277526
0.266354 0.000000 0.644354
0.255182 0.000000 1.000000
0.244010 0.000000 1.000000
0.231172 0.231172 0.000000
0.220000 0.220000 0.220000
0.208828 0.208828 0.586828
0.197656 0.197656 0.953656
0.186484 0.186484 1.000000
0.173646 0.551646 0.000000
0.162474 0.540474 0.162474
0.151302 0.529302 0.529302
0.140130 0.518130 0.896130
0.128958 0.506958 1.000000
0.116120 0.872120 0.000000
0.104948 0.860948 0.104948
0.093776 0.849776 0.471776
0.082604 0.838604 0.838604
0.071432 0.827432 1.000000
0.058594 1.000000 0.000000
0.047422 1.000000 0.047422
0.036250 1.000000 0.414250
0.025078 1.000000 0.781078
0.013906 1.000000 1.000000
0.637396 0.000000 0.000000
0.626224 0.000000 0.248224
0.615052 0.000000 0.615052
0.603880 0.000000 0.981880
0.592708 0.000000 1.000000
0.579870 0.201870 0.000000
0.568698 0.190698 0.190698
0.557526 0.179526 0.557526
0.546354 0.168354 0.924354
0.535182 0.157182 1.000000
0.522344 0.522344 0.000000
0.511172 0.511172 0.133172
0.500000 0.500000 0.500000
0.488828 0.488828 0.866828
0.477656 0.477656 1.000000
0.464818 0.842818 0.000000
0.453646 0.831646 0.075646
0.442474 0.820474 0.442474
0.431302 0.809302 0.809302
0.420130 0.798130 1.000000
0.407292 1.000000 0.000000
0.396120 1.000000 0.018120
0.384948 1.000000 0.384948
0.373776 1.000000 0.751776
0.362604 1.000000 1.000000
0.986094 0.000000 0.000000
0.974922 0.000000 0.218922
0.963750 0.000000 0.585750
0.952578 0.000000 0.952578
0.941406 0.000000 1.000000
0.928568 0.172568 0.000000
0.917396 0.161396 0.161396
0.906224 0.150224 0.528224
0.895052 0.139052 0.895052
0.883880 0.127880 1.000000
0.871042 0.493042 0.000000
0.859870 0.481870 0.103870
0.848698 0.470698 0.470698
0.837526 0.459526 0.837526
0.826354 0.448354 1.000000
0.813516 0.813516 0.000000
0.802344 0.802344 0.046344
0.791172 0.791172 0.413172
0.780000 0.780000 0.780000
0.768828 0.768828 1.000000
0.755990 1.000000 0.000000
0.744818 1.000000 0.000000
0.733646 1.000000 0.355646
0.722474 1.000000 0.722474
0.711302 1.000000 1.000000
1.000000 0.000000 0.000000
1.000000 0.000000 0.189620
1.000000 0.000000 0.556448
1.000000 0.000000 0.923276
1.000000 0.000000 1.000000
1.000000 0.143266 0.000000
1.000000 0.132094 0.132094
1.000000 0.120922 0.498922
1.000000 0.109750 0.865750
1.000000 0.098578 1.000000
1.000000 0.463740 0.000000
1.000000 0.452568 0.074568
1.000000 0.441396 0.441396
1.000000 0.430224 0.808224
1.000000 0.419052 1.000000
1.000000 0.784214 0.000000
1.000000 0.773042 0.017042
1.000000 0.761870 0.383870
1.000000 0.750698 0.750698
1.000000 0.739526 1.000000
1.000000 1.000000 0.000000
1.000000 1.000000 0.000000
1.000000 1.000000 0.326344
1.000000 1.000000 0.693172
1.000000 1.000000 1.000000
