utils/luts/warm.cube
TITLE "Warm Golden"
LUT_3D_SIZE 9
0.010074 0.000037 0.000000
0.010610 0.000305 0.107500
0.011146 0.000573 0.225000
0.011681 0.000841 0.342500
0.012217 0.001109 0.460000
0.012753 0.001377 0.577500
0.013289 0.001644 0.695000
0.013825 0.001912 0.812500
0.014360 0.002180 0.930000
0.013068 0.129034 0.000000
0.013603 0.129302 0.107500
0.014139 0.129570 0.225000
0.014675 0.129838 0.342500
0.015211 0.130105 0.460000
0.015747 0.130373 0.577500
0.016282 0.130641 0.695000
0.016818 0.130909 0.812500
0.017354 0.131177 0.930000
0.016061 0.258031 0.000000
0.016597 0.258299 0.107500
0.017133 0.258566 0.225000
0.017669 0.258834 0.342500
0.018205 0.259102 0.460000
0.018740 0.259370 0.577500
0.019276 0.259638 0.695000
0.019812 0.259906 0.812500
0.020348 0.260174 0.930000
0.019055 0.387028 0.000000
0.019591 0.387295 0.107500
0.020127 0.387563 0.225000
0.020663 0.387831 0.342500
0.021198 0.388099 0.460000
0.021734 0.388367 0.577500
0.022270 0.388635 0.695000
0.022806 0.388903 0.812500
0.023342 0.389171 0.930000
0.022049 0.516024 0.000000
0.022585 0.516292 0.107500
0.023120 0.516560 0.225000
0.023656 0.516828 0.342500
0.024192 0.517096 0.460000
0.024728 0.517364 0.577500
0.025264 0.517632 0.695000
0.025799 0.517900 0.812500
0.026335 0.518168 0.930000
0.025042 0.645021 0.000000
0.025578 0.645289 0.107500
0.026114 0.645557 0.225000
0.026650 0.645825 0.342500
0.027186 0.646093 0.460000
0.027721 0.646361 0.577500
0.028257 0.646629 0.695000
0.028793 0.646897 0.812500
0.029329 0.647164 0.930000
0.028036 0.774018 0.000000
0.028572 0.774286 0.107500
0.029108 0.774554 0.225000
0.029644 0.774822 0.342500
0.029821 0.774910 0.460000
0.029285 0.774642 0.577500
0.028749 0.774374 0.695000
0.028213 0.774107 0.812500
0.027677 0.773839 0.930000
0.028970 0.901985 0.000000
0.028434 0.901717 0.107500
0.027898 0.901449 0.225000
0.027363 0.901181 0.342500
0.026827 0.900913 0.460000
0.026291 0.900646 0.577500
0.025755 0.900378 0.695000
0.025219 0.900110 0.812500
0.024684 0.899842 0.930000
0.025976 1.000000 0.000000
0.025441 1.000000 0.107500
0.024905 1.000000 0.225000
0.024369 1.000000 0.342500
0.023833 1.000000 0.460000
0.023297 1.000000 0.577500
0.022762 1.000000 0.695000
0.022226 1.000000 0.812500
0.021690 1.000000 0.930000
0.144159 0.000829 0.000000
0.144695 0.001097 0.107500
0.145230 0.001365 0.225000
0.145766 0.001633 0.342500
0.146302 0.001901 0.460000
0.146838 0.002169 0.577500
0.147374 0.002437 0.695000
0.147909 0.002705 0.812500
0.148445 0.002973 0.930000
0.147152 0.129826 0.000000
0.147688 0.130094 0.107500
0.148224 0.130362 0.225000
0.148760 0.130630 0.342500
0.149296 0.130898 0.460000
0.149831 0.131166 0.577500
0.150367 0.131434 0.695000
0.150903 0.131701 0.812500
0.151439 0.131969 0.930000
0.150146 0.258823 0.000000
0.150682 0.259091 0.107500
0.151218 0.259359 0.225000
0.151754 0.259627 0.342500
0.152289 0.259895 0.460000
0.152825 0.260163 0.577500
0.153361 0.260430 0.695000
0.153897 0.260698 0.812500
0.154433 0.260966 0.930000
0.153140 0.387820 0.000000
0.153676 0.388088 0.107500
0.154211 0.388356 0.225000
0.154747 0.388624 0.342500
0.155283 0.388892 0.460000
0.155819 0.389159 0.577500
0.156355 0.389427 0.695000
0.156890 0.389695 0.812500
0.157426 0.389963 0.930000
0.156134 0.516817 0.000000
0.156669 0.517085 0.107500
0.157205 0.517353 0.225000
0.157741 0.517620 0.342500
0.158277 0.517888 0.460000
0.158813 0.518156 0.577500
0.159348 0.518424 0.695000
0.159884 0.518692 0.812500
0.160420 0.518960 0.930000
0.159127 0.645814 0.000000
0.159663 0.646081 0.107500
0.160199 0.646349 0.225000
0.160735 0.646617 0.342500
0.161270 0.646885 0.460000
0.161806 0.647153 0.577500
0.162342 0.647421 0.695000
0.162122 0.647311 0.812500
0.161586 0.647043 0.930000
0.162121 0.774810 0.000000
0.162343 0.774922 0.107500
0.161808 0.774654 0.225000
0.161272 0.774386 0.342500
0.160736 0.774118 0.460000
0.160200 0.773850 0.577500
0.159664 0.773582 0.695000
0.159129 0.773314 0.812500
0.158593 0.773046 0.930000
0.159885 0.901193 0.000000
0.159350 0.900925 0.107500
0.158814 0.900657 0.225000
0.158278 0.900389 0.342500
0.157742 0.900121 0.460000
0.157206 0.899853 0.577500
0.156671 0.899585 0.695000
0.156135 0.899317 0.812500
0.155599 0.899050 0.930000
0.156892 1.000000 0.000000
0.156356 1.000000 0.107500
0.155820 1.000000 0.225000
0.155284 1.000000 0.342500
0.154749 1.000000 0.460000
0.154213 1.000000 0.577500
0.153677 1.000000 0.695000
0.153141 1.000000 0.812500
0.152605 1.000000 0.930000
0.278243 0.001622 0.000000
0.278779 0.001890 0.107500
0.279315 0.002158 0.225000
0.279851 0.002425 0.342500
0.280387 0.002693 0.460000
0.280922 0.002961 0.577500
0.281458 0.003229 0.695000
0.281994 0.003497 0.812500
0.282530 0.003765 0.930000
0.281237 0.130619 0.000000
0.281773 0.130886 0.107500
0.282309 0.131154 0.225000
0.282844 0.131422 0.342500
0.283380 0.131690 0.460000
0.283916 0.131958 0.577500
0.284452 0.132226 0.695000
0.284988 0.132494 0.812500
0.285524 0.132762 0.930000
0.284231 0.259615 0.000000
0.284767 0.259883 0.107500
0.285302 0.260151 0.225000
0.285838 0.260419 0.342500
0.286374 0.260687 0.460000
0.286910 0.260955 0.577500
0.287446 0.261223 0.695000
0.287981 0.261491 0.812500
0.288517 0.261759 0.930000
0.287225 0.388612 0.000000
0.287760 0.388880 0.107500
0.288296 0.389148 0.225000
0.288832 0.389416 0.342500
0.289368 0.389684 0.460000
0.289904 0.389952 0.577500
0.290439 0.390220 0.695000
0.290975 0.390488 0.812500
0.291511 0.390755 0.930000
0.290218 0.517609 0.000000
0.290754 0.517877 0.107500
0.291290 0.518145 0.225000
0.291826 0.518413 0.342500
0.292361 0.518681 0.460000
0.292897 0.518949 0.577500
0.293433 0.519216 0.695000
0.293969 0.519484 0.812500
0.294505 0.519752 0.930000
0.293212 0.646606 0.000000
0.293748 0.646874 0.107500
0.294284 0.647142 0.225000
0.294819 0.647410 0.342500
0.294645 0.647322 0.460000
0.294109 0.647055 0.577500
0.293573 0.646787 0.695000
0.293038 0.646519 0.812500
0.292502 0.646251 0.930000
0.293794 0.774397 0.000000
0.293259 0.774129 0.107500
0.292723 0.773861 0.225000
0.292187 0.773594 0.342500
0.291651 0.773326 0.460000
0.291115 0.773058 0.577500
0.290580 0.772790 0.695000
0.290044 0.772522 0.812500
0.289508 0.772254 0.930000
0.290801 0.900400 0.000000
0.290265 0.900132 0.107500
0.289729 0.899865 0.225000
0.289193 0.899597 0.342500
0.288658 0.899329 0.460000
0.288122 0.899061 0.577500
0.287586 0.898793 0.695000
0.287050 0.898525 0.812500
0.286514 0.898257 0.930000
0.287807 1.000000 0.000000
0.287271 1.000000 0.107500
0.286735 1.000000 0.225000
0.286200 1.000000 0.342500
0.285664 1.000000 0.460000
0.285128 1.000000 0.577500
0.284592 1.000000 0.695000
0.284056 1.000000 0.812500
0.283521 1.000000 0.930000
0.412328 0.002414 0.000000
0.412864 0.002682 0.107500
0.413400 0.002950 0.225000
0.413936 0.003218 0.342500
0.414471 0.003486 0.460000
0.415007 0.003754 0.577500
0.415543 0.004021 0.695000
0.416079 0.004289 0.812500
0.416615 0.004557 0.930000
0.415322 0.131411 0.000000
0.415858 0.131679 0.107500
0.416393 0.131947 0.225000
0.416929 0.132215 0.342500
0.417465 0.132483 0.460000
0.418001 0.132750 0.577500
0.418537 0.133018 0.695000
0.419072 0.133286 0.812500
0.419608 0.133554 0.930000
0.418316 0.260408 0.000000
0.418851 0.260676 0.107500
0.419387 0.260944 0.225000
0.419923 0.261211 0.342500
0.420459 0.261479 0.460000
0.420995 0.261747 0.577500
0.421530 0.262015 0.695000
0.422066 0.262283 0.812500
0.422602 0.262551 0.930000
0.421309 0.389405 0.000000
0.421845 0.389673 0.107500
0.422381 0.389940 0.225000
0.422917 0.390208 0.342500
0.423452 0.390476 0.460000
0.423988 0.390744 0.577500
0.424524 0.391012 0.695000
0.425060 0.391280 0.812500
0.425596 0.391548 0.930000
0.424303 0.518401 0.000000
0.424839 0.518669 0.107500
0.425375 0.518937 0.225000
0.425910 0.519205 0.342500
0.426446 0.519473 0.460000
0.426982 0.519741 0.577500
0.427482 0.519991 0.695000
0.426947 0.519723 0.812500
0.426411 0.519455 0.930000
0.427297 0.647398 0.000000
0.427168 0.647334 0.107500
0.426632 0.647066 0.225000
0.426096 0.646798 0.342500
0.425560 0.646530 0.460000
0.425024 0.646262 0.577500
0.424489 0.645994 0.695000
0.423953 0.645726 0.812500
0.423417 0.645458 0.930000
0.424710 0.773605 0.000000
0.424174 0.773337 0.107500
0.423638 0.773069 0.225000
0.423102 0.772801 0.342500
0.422567 0.772533 0.460000
0.422031 0.772265 0.577500
0.421495 0.771997 0.695000
0.420959 0.771730 0.812500
0.420423 0.771462 0.930000
0.421716 0.899608 0.000000
0.421180 0.899340 0.107500
0.420644 0.899072 0.225000
0.420109 0.898804 0.342500
0.419573 0.898536 0.460000
0.419037 0.898269 0.577500
0.418501 0.898001 0.695000
0.417965 0.897733 0.812500
0.417430 0.897465 0.930000
0.418722 1.000000 0.000000
0.418187 1.000000 0.107500
0.417651 1.000000 0.225000
0.417115 1.000000 0.342500
0.416579 1.000000 0.460000
0.416043 1.000000 0.577500
0.415508 1.000000 0.695000
0.414972 1.000000 0.812500
0.414436 1.000000 0.930000
0.546413 0.003206 0.000000
0.546949 0.003474 0.107500
0.547484 0.003742 0.225000
0.548020 0.004010 0.342500
0.548556 0.004278 0.460000
0.549092 0.004546 0.577500
0.549628 0.004814 0.695000
0.550163 0.005082 0.812500
0.550699 0.005350 0.930000
0.549407 0.132203 0.000000
0.549942 0.132471 0.107500
0.550478 0.132739 0.225000
0.551014 0.133007 0.342500
0.551550 0.133275 0.460000
0.552086 0.133543 0.577500
0.552621 0.133811 0.695000
0.553157 0.134079 0.812500
0.553693 0.134346 0.930000
0.552400 0.261200 0.000000
0.552936 0.261468 0.107500
0.553472 0.261736 0.225000
0.554008 0.262004 0.342500
0.554543 0.262272 0.460000
0.555079 0.262540 0.577500
0.555615 0.262808 0.695000
0.556151 0.263075 0.812500
0.556687 0.263343 0.930000
0.555394 0.390197 0.000000
0.555930 0.390465 0.107500
0.556466 0.390733 0.225000
0.557001 0.391001 0.342500
0.557537 0.391269 0.460000
0.558073 0.391536 0.577500
0.558609 0.391804 0.695000
0.559145 0.392072 0.812500
0.559680 0.392340 0.930000
0.558388 0.519194 0.000000
0.558923 0.519462 0.107500
0.559459 0.519730 0.225000
0.559995 0.519998 0.342500
0.559469 0.519735 0.460000
0.558933 0.519467 0.577500
0.558398 0.519199 0.695000
0.557862 0.518931 0.812500
0.557326 0.518663 0.930000
0.558619 0.646809 0.000000
0.558083 0.646541 0.107500
0.557547 0.646274 0.225000
0.557011 0.646006 0.342500
0.556476 0.645738 0.460000
0.555940 0.645470 0.577500
0.555404 0.645202 0.695000
0.554868 0.644934 0.812500
0.554332 0.644666 0.930000
0.555625 0.772813 0.000000
0.555089 0.772545 0.107500
0.554553 0.772277 0.225000
0.554018 0.772009 0.342500
0.553482 0.771741 0.460000
0.552946 0.771473 0.577500
0.552410 0.771205 0.695000
0.551874 0.770937 0.812500
0.551339 0.770669 0.930000
0.552631 0.898816 0.000000
0.552096 0.898548 0.107500
0.551560 0.898280 0.225000
0.551024 0.898012 0.342500
0.550488 0.897744 0.460000
0.549952 0.897476 0.577500
0.549417 0.897208 0.695000
0.548881 0.896940 0.812500
0.548345 0.896672 0.930000
0.549638 1.000000 0.000000
0.549102 1.000000 0.107500
0.548566 1.000000 0.225000
0.548030 1.000000 0.342500
0.547494 1.000000 0.460000
0.546959 1.000000 0.577500
0.546423 1.000000 0.695000
0.545887 1.000000 0.812500
0.545351 1.000000 0.930000
0.680498 0.003999 0.000000
0.681033 0.004267 0.107500
0.681569 0.004535 0.225000
0.682105 0.004802 0.342500
0.682641 0.005070 0.460000
0.683177 0.005338 0.577500
0.683712 0.005606 0.695000
0.684248 0.005874 0.812500
0.684784 0.006142 0.930000
0.683491 0.132996 0.000000
0.684027 0.133264 0.107500
0.684563 0.133531 0.225000
0.685099 0.133799 0.342500
0.685634 0.134067 0.460000
0.686170 0.134335 0.577500
0.686706 0.134603 0.695000
0.687242 0.134871 0.812500
0.687778 0.135139 0.930000
0.686485 0.261992 0.000000
0.687021 0.262260 0.107500
0.687557 0.262528 0.225000
0.688092 0.262796 0.342500
0.688628 0.263064 0.460000
0.689164 0.263332 0.577500
0.689700 0.263600 0.695000
0.690236 0.263868 0.812500
0.690771 0.264136 0.930000
0.689479 0.390989 0.000000
0.690014 0.391257 0.107500
0.690550 0.391525 0.225000
0.691086 0.391793 0.342500
0.691622 0.392061 0.460000
0.692158 0.392329 0.577500
0.692307 0.392403 0.695000
0.691771 0.392135 0.812500
0.691235 0.391867 0.930000
0.692472 0.519986 0.000000
0.691992 0.519746 0.107500
0.691456 0.519478 0.225000
0.690920 0.519210 0.342500
0.690385 0.518942 0.460000
0.689849 0.518674 0.577500
0.689313 0.518406 0.695000
0.688777 0.518139 0.812500
0.688241 0.517871 0.930000
0.689534 0.646017 0.000000
0.688998 0.645749 0.107500
0.688462 0.645481 0.225000
0.687927 0.645213 0.342500
0.687391 0.644945 0.460000
0.686855 0.644677 0.577500
0.686319 0.644410 0.695000
0.685783 0.644142 0.812500
0.685248 0.643874 0.930000
0.686540 0.772020 0.000000
0.686005 0.771752 0.107500
0.685469 0.771484 0.225000
0.684933 0.771216 0.342500
0.684397 0.770949 0.460000
0.683861 0.770681 0.577500
0.683326 0.770413 0.695000
0.682790 0.770145 0.812500
0.682254 0.769877 0.930000
0.683547 0.898023 0.000000
0.683011 0.897755 0.107500
0.682475 0.897488 0.225000
0.681939 0.897220 0.342500
0.681403 0.896952 0.460000
0.680868 0.896684 0.577500
0.680332 0.896416 0.695000
0.679796 0.896148 0.812500
0.679260 0.895880 0.930000
0.680553 1.000000 0.000000
0.680017 1.000000 0.107500
0.679481 1.000000 0.225000
0.678946 1.000000 0.342500
0.678410 1.000000 0.460000
0.677874 1.000000 0.577500
0.677338 1.000000 0.695000
0.676802 1.000000 0.812500
0.676267 1.000000 0.930000
0.814582 0.004791 0.000000
0.815118 0.005059 0.107500
0.815654 0.005327 0.225000
0.816190 0.005595 0.342500
0.816725 0.005863 0.460000
0.817261 0.006131 0.577500
0.817797 0.006399 0.695000
0.818333 0.006666 0.812500
0.818869 0.006934 0.930000
0.817576 0.133788 0.000000
0.818112 0.134056 0.107500
0.818648 0.134324 0.225000
0.819183 0.134592 0.342500
0.819719 0.134860 0.460000
0.820255 0.135127 0.577500
0.820791 0.135395 0.695000
0.821327 0.135663 0.812500
0.821862 0.135931 0.930000
0.820570 0.262785 0.000000
0.821105 0.263053 0.107500
0.821641 0.263321 0.225000
0.822177 0.263589 0.342500
0.822713 0.263856 0.460000
0.823249 0.264124 0.577500
0.823784 0.264392 0.695000
0.824320 0.264660 0.812500
0.824856 0.264928 0.930000
0.823563 0.391782 0.000000
0.824099 0.392050 0.107500
0.824635 0.392317 0.225000
0.824829 0.392415 0.342500
0.824294 0.392147 0.460000
0.823758 0.391879 0.577500
0.823222 0.391611 0.695000
0.822686 0.391343 0.812500
0.822150 0.391075 0.930000
0.823443 0.519222 0.000000
0.822907 0.518954 0.107500
0.822371 0.518686 0.225000
0.821836 0.518418 0.342500
0.821300 0.518150 0.460000
0.820764 0.517882 0.577500
0.820228 0.517614 0.695000
0.819692 0.517346 0.812500
0.819157 0.517078 0.930000
0.820449 0.645225 0.000000
0.819914 0.644957 0.107500
0.819378 0.644689 0.225000
0.818842 0.644421 0.342500
0.818306 0.644153 0.460000
0.817770 0.643885 0.577500
0.817235 0.643617 0.695000
0.816699 0.643349 0.812500
0.816163 0.643081 0.930000
0.817456 0.771228 0.000000
0.816920 0.770960 0.107500
0.816384 0.770692 0.225000
0.815848 0.770424 0.342500
0.815312 0.770156 0.460000
0.814777 0.769888 0.577500
0.814241 0.769620 0.695000
0.813705 0.769352 0.812500
0.813169 0.769085 0.930000
0.814462 0.897231 0.000000
0.813926 0.896963 0.107500
0.813390 0.896695 0.225000
0.812855 0.896427 0.342500
0.812319 0.896159 0.460000
0.811783 0.895891 0.577500
0.811247 0.895624 0.695000
0.810711 0.895356 0.812500
0.810176 0.895088 0.930000
0.811468 1.000000 0.000000
0.810932 1.000000 0.107500
0.810397 1.000000 0.225000
0.809861 1.000000 0.342500
0.809325 1.000000 0.460000
0.808789 1.000000 0.577500
0.808253 1.000000 0.695000
0.807718 1.000000 0.812500
0.807182 1.000000 0.930000
0.948667 0.005583 0.000000
0.949203 0.005851 0.107500
0.949739 0.006119 0.225000
0.950274 0.006387 0.342500
0.950810 0.006655 0.460000
0.951346 0.006923 0.577500
0.951882 0.007191 0.695000
0.952418 0.007459 0.812500
0.952953 0.007727 0.930000
0.951661 0.134580 0.000000
0.952196 0.134848 0.107500
0.952732 0.135116 0.225000
0.953268 0.135384 0.342500
0.953804 0.135652 0.460000
0.954340 0.135920 0.577500
0.954875 0.136188 0.695000
0.955411 0.136456 0.812500
0.955947 0.136723 0.930000
0.954654 0.263577 0.000000
0.955190 0.263845 0.107500
0.955726 0.264113 0.225000
0.956262 0.264381 0.342500
0.956797 0.264649 0.460000
0.957333 0.264917 0.577500
0.957131 0.264815 0.695000
0.956595 0.264548 0.812500
0.956059 0.264280 0.930000
0.957352 0.392426 0.000000
0.956816 0.392158 0.107500
0.956280 0.391890 0.225000
0.955745 0.391622 0.342500
0.955209 0.391354 0.460000
0.954673 0.391087 0.577500
0.954137 0.390819 0.695000
0.953601 0.390551 0.812500
0.953066 0.390283 0.930000
0.954358 0.518429 0.000000
0.953823 0.518161 0.107500
0.953287 0.517893 0.225000
0.952751 0.517625 0.342500
0.952215 0.517358 0.460000
0.951679 0.517090 0.577500
0.951144 0.516822 0.695000
0.950608 0.516554 0.812500
0.950072 0.516286 0.930000
0.951365 0.644432 0.000000
0.950829 0.644164 0.107500
0.950293 0.643896 0.225000
0.949757 0.643629 0.342500
0.949221 0.643361 0.460000
0.948686 0.643093 0.577500
0.948150 0.642825 0.695000
0.947614 0.642557 0.812500
0.947078 0.642289 0.930000
0.948371 0.770435 0.000000
0.947835 0.770168 0.107500
0.947299 0.769900 0.225000
0.946763 0.769632 0.342500
0.946228 0.769364 0.460000
0.945692 0.769096 0.577500
0.945156 0.768828 0.695000
0.944620 0.768560 0.812500
0.944084 0.768292 0.930000
0.945377 0.896439 0.000000
0.944841 0.896171 0.107500
0.944306 0.895903 0.225000
0.943770 0.895635 0.342500
0.943234 0.895367 0.460000
0.942698 0.895099 0.577500
0.942162 0.894831 0.695000
0.941627 0.894563 0.812500
0.941091 0.894295 0.930000
0.942384 1.000000 0.000000
0.941848 1.000000 0.107500
0.941312 1.000000 0.225000
0.940776 1.000000 0.342500
0.940240 1.000000 0.460000
0.939705 1.000000 0.577500
0.939169 1.000000 0.695000
0.938633 1.000000 0.812500
0.938097 1.000000 0.930000
1.000000 0.006376 0.000000
1.000000 0.006644 0.107500
1.000000 0.006912 0.225000
1.000000 0.007180 0.342500
1.000000 0.007447 0.460000
1.000000 0.007715 0.577500
1.000000 0.007983 0.695000
1.000000 0.008251 0.812500
1.000000 0.008519 0.930000
1.000000 0.135373 0.000000
1.000000 0.135641 0.107500
1.000000 0.135908 0.225000
1.000000 0.136176 0.342500
1.000000 0.136444 0.460000
1.000000 0.136712 0.577500
1.000000 0.136980 0.695000
1.000000 0.137248 0.812500
1.000000 0.137484 0.930000
1.000000 0.264369 0.000000
1.000000 0.264637 0.107500
1.000000 0.264905 0.225000
1.000000 0.264827 0.342500
1.000000 0.264559 0.460000
1.000000 0.264291 0.577500
1.000000 0.264023 0.695000
1.000000 0.263755 0.812500
1.000000 0.263487 0.930000
1.000000 0.391634 0.000000
1.000000 0.391366 0.107500
1.000000 0.391098 0.225000
1.000000 0.390830 0.342500
1.000000 0.390562 0.460000
1.000000 0.390294 0.577500
1.000000 0.390026 0.695000
1.000000 0.389758 0.812500
1.000000 0.389490 0.930000
1.000000 0.517637 0.000000
1.000000 0.517369 0.107500
1.000000 0.517101 0.225000
1.000000 0.516833 0.342500
1.000000 0.516565 0.460000
1.000000 0.516297 0.577500
1.000000 0.516029 0.695000
1.000000 0.515761 0.812500
1.000000 0.515494 0.930000
1.000000 0.643640 0.000000
1.000000 0.643372 0.107500
1.000000 0.643104 0.225000
1.000000 0.642836 0.342500
1.000000 0.642568 0.460000
1.000000 0.642300 0.577500
1.000000 0.642033 0.695000
1.000000 0.641765 0.812500
1.000000 0.641497 0.930000
1.000000 0.769643 0.000000
1.000000 0.769375 0.107500
1.000000 0.769107 0.225000
1.000000 0.768839 0.342500
1.000000 0.768571 0.460000
1.000000 0.768304 0.577500
1.000000 0.768036 0.695000
1.000000 0.767768 0.812500
1.000000 0.767500 0.930000
1.000000 0.895646 0.000000
1.000000 0.895378 0.107500
1.000000 0.895110 0.225000
1.000000 0.894843 0.342500
1.000000 0.894575 0.460000
1.000000 0.894307 0.577500
1.000000 0.894039 0.695000
1.000000 0.893771 0.812500
1.000000 0.893503 0.930000
1.000000 1.000000 0.000000
1.000000 1.000000 0.107500
1.000000 1.000000 0.225000
1.000000 1.000000 0.342500
1.000000 1.000000 0.460000
1.000000 1.000000 0.577500
1.000000 1.000000 0.695000
1.000000 1.000000 0.812500
1.000000 1.000000 0.930000
