utils/luts/warm.cube
TITLE "Warm Golden"
LUT_3D_SIZE 5
0.010074 0.000037 0.000000
0.011146 0.000573 0.225000
0.012217 0.001109 0.460000
0.013289 0.001644 0.695000
0.014360 0.002180 0.930000
0.016061 0.258031 0.000000
0.017133 0.258566 0.225000
0.018205 0.259102 0.460000
0.019276 0.259638 0.695000
0.020348 0.260174 0.930000
0.022049 0.516024 0.000000
0.023120 0.516560 0.225000
0.024192 0.517096 0.460000
0.025264 0.517632 0.695000
0.026335 0.518168 0.930000
0.028036 0.774018 0.000000
0.029108 0.774554 0.225000
0.029821 0.774910 0.460000
0.028749 0.774374 0.695000
0.027677 0.773839 0.930000
0.025976 1.000000 0.000000
0.024905 1.000000 0.225000
0.023833 1.000000 0.460000
0.022762 1.000000 0.695000
0.021690 1.000000 0.930000
0.278243 0.001622 0.000000
0.279315 0.002158 0.225000
0.280387 0.002693 0.460000
0.281458 0.003229 0.695000
0.282530 0.003765 0.930000
0.284231 0.259615 0.000000
0.285302 0.260151 0.225000
0.286374 0.260687 0.460000
0.287446 0.261223 0.695000
0.288517 0.261759 0.930000
0.290218 0.517609 0.000000
0.291290 0.518145 0.225000
0.292361 0.518681 0.460000
0.293433 0.519216 0.695000
0.294505 0.519752 0.930000
0.293794 0.774397 0.000000
0.292723 0.773861 0.225000
0.291651 0.773326 0.460000
0.290580 0.772790 0.695000
0.289508 0.772254 0.930000
0.287807 1.000000 0.000000
0.286735 1.000000 0.225000
0.285664 1.000000 0.460000
0.284592 1.000000 0.695000
0.283521 1.000000 0.930000
0.546413 0.003206 0.000000
0.547484 0.003742 0.225000
0.548556 0.004278 0.460000
0.549628 0.004814 0.695000
0.550699 0.005350 0.930000
0.552400 0.261200 0.000000
0.553472 0.261736 0.225000
0.554543 0.262272 0.460000
0.555615 0.262808 0.695000
0.556687 0.263343 0.930000
0.558388 0.519194 0.000000
0.559459 0.519730 0.225000
0.559469 0.519735 0.460000
0.558398 0.519199 0.695000
0.557326 0.518663 0.930000
0.555625 0.772813 0.000000
0.554553 0.772277 0.225000
0.553482 0.771741 0.460000
0.552410 0.771205 0.695000
0.551339 0.770669 0.930000
0.549638 1.000000 0.000000
0.548566 1.000000 0.225000
0.547494 1.000000 0.460000
0.546423 1.000000 0.695000
0.545351 1.000000 0.930000
0.814582 0.004791 0.000000
0.815654 0.005327 0.225000
0.816725 0.005863 0.460000
0.817797 0.006399 0.695000
0.818869 0.006934 0.930000
0.820570 0.262785 0.000000
0.821641 0.263321 0.225000
0.822713 0.263856 0.460000
0.823784 0.264392 0.695000
0.824856 0.264928 0.930000
0.823443 0.519222 0.000000
0.822371 0.518686 0.225000
0.821300 0.518150 0.460000
0.820228 0.517614 0.695000
0.819157 0.517078 0.930000
0.817456 0.771228 0.000000
0.816384 0.770692 0.225000
0.815312 0.770156 0.460000
0.814241 0.769620 0.695000
0.813169 0.769085 0.930000
0.811468 1.000000 0.000000
0.810397 1.000000 0.225000
0.809325 1.000000 0.460000
0.808253 1.000000 0.695000
0.807182 1.000000 0.930000
1.000000 0.006376 0.000000
1.000000 0.006912 0.225000
1.000000 0.007447 0.460000
1.000000 0.007983 0.695000
1.000000 0.008519 0.930000
1.000000 0.264369 0.000000
1.000000 0.264905 0.225000
1.000000 0.264559 0.460000
1.000000 0.264023 0.695000
1.000000 0.263487 0.930000
1.000000 0.517637 0.000000
1.000000 0.517101 0.225000
1.000000 0.516565 0.460000
1.000000 0.516029 0.695000
1.000000 0.515494 0.930000
1.000000 0.769643 0.000000
1.000000 0.769107 0.225000
1.000000 0.768571 0.460000
1.000000 0.768036 0.695000
1.000000 0.767500 0.930000
1.000000 1.000000 0.000000
1.000000 1.000000 0.225000
1.000000 1.000000 0.460000
1.000000 1.000000 0.695000
1.000000 1.000000 0.930000
