utils/luts/warm.cube
TITLE "Warm Golden"
LUT_3D_SIZE 33
0.010074 0.000037 0.000000
0.010208 0.000104 0.019375
0.010342 0.000171 0.048750
0.010476 0.000238 0.078125
0.010610 0.000305 0.107500
0.010744 0.000372 0.136875
0.010878 0.000439 0.166250
0.011012 0.000506 0.195625
0.011146 0.000573 0.225000
0.011280 0.000640 0.254375
0.011414 0.000707 0.283750
0.011547 0.000774 0.313125
0.011681 0.000841 0.342500
0.011815 0.000908 0.371875
0.011949 0.000975 0.401250
0.012083 0.001042 0.430625
0.012217 0.001109 0.460000
0.012351 0.001176 0.489375
0.012485 0.001243 0.518750
0.012619 0.001310 0.548125
0.012753 0.001377 0.577500
0.012887 0.001443 0.606875
0.013021 0.001510 0.636250
0.013155 0.001577 0.665625
0.013289 0.001644 0.695000
0.013423 0.001711 0.724375
0.013557 0.001778 0.753750
0.013691 0.001845 0.783125
0.013825 0.001912 0.812500
0.013959 0.001979 0.841875
0.014093 0.002046 0.871250
0.014226 0.002113 0.900625
0.014360 0.002180 0.930000
0.010822 0.032286 0.000000
0.010956 0.032353 0.019375
0.011090 0.032420 0.048750
0.011224 0.032487 0.078125
0.011358 0.032554 0.107500
0.011492 0.032621 0.136875
0.011626 0.032688 0.166250
0.011760 0.032755 0.195625
0.011894 0.032822 0.225000
0.012028 0.032889 0.254375
0.012162 0.032956 0.283750
0.012296 0.033023 0.313125
0.012430 0.033090 0.342500
0.012564 0.033157 0.371875
0.012698 0.033224 0.401250
0.012832 0.033291 0.430625
0.012966 0.033358 0.460000
0.013100 0.033425 0.489375
0.013234 0.033492 0.518750
0.013367 0.033559 0.548125
0.013501 0.033626 0.577500
0.013635 0.033693 0.606875
0.013769 0.033760 0.636250
0.013903 0.033827 0.665625
0.014037 0.033894 0.695000
0.014171 0.033961 0.724375
0.014305 0.034028 0.753750
0.014439 0.034095 0.783125
0.014573 0.034162 0.812500
0.014707 0.034228 0.841875
0.014841 0.034295 0.871250
0.014975 0.034362 0.900625
0.015109 0.034429 0.930000
0.011571 0.064535 0.000000
0.011705 0.064602 0.019375
0.011839 0.064669 0.048750
0.011973 0.064736 0.078125
0.012107 0.064803 0.107500
0.012241 0.064870 0.136875
0.012375 0.064937 0.166250
0.012509 0.065004 0.195625
0.012642 0.065071 0.225000
0.012776 0.065138 0.254375
0.012910 0.065205 0.283750
0.013044 0.065272 0.313125
0.013178 0.065339 0.342500
0.013312 0.065406 0.371875
0.013446 0.065473 0.401250
0.013580 0.065540 0.430625
0.013714 0.065607 0.460000
0.013848 0.065674 0.489375
0.013982 0.065741 0.518750
0.014116 0.065808 0.548125
0.014250 0.065875 0.577500
0.014384 0.065942 0.606875
0.014518 0.066009 0.636250
0.014652 0.066076 0.665625
0.014786 0.066143 0.695000
0.014920 0.066210 0.724375
0.015054 0.066277 0.753750
0.015187 0.066344 0.783125
0.015321 0.066411 0.812500
0.015455 0.066478 0.841875
0.015589 0.066545 0.871250
0.015723 0.066612 0.900625
0.015857 0.066679 0.930000
0.012319 0.096785 0.000000
0.012453 0.096852 0.019375
0.012587 0.096919 0.048750
0.012721 0.096986 0.078125
0.012855 0.097053 0.107500
0.012989 0.097120 0.136875
0.013123 0.097186 0.166250
0.013257 0.097253 0.195625
0.013391 0.097320 0.225000
0.013525 0.097387 0.254375
0.013659 0.097454 0.283750
0.013793 0.097521 0.313125
0.013927 0.097588 0.342500
0.014061 0.097655 0.371875
0.014195 0.097722 0.401250
0.014329 0.097789 0.430625
0.014462 0.097856 0.460000
0.014596 0.097923 0.489375
0.014730 0.097990 0.518750
0.014864 0.098057 0.548125
0.014998 0.098124 0.577500
0.015132 0.098191 0.606875
0.015266 0.098258 0.636250
0.015400 0.098325 0.665625
0.015534 0.098392 0.695000
0.015668 0.098459 0.724375
0.015802 0.098526 0.753750
0.015936 0.098593 0.783125
0.016070 0.098660 0.812500
0.016204 0.098727 0.841875
0.016338 0.098794 0.871250
0.016472 0.098861 0.900625
0.016606 0.098928 0.930000
0.013068 0.129034 0.000000
0.013202 0.129101 0.019375
0.013336 0.129168 0.048750
0.013470 0.129235 0.078125
0.013603 0.129302 0.107500
0.013737 0.129369 0.136875
0.013871 0.129436 0.166250
0.014005 0.129503 0.195625
0.014139 0.129570 0.225000
0.014273 0.129637 0.254375
0.014407 0.129704 0.283750
0.014541 0.129771 0.313125
0.014675 0.129838 0.342500
0.014809 0.129905 0.371875
0.014943 0.129971 0.401250
0.015077 0.130038 0.430625
0.015211 0.130105 0.460000
0.015345 0.130172 0.489375
0.015479 0.130239 0.518750
0.015613 0.130306 0.548125
0.015747 0.130373 0.577500
0.015881 0.130440 0.606875
0.016015 0.130507 0.636250
0.016149 0.130574 0.665625
0.016282 0.130641 0.695000
0.016416 0.130708 0.724375
0.016550 0.130775 0.753750
0.016684 0.130842 0.783125
0.016818 0.130909 0.812500
0.016952 0.130976 0.841875
0.017086 0.131043 0.871250
0.017220 0.131110 0.900625
0.017354 0.131177 0.930000
0.013816 0.161283 0.000000
0.013950 0.161350 0.019375
0.014084 0.161417 0.048750
0.014218 0.161484 0.078125
0.014352 0.161551 0.107500
0.014486 0.161618 0.136875
0.014620 0.161685 0.166250
0.014754 0.161752 0.195625
0.014888 0.161819 0.225000
0.015022 0.161886 0.254375
0.015156 0.161953 0.283750
0.015290 0.162020 0.313125
0.015424 0.162087 0.342500
0.015557 0.162154 0.371875
0.015691 0.162221 0.401250
0.015825 0.162288 0.430625
0.015959 0.162355 0.460000
0.016093 0.162422 0.489375
0.016227 0.162489 0.518750
0.016361 0.162556 0.548125
0.016495 0.162623 0.577500
0.016629 0.162690 0.606875
0.016763 0.162757 0.636250
0.016897 0.162823 0.665625
0.017031 0.162890 0.695000
0.017165 0.162957 0.724375
0.017299 0.163024 0.753750
0.017433 0.163091 0.783125
0.017567 0.163158 0.812500
0.017701 0.163225 0.841875
0.017835 0.163292 0.871250
0.017969 0.163359 0.900625
0.018103 0.163426 0.930000
0.014565 0.193532 0.000000
0.014699 0.193599 0.019375
0.014832 0.193666 0.048750
0.014966 0.193733 0.078125
0.015100 0.193800 0.107500
0.015234 0.193867 0.136875
0.015368 0.193934 0.166250
0.015502 0.194001 0.195625
0.015636 0.194068 0.225000
0.015770 0.194135 0.254375
0.015904 0.194202 0.283750
0.016038 0.194269 0.313125
0.016172 0.194336 0.342500
0.016306 0.194403 0.371875
0.016440 0.194470 0.401250
0.016574 0.194537 0.430625
0.016708 0.194604 0.460000
0.016842 0.194671 0.489375
0.016976 0.194738 0.518750
0.017110 0.194805 0.548125
0.017244 0.194872 0.577500
0.017378 0.194939 0.606875
0.017511 0.195006 0.636250
0.017645 0.195073 0.665625
0.017779 0.195140 0.695000
0.017913 0.195207 0.724375
0.018047 0.195274 0.753750
0.018181 0.195341 0.783125
0.018315 0.195408 0.812500
0.018449 0.195475 0.841875
0.018583 0.195542 0.871250
0.018717 0.195608 0.900625
0.018851 0.195675 0.930000
0.015313 0.225781 0.000000
0.015447 0.225848 0.019375
0.015581 0.225915 0.048750
0.015715 0.225982 0.078125
0.015849 0.226049 0.107500
0.015983 0.226116 0.136875
0.016117 0.226183 0.166250
0.016251 0.226250 0.195625
0.016385 0.226317 0.225000
0.016519 0.226384 0.254375
0.016652 0.226451 0.283750
0.016786 0.226518 0.313125
0.016920 0.226585 0.342500
0.017054 0.226652 0.371875
0.017188 0.226719 0.401250
0.017322 0.226786 0.430625
0.017456 0.226853 0.460000
0.017590 0.226920 0.489375
0.017724 0.226987 0.518750
0.017858 0.227054 0.548125
0.017992 0.227121 0.577500
0.018126 0.227188 0.606875
0.018260 0.227255 0.636250
0.018394 0.227322 0.665625
0.018528 0.227389 0.695000
0.018662 0.227456 0.724375
0.018796 0.227523 0.753750
0.018930 0.227590 0.783125
0.019064 0.227657 0.812500
0.019198 0.227724 0.841875
0.019331 0.227791 0.871250
0.019465 0.227858 0.900625
0.019599 0.227925 0.930000
0.016061 0.258031 0.000000
0.016195 0.258098 0.019375
0.016329 0.258165 0.048750
0.016463 0.258232 0.078125
0.016597 0.258299 0.107500
0.016731 0.258366 0.136875
0.016865 0.258433 0.166250
0.016999 0.258500 0.195625
0.017133 0.258566 0.225000
0.017267 0.258633 0.254375
0.017401 0.258700 0.283750
0.017535 0.258767 0.313125
0.017669 0.258834 0.342500
0.017803 0.258901 0.371875
0.017937 0.258968 0.401250
0.018071 0.259035 0.430625
0.018205 0.259102 0.460000
0.018339 0.259169 0.489375
0.018472 0.259236 0.518750
0.018606 0.259303 0.548125
0.018740 0.259370 0.577500
0.018874 0.259437 0.606875
0.019008 0.259504 0.636250
0.019142 0.259571 0.665625
0.019276 0.259638 0.695000
0.019410 0.259705 0.724375
0.019544 0.259772 0.753750
0.019678 0.259839 0.783125
0.019812 0.259906 0.812500
0.019946 0.259973 0.841875
0.020080 0.260040 0.871250
0.020214 0.260107 0.900625
0.020348 0.260174 0.930000
0.016810 0.290280 0.000000
0.016944 0.290347 0.019375
0.017078 0.290414 0.048750
0.017212 0.290481 0.078125
0.017346 0.290548 0.107500
0.017480 0.290615 0.136875
0.017614 0.290682 0.166250
0.017747 0.290749 0.195625
0.017881 0.290816 0.225000
0.018015 0.290883 0.254375
0.018149 0.290950 0.283750
0.018283 0.291017 0.313125
0.018417 0.291084 0.342500
0.018551 0.291151 0.371875
0.018685 0.291218 0.401250
0.018819 0.291285 0.430625
0.018953 0.291352 0.460000
0.019087 0.291418 0.489375
0.019221 0.291485 0.518750
0.019355 0.291552 0.548125
0.019489 0.291619 0.577500
0.019623 0.291686 0.606875
0.019757 0.291753 0.636250
0.019891 0.291820 0.665625
0.020025 0.291887 0.695000
0.020159 0.291954 0.724375
0.020293 0.292021 0.753750
0.020426 0.292088 0.783125
0.020560 0.292155 0.812500
0.020694 0.292222 0.841875
0.020828 0.292289 0.871250
0.020962 0.292356 0.900625
0.021096 0.292423 0.930000
0.017558 0.322529 0.000000
0.017692 0.322596 0.019375
0.017826 0.322663 0.048750
0.017960 0.322730 0.078125
0.018094 0.322797 0.107500
0.018228 0.322864 0.136875
0.018362 0.322931 0.166250
0.018496 0.322998 0.195625
0.018630 0.323065 0.225000
0.018764 0.323132 0.254375
0.018898 0.323199 0.283750
0.019032 0.323266 0.313125
0.019166 0.323333 0.342500
0.019300 0.323400 0.371875
0.019434 0.323467 0.401250
0.019568 0.323534 0.430625
0.019701 0.323601 0.460000
0.019835 0.323668 0.489375
0.019969 0.323735 0.518750
0.020103 0.323802 0.548125
0.020237 0.323869 0.577500
0.020371 0.323936 0.606875
0.020505 0.324003 0.636250
0.020639 0.324070 0.665625
0.020773 0.324137 0.695000
0.020907 0.324203 0.724375
0.021041 0.324270 0.753750
0.021175 0.324337 0.783125
0.021309 0.324404 0.812500
0.021443 0.324471 0.841875
0.021577 0.324538 0.871250
0.021711 0.324605 0.900625
0.021845 0.324672 0.930000
0.018307 0.354778 0.000000
0.018441 0.354845 0.019375
0.018575 0.354912 0.048750
0.018709 0.354979 0.078125
0.018842 0.355046 0.107500
0.018976 0.355113 0.136875
0.019110 0.355180 0.166250
0.019244 0.355247 0.195625
0.019378 0.355314 0.225000
0.019512 0.355381 0.254375
0.019646 0.355448 0.283750
0.019780 0.355515 0.313125
0.019914 0.355582 0.342500
0.020048 0.355649 0.371875
0.020182 0.355716 0.401250
0.020316 0.355783 0.430625
0.020450 0.355850 0.460000
0.020584 0.355917 0.489375
0.020718 0.355984 0.518750
0.020852 0.356051 0.548125
0.020986 0.356118 0.577500
0.021120 0.356185 0.606875
0.021254 0.356252 0.636250
0.021388 0.356319 0.665625
0.021521 0.356386 0.695000
0.021655 0.356453 0.724375
0.021789 0.356520 0.753750
0.021923 0.356587 0.783125
0.022057 0.356654 0.812500
0.022191 0.356721 0.841875
0.022325 0.356788 0.871250
0.022459 0.356855 0.900625
0.022593 0.356922 0.930000
0.019055 0.387028 0.000000
0.019189 0.387095 0.019375
0.019323 0.387161 0.048750
0.019457 0.387228 0.078125
0.019591 0.387295 0.107500
0.019725 0.387362 0.136875
0.019859 0.387429 0.166250
0.019993 0.387496 0.195625
0.020127 0.387563 0.225000
0.020261 0.387630 0.254375
0.020395 0.387697 0.283750
0.020529 0.387764 0.313125
0.020663 0.387831 0.342500
0.020796 0.387898 0.371875
0.020930 0.387965 0.401250
0.021064 0.388032 0.430625
0.021198 0.388099 0.460000
0.021332 0.388166 0.489375
0.021466 0.388233 0.518750
0.021600 0.388300 0.548125
0.021734 0.388367 0.577500
0.021868 0.388434 0.606875
0.022002 0.388501 0.636250
0.022136 0.388568 0.665625
0.022270 0.388635 0.695000
0.022404 0.388702 0.724375
0.022538 0.388769 0.753750
0.022672 0.388836 0.783125
0.022806 0.388903 0.812500
0.022940 0.388970 0.841875
0.023074 0.389037 0.871250
0.023208 0.389104 0.900625
0.023342 0.389171 0.930000
0.019804 0.419277 0.000000
0.019937 0.419344 0.019375
0.020071 0.419411 0.048750
0.020205 0.419478 0.078125
0.020339 0.419545 0.107500
0.020473 0.419612 0.136875
0.020607 0.419679 0.166250
0.020741 0.419746 0.195625
0.020875 0.419813 0.225000
0.021009 0.419880 0.254375
0.021143 0.419947 0.283750
0.021277 0.420013 0.313125
0.021411 0.420080 0.342500
0.021545 0.420147 0.371875
0.021679 0.420214 0.401250
0.021813 0.420281 0.430625
0.021947 0.420348 0.460000
0.022081 0.420415 0.489375
0.022215 0.420482 0.518750
0.022349 0.420549 0.548125
0.022483 0.420616 0.577500
0.022616 0.420683 0.606875
0.022750 0.420750 0.636250
0.022884 0.420817 0.665625
0.023018 0.420884 0.695000
0.023152 0.420951 0.724375
0.023286 0.421018 0.753750
0.023420 0.421085 0.783125
0.023554 0.421152 0.812500
0.023688 0.421219 0.841875
0.023822 0.421286 0.871250
0.023956 0.421353 0.900625
0.024090 0.421420 0.930000
0.020552 0.451526 0.000000
0.020686 0.451593 0.019375
0.020820 0.451660 0.048750
0.020954 0.451727 0.078125
0.021088 0.451794 0.107500
0.021222 0.451861 0.136875
0.021356 0.451928 0.166250
0.021490 0.451995 0.195625
0.021624 0.452062 0.225000
0.021757 0.452129 0.254375
0.021891 0.452196 0.283750
0.022025 0.452263 0.313125
0.022159 0.452330 0.342500
0.022293 0.452397 0.371875
0.022427 0.452464 0.401250
0.022561 0.452531 0.430625
0.022695 0.452598 0.460000
0.022829 0.452665 0.489375
0.022963 0.452732 0.518750
0.023097 0.452799 0.548125
0.023231 0.452865 0.577500
0.023365 0.452932 0.606875
0.023499 0.452999 0.636250
0.023633 0.453066 0.665625
0.023767 0.453133 0.695000
0.023901 0.453200 0.724375
0.024035 0.453267 0.753750
0.024169 0.453334 0.783125
0.024303 0.453401 0.812500
0.024436 0.453468 0.841875
0.024570 0.453535 0.871250
0.024704 0.453602 0.900625
0.024838 0.453669 0.930000
0.021300 0.483775 0.000000
0.021434 0.483842 0.019375
0.021568 0.483909 0.048750
0.021702 0.483976 0.078125
0.021836 0.484043 0.107500
0.021970 0.484110 0.136875
0.022104 0.484177 0.166250
0.022238 0.484244 0.195625
0.022372 0.484311 0.225000
0.022506 0.484378 0.254375
0.022640 0.484445 0.283750
0.022774 0.484512 0.313125
0.022908 0.484579 0.342500
0.023042 0.484646 0.371875
0.023176 0.484713 0.401250
0.023310 0.484780 0.430625
0.023444 0.484847 0.460000
0.023578 0.484914 0.489375
0.023711 0.484981 0.518750
0.023845 0.485048 0.548125
0.023979 0.485115 0.577500
0.024113 0.485182 0.606875
0.024247 0.485249 0.636250
0.024381 0.485316 0.665625
0.024515 0.485383 0.695000
0.024649 0.485450 0.724375
0.024783 0.485517 0.753750
0.024917 0.485584 0.783125
0.025051 0.485650 0.812500
0.025185 0.485717 0.841875
0.025319 0.485784 0.871250
0.025453 0.485851 0.900625
0.025587 0.485918 0.930000
0.022049 0.516024 0.000000
0.022183 0.516091 0.019375
0.022317 0.516158 0.048750
0.022451 0.516225 0.078125
0.022585 0.516292 0.107500
0.022719 0.516359 0.136875
0.022852 0.516426 0.166250
0.022986 0.516493 0.195625
0.023120 0.516560 0.225000
0.023254 0.516627 0.254375
0.023388 0.516694 0.283750
0.023522 0.516761 0.313125
0.023656 0.516828 0.342500
0.023790 0.516895 0.371875
0.023924 0.516962 0.401250
0.024058 0.517029 0.430625
0.024192 0.517096 0.460000
0.024326 0.517163 0.489375
0.024460 0.517230 0.518750
0.024594 0.517297 0.548125
0.024728 0.517364 0.577500
0.024862 0.517431 0.606875
0.024996 0.517498 0.636250
0.025130 0.517565 0.665625
0.025264 0.517632 0.695000
0.025398 0.517699 0.724375
0.025531 0.517766 0.753750
0.025665 0.517833 0.783125
0.025799 0.517900 0.812500
0.025933 0.517967 0.841875
0.026067 0.518034 0.871250
0.026201 0.518101 0.900625
0.026335 0.518168 0.930000
0.022797 0.548274 0.000000
0.022931 0.548341 0.019375
0.023065 0.548408 0.048750
0.023199 0.548475 0.078125
0.023333 0.548542 0.107500
0.023467 0.548608 0.136875
0.023601 0.548675 0.166250
0.023735 0.548742 0.195625
0.023869 0.548809 0.225000
0.024003 0.548876 0.254375
0.024137 0.548943 0.283750
0.024271 0.549010 0.313125
0.024405 0.549077 0.342500
0.024539 0.549144 0.371875
0.024673 0.549211 0.401250
0.024806 0.549278 0.430625
0.024940 0.549345 0.460000
0.025074 0.549412 0.489375
0.025208 0.549479 0.518750
0.025342 0.549546 0.548125
0.025476 0.549613 0.577500
0.025610 0.549680 0.606875
0.025744 0.549747 0.636250
0.025878 0.549814 0.665625
0.026012 0.549881 0.695000
0.026146 0.549948 0.724375
0.026280 0.550015 0.753750
0.026414 0.550082 0.783125
0.026548 0.550149 0.812500
0.026682 0.550216 0.841875
0.026816 0.550283 0.871250
0.026950 0.550350 0.900625
0.027084 0.550417 0.930000
0.023546 0.580523 0.000000
0.023680 0.580590 0.019375
0.023814 0.580657 0.048750
0.023948 0.580724 0.078125
0.024081 0.580791 0.107500
0.024215 0.580858 0.136875
0.024349 0.580925 0.166250
0.024483 0.580992 0.195625
0.024617 0.581059 0.225000
0.024751 0.581126 0.254375
0.024885 0.581193 0.283750
0.025019 0.581260 0.313125
0.025153 0.581327 0.342500
0.025287 0.581394 0.371875
0.025421 0.581460 0.401250
0.025555 0.581527 0.430625
0.025689 0.581594 0.460000
0.025823 0.581661 0.489375
0.025957 0.581728 0.518750
0.026091 0.581795 0.548125
0.026225 0.581862 0.577500
0.026359 0.581929 0.606875
0.026493 0.581996 0.636250
0.026626 0.582063 0.665625
0.026760 0.582130 0.695000
0.026894 0.582197 0.724375
0.027028 0.582264 0.753750
0.027162 0.582331 0.783125
0.027296 0.582398 0.812500
0.027430 0.582465 0.841875
0.027564 0.582532 0.871250
0.027698 0.582599 0.900625
0.027832 0.582666 0.930000
0.024294 0.612772 0.000000
0.024428 0.612839 0.019375
0.024562 0.612906 0.048750
0.024696 0.612973 0.078125
0.024830 0.613040 0.107500
0.024964 0.613107 0.136875
0.025098 0.613174 0.166250
0.025232 0.613241 0.195625
0.025366 0.613308 0.225000
0.025500 0.613375 0.254375
0.025634 0.613442 0.283750
0.025768 0.613509 0.313125
0.025901 0.613576 0.342500
0.026035 0.613643 0.371875
0.026169 0.613710 0.401250
0.026303 0.613777 0.430625
0.026437 0.613844 0.460000
0.026571 0.613911 0.489375
0.026705 0.613978 0.518750
0.026839 0.614045 0.548125
0.026973 0.614112 0.577500
0.027107 0.614179 0.606875
0.027241 0.614245 0.636250
0.027375 0.614312 0.665625
0.027509 0.614379 0.695000
0.027643 0.614446 0.724375
0.027777 0.614513 0.753750
0.027911 0.614580 0.783125
0.028045 0.614647 0.812500
0.028179 0.614714 0.841875
0.028313 0.614781 0.871250
0.028447 0.614848 0.900625
0.028580 0.614915 0.930000
0.025042 0.645021 0.000000
0.025176 0.645088 0.019375
0.025310 0.645155 0.048750
0.025444 0.645222 0.078125
0.025578 0.645289 0.107500
0.025712 0.645356 0.136875
0.025846 0.645423 0.166250
0.025980 0.645490 0.195625
0.026114 0.645557 0.225000
0.026248 0.645624 0.254375
0.026382 0.645691 0.283750
0.026516 0.645758 0.313125
0.026650 0.645825 0.342500
0.026784 0.645892 0.371875
0.026918 0.645959 0.401250
0.027052 0.646026 0.430625
0.027186 0.646093 0.460000
0.027320 0.646160 0.489375
0.027454 0.646227 0.518750
0.027588 0.646294 0.548125
0.027721 0.646361 0.577500
0.027855 0.646428 0.606875
0.027989 0.646495 0.636250
0.028123 0.646562 0.665625
0.028257 0.646629 0.695000
0.028391 0.646696 0.724375
0.028525 0.646763 0.753750
0.028659 0.646830 0.783125
0.028793 0.646897 0.812500
0.028927 0.646964 0.841875
0.029061 0.647030 0.871250
0.029195 0.647097 0.900625
0.029329 0.647164 0.930000
0.025791 0.677270 0.000000
0.025925 0.677337 0.019375
0.026059 0.677404 0.048750
0.026193 0.677471 0.078125
0.026327 0.677538 0.107500
0.026461 0.677605 0.136875
0.026595 0.677672 0.166250
0.026729 0.677739 0.195625
0.026863 0.677806 0.225000
0.026996 0.677873 0.254375
0.027130 0.677940 0.283750
0.027264 0.678007 0.313125
0.027398 0.678074 0.342500
0.027532 0.678141 0.371875
0.027666 0.678208 0.401250
0.027800 0.678275 0.430625
0.027934 0.678342 0.460000
0.028068 0.678409 0.489375
0.028202 0.678476 0.518750
0.028336 0.678543 0.548125
0.028470 0.678610 0.577500
0.028604 0.678677 0.606875
0.028738 0.678744 0.636250
0.028872 0.678811 0.665625
0.029006 0.678878 0.695000
0.029140 0.678945 0.724375
0.029274 0.679012 0.753750
0.029408 0.679079 0.783125
0.029542 0.679146 0.812500
0.029675 0.679213 0.841875
0.029809 0.679280 0.871250
0.029943 0.679347 0.900625
0.029923 0.679336 0.930000
0.026539 0.709520 0.000000
0.026673 0.709587 0.019375
0.026807 0.709654 0.048750
0.026941 0.709721 0.078125
0.027075 0.709788 0.107500
0.027209 0.709855 0.136875
0.027343 0.709922 0.166250
0.027477 0.709989 0.195625
0.027611 0.710055 0.225000
0.027745 0.710122 0.254375
0.027879 0.710189 0.283750
0.028013 0.710256 0.313125
0.028147 0.710323 0.342500
0.028281 0.710390 0.371875
0.028415 0.710457 0.401250
0.028549 0.710524 0.430625
0.028683 0.710591 0.460000
0.028817 0.710658 0.489375
0.028950 0.710725 0.518750
0.029084 0.710792 0.548125
0.029218 0.710859 0.577500
0.029352 0.710926 0.606875
0.029486 0.710993 0.636250
0.029620 0.711060 0.665625
0.029754 0.711127 0.695000
0.029888 0.711194 0.724375
0.029978 0.711239 0.753750
0.029844 0.711172 0.783125
0.029710 0.711105 0.812500
0.029576 0.711038 0.841875
0.029442 0.710971 0.871250
0.029308 0.710904 0.900625
0.029174 0.710837 0.930000
0.027288 0.741769 0.000000
0.027422 0.741836 0.019375
0.027556 0.741903 0.048750
0.027690 0.741970 0.078125
0.027824 0.742037 0.107500
0.027958 0.742104 0.136875
0.028091 0.742171 0.166250
0.028225 0.742238 0.195625
0.028359 0.742305 0.225000
0.028493 0.742372 0.254375
0.028627 0.742439 0.283750
0.028761 0.742506 0.313125
0.028895 0.742573 0.342500
0.029029 0.742640 0.371875
0.029163 0.742707 0.401250
0.029297 0.742774 0.430625
0.029431 0.742840 0.460000
0.029565 0.742907 0.489375
0.029699 0.742974 0.518750
0.029833 0.743041 0.548125
0.029967 0.743108 0.577500
0.029899 0.743075 0.606875
0.029765 0.743008 0.636250
0.029631 0.742941 0.665625
0.029497 0.742874 0.695000
0.029363 0.742807 0.724375
0.029230 0.742740 0.753750
0.029096 0.742673 0.783125
0.028962 0.742606 0.812500
0.028828 0.742539 0.841875
0.028694 0.742472 0.871250
0.028560 0.742405 0.900625
0.028426 0.742338 0.930000
0.028036 0.774018 0.000000
0.028170 0.774085 0.019375
0.028304 0.774152 0.048750
0.028438 0.774219 0.078125
0.028572 0.774286 0.107500
0.028706 0.774353 0.136875
0.028840 0.774420 0.166250
0.028974 0.774487 0.195625
0.029108 0.774554 0.225000
0.029242 0.774621 0.254375
0.029376 0.774688 0.283750
0.029510 0.774755 0.313125
0.029644 0.774822 0.342500
0.029778 0.774889 0.371875
0.029912 0.774956 0.401250
0.029955 0.774977 0.430625
0.029821 0.774910 0.460000
0.029687 0.774843 0.489375
0.029553 0.774776 0.518750
0.029419 0.774709 0.548125
0.029285 0.774642 0.577500
0.029151 0.774575 0.606875
0.029017 0.774508 0.636250
0.028883 0.774441 0.665625
0.028749 0.774374 0.695000
0.028615 0.774308 0.724375
0.028481 0.774241 0.753750
0.028347 0.774174 0.783125
0.028213 0.774107 0.812500
0.028079 0.774040 0.841875
0.027945 0.773973 0.871250
0.027811 0.773906 0.900625
0.027677 0.773839 0.930000
0.028785 0.806267 0.000000
0.028919 0.806334 0.019375
0.029053 0.806401 0.048750
0.029186 0.806468 0.078125
0.029320 0.806535 0.107500
0.029454 0.806602 0.136875
0.029588 0.806669 0.166250
0.029722 0.806736 0.195625
0.029856 0.806803 0.225000
0.029990 0.806870 0.254375
0.029876 0.806813 0.283750
0.029742 0.806746 0.313125
0.029608 0.806679 0.342500
0.029474 0.806612 0.371875
0.029340 0.806545 0.401250
0.029206 0.806478 0.430625
0.029072 0.806411 0.460000
0.028938 0.806344 0.489375
0.028804 0.806277 0.518750
0.028670 0.806210 0.548125
0.028536 0.806143 0.577500
0.028402 0.806076 0.606875
0.028268 0.806009 0.636250
0.028135 0.805942 0.665625
0.028001 0.805875 0.695000
0.027867 0.805808 0.724375
0.027733 0.805741 0.753750
0.027599 0.805674 0.783125
0.027465 0.805607 0.812500
0.027331 0.805540 0.841875
0.027197 0.805473 0.871250
0.027063 0.805406 0.900625
0.026929 0.805339 0.930000
0.029533 0.838517 0.000000
0.029667 0.838584 0.019375
0.029801 0.838650 0.048750
0.029935 0.838717 0.078125
0.029931 0.838716 0.107500
0.029797 0.838649 0.136875
0.029663 0.838582 0.166250
0.029529 0.838515 0.195625
0.029395 0.838448 0.225000
0.029261 0.838381 0.254375
0.029127 0.838314 0.283750
0.028993 0.838247 0.313125
0.028860 0.838180 0.342500
0.028726 0.838113 0.371875
0.028592 0.838046 0.401250
0.028458 0.837979 0.430625
0.028324 0.837912 0.460000
0.028190 0.837845 0.489375
0.028056 0.837778 0.518750
0.027922 0.837711 0.548125
0.027788 0.837644 0.577500
0.027654 0.837577 0.606875
0.027520 0.837510 0.636250
0.027386 0.837443 0.665625
0.027252 0.837376 0.695000
0.027118 0.837309 0.724375
0.026984 0.837242 0.753750
0.026850 0.837175 0.783125
0.026716 0.837108 0.812500
